P3
# Package-authored 2:1 lat-long blue-hour environment source.
16 8
255
12 22 50   13 23 52   14 24 55   15 25 58   16 26 61   17 27 64   18 28 66   19 29 68   20 30 70   19 29 68   18 28 66   17 27 64   16 26 61   15 25 58   14 24 55   12 22 50
22 37 72   23 39 75   25 41 79   28 44 83   31 47 87   35 50 91   40 54 95   46 58 99   52 62 102  49 59 99   43 55 95   37 51 90   32 47 85   28 43 80   25 40 76   22 37 72
50 67 102  52 69 104  56 72 107  62 77 111  70 83 116  80 91 121  94 102 126 112 115 131 140 133 136 190 170 146 255 229 174 218 187 153 153 141 137  97 105 127  66 82 112  50 67 102
107 104 121 112 108 122 120 112 122 131 118 122 145 124 121 161 131 119 179 139 116 198 148 111 218 158 105 239 177 110 255 211 144 247 188 119 219 161 108 178 139 114 137 120 120 107 104 121
104 77 84  109 80 84  116 84 84  125 89 83  136 95 81  148 102 79 160 109 77 171 116 75 181 122 74 187 126 74 184 124 75 174 117 77 159 108 80 140 97 82 120 86 84 104 77 84
31 29 42   32 30 43   34 31 44   36 32 44   39 34 45   43 36 45   48 39 45   54 42 45   61 46 45   67 49 44   63 47 44   56 43 45   48 39 45   41 35 44   35 31 43   31 29 42
17 19 29   17 19 29   18 20 30   19 21 30   20 22 31   22 23 31   24 25 31   27 27 31   30 29 31   33 31 31   31 29 31   27 27 31   24 24 31   21 22 30   19 20 29   17 19 29
9 12 20    9 12 20    10 13 21   10 13 21   11 14 21   12 15 22   13 16 22   14 17 22   15 18 22   16 18 22   15 17 22   14 16 22   12 15 21   11 14 21   10 13 20   9 12 20
