P3
32 32
255
152 139 255  140 138 255  148 137 255  166 140 255  150 143 255  158 142 255  162 141 255  141 138 255  172 135 255  161 132 255  171 128 255  132 135 255  160 141 255  152 145 255  164 149 255  140 149 255  142 148 255  172 139 255  168 131 255  179 132 255  178 134 255  131 139 255  145 145 255  147 147 255  146 148 255  177 138 255  147 128 255  128 130 255  169 133 255  144 133 255  136 132 255  161 142 255
149 130 255  148 135 255  146 140 255  169 137 255  154 134 255  162 138 255  164 142 255  142 145 255  174 148 255  165 140 255  164 131 255  142 138 255  156 144 255  147 145 255  159 146 255  138 149 255  150 152 255  174 145 255  165 139 255  171 139 255  175 140 255  140 142 255  147 144 255  150 140 255  150 137 255  168 134 255  149 132 255  135 139 255  167 146 255  144 146 255  136 146 255  163 143 255
144 141 255  164 138 255  142 135 255  175 138 255  163 141 255  169 143 255  168 144 255  142 140 255  177 136 255  174 140 255  149 144 255  162 142 255  147 139 255  138 143 255  150 146 255  136 143 255  165 140 255  176 136 255  159 132 255  154 132 255  169 132 255  159 134 255  151 135 255  157 140 255  159 146 255  151 140 255  154 134 255  149 140 255  163 146 255  145 141 255  135 135 255  168 133 255
140 143 255  176 141 255  139 139 255  179 141 255  169 144 255  175 143 255  171 143 255  143 138 255  180 133 255  180 138 255  138 143 255  177 142 255  141 141 255  130 143 255  144 145 255  134 139 255  177 133 255  178 132 255  154 131 255  142 131 255  164 131 255  173 133 255  155 134 255  162 141 255  166 148 255  137 143 255  158 137 255  160 139 255  160 142 255  146 137 255  134 133 255  171 132 255
138 135 255  172 142 255  141 148 255  179 144 255  170 141 255  175 140 255  170 139 255  146 140 255  179 140 255  178 135 255  141 129 255  176 139 255  142 149 255  133 145 255  144 141 255  137 136 255  175 132 255  178 135 255  153 138 255  143 137 255  160 136 255  173 140 255  155 143 255  160 142 255  165 142 255  137 142 255  158 141 255  159 138 255  157 134 255  148 136 255  135 138 255  170 137 255
135 147 255  153 139 255  152 131 255  179 136 255  173 142 255  172 143 255  164 144 255  157 142 255  173 140 255  168 138 255  156 137 255  165 133 255  148 129 255  144 130 255  146 131 255  151 131 255  164 131 255  174 140 255  150 149 255  150 140 255  149 130 255  169 138 255  157 146 255  149 148 255  158 150 255  142 147 255  157 145 255  151 136 255  148 128 255  155 130 255  138 132 255  162 133 255
132 146 255  134 138 255  163 131 255  179 137 255  176 143 255  170 146 255  158 150 255  169 145 255  168 141 255  158 140 255  171 139 255  154 145 255  154 150 255  154 145 255  149 139 255  164 143 255  154 146 255  171 147 255  147 147 255  158 147 255  138 148 255  165 143 255  158 139 255  138 136 255  151 133 255  147 134 255  156 135 255  143 132 255  140 130 255  162 132 255  142 134 255  155 136 255
131 140 255  130 139 255  165 138 255  178 142 255  176 147 255  170 142 255  156 136 255  172 141 255  166 147 255  156 140 255  175 134 255  151 142 255  155 151 255  157 146 255  150 141 255  167 146 255  152 150 255  170 145 255  147 141 255  160 139 255  136 138 255  163 135 255  159 132 255  136 137 255  150 141 255  149 140 255  155 139 255  142 142 255  137 144 255  163 138 255  143 131 255  153 133 255
131 135 255  141 139 255  164 143 255  173 144 255  170 146 255  173 140 255  158 133 255  172 141 255  155 149 255  155 140 255  173 131 255  151 138 255  149 145 255  151 142 255  157 139 255  166 142 255  161 145 255  165 142 255  156 138 255  162 135 255  149 132 255  163 132 255  165 132 255  140 139 255  154 146 255  155 143 255  147 139 255  150 142 255  134 146 255  152 141 255  147 137 255  154 136 255
131 132 255  155 139 255  162 146 255  167 142 255  162 138 255  177 141 255  160 144 255  172 146 255  140 147 255  154 140 255  170 132 255  151 135 255  140 137 255  144 136 255  166 136 255  165 136 255  173 136 255  160 137 255  169 138 255  164 136 255  165 134 255  163 136 255  173 139 255  146 141 255  158 143 255  164 139 255  136 134 255  160 135 255  130 136 255  138 142 255  153 148 255  156 143 255
131 139 255  162 144 255  161 149 255  163 143 255  158 137 255  179 143 255  161 150 255  172 144 255  133 138 255  154 141 255  169 144 255  151 145 255  136 146 255  140 147 255  171 149 255  165 150 255  179 151 255  157 144 255  176 136 255  166 143 255  174 150 255  163 146 255  177 141 255  148 135 255  161 129 255  168 139 255  130 150 255  165 150 255  128 149 255  131 143 255  156 136 255  156 136 255
141 144 255  158 146 255  156 148 255  157 149 255  153 150 255  174 150 255  163 150 255  170 150 255  136 149 255  152 149 255  160 148 255  152 146 255  138 144 255  141 141 255  163 139 255  166 136 255  174 133 255  160 142 255  166 150 255  167 145 255  173 140 255  165 143 255  172 145 255  145 143 255  165 140 255  164 142 255  140 145 255  168 145 255  136 145 255  141 147 255  158 150 255  157 143 255
162 146 255  151 144 255  146 142 255  144 147 255  143 152 255  165 145 255  166 139 255  166 145 255  143 151 255  149 148 255  144 145 255  152 141 255  143 138 255  143 134 255  147 131 255  167 130 255  165 130 255  167 141 255  147 152 255  171 144 255  170 136 255  167 141 255  164 147 255  137 146 255  174 145 255  156 141 255  161 137 255  172 142 255  151 146 255  162 146 255  164 146 255  159 141 255
178 149 255  145 145 255  139 142 255  134 145 255  135 147 255  158 142 255  168 137 255  163 140 255  149 143 255  146 144 255  131 144 255  153 142 255  147 139 255  144 134 255  135 130 255  169 130 255  157 130 255  172 139 255  133 147 255  173 140 255  168 133 255  168 139 255  158 145 255  132 143 255  180 141 255  151 140 255  176 138 255  176 144 255  163 149 255  178 147 255  167 145 255  161 141 255
178 150 255  143 148 255  138 147 255  134 144 255  136 141 255  158 143 255  168 146 255  164 137 255  148 128 255  146 136 255  133 144 255  153 146 255  147 148 255  145 141 255  136 134 255  169 134 255  154 134 255  171 136 255  135 139 255  174 135 255  169 131 255  169 136 255  157 141 255  135 136 255  179 131 255  152 139 255  172 146 255  176 148 255  164 151 255  179 148 255  166 146 255  160 142 255
174 132 255  137 142 255  136 151 255  136 152 255  143 153 255  163 151 255  167 149 255  166 141 255  143 132 255  146 130 255  145 128 255  151 140 255  148 151 255  149 143 255  147 134 255  170 137 255  146 141 255  166 140 255  145 139 255  174 141 255  171 143 255  170 135 255  152 128 255  147 137 255  170 146 255  160 141 255  153 136 255  177 136 255  168 137 255  180 133 255  160 130 255  156 141 255
171 150 255  131 147 255  135 145 255  138 141 255  150 137 255  167 136 255  167 135 255  168 135 255  138 136 255  146 138 255  156 141 255  149 140 255  148 140 255  152 134 255  158 128 255  171 137 255  138 146 255  160 138 255  155 131 255  175 140 255  173 150 255  171 148 255  148 147 255  159 143 255  161 139 255  168 139 255  134 139 255  178 136 255  172 133 255  180 133 255  153 133 255  151 133 255
170 140 255  130 142 255  135 144 255  139 144 255  151 143 255  169 138 255  166 132 255  168 136 255  137 140 255  147 144 255  159 149 255  150 146 255  149 144 255  154 144 255  161 144 255  171 146 255  136 147 255  158 139 255  158 131 255  174 136 255  173 140 255  170 142 255  147 143 255  162 138 255  157 132 255  169 133 255  130 134 255  178 137 255  172 139 255  179 137 255  152 135 255  150 137 255
171 132 255  133 139 255  142 146 255  135 144 255  153 142 255  172 140 255  161 138 255  159 138 255  150 138 255  156 144 255  153 150 255  160 145 255  153 140 255  159 143 255  164 146 255  166 144 255  142 143 255  152 137 255  162 132 255  166 134 255  162 137 255  164 138 255  146 139 255  152 136 255  149 133 255  158 135 255  141 137 255  176 140 255  165 142 255  164 140 255  155 137 255  148 141 255
173 131 255  137 140 255  152 149 255  131 140 255  154 132 255  176 140 255  154 147 255  146 140 255  168 133 255  169 139 255  146 146 255  174 139 255  159 131 255  165 133 255  168 134 255  159 135 255  149 136 255  145 135 255  167 133 255  155 136 255  148 139 255  156 139 255  145 138 255  140 139 255  139 140 255  143 143 255  156 147 255  173 144 255  155 142 255  143 142 255  159 142 255  146 144 255
174 143 255  139 141 255  156 139 255  129 134 255  155 129 255  178 132 255  151 136 255  140 142 255  176 149 255  175 145 255  142 140 255  180 145 255  162 149 255  168 147 255  170 145 255  156 149 255  153 153 255  141 149 255  170 145 255  150 138 255  141 131 255  151 137 255  144 144 255  134 145 255  133 146 255  136 140 255  163 135 255  172 138 255  150 140 255  133 147 255  161 153 255  145 151 255
169 144 255  138 147 255  161 149 255  140 140 255  160 130 255  174 135 255  147 140 255  143 137 255  169 135 255  170 133 255  140 131 255  173 134 255  162 137 255  162 144 255  162 150 255  161 149 255  158 148 255  142 142 255  165 136 255  145 143 255  148 150 255  157 145 255  141 139 255  137 144 255  138 149 255  136 140 255  166 131 255  164 131 255  156 130 255  142 141 255  155 151 255  145 143 255
159 141 255  135 142 255  172 144 255  162 141 255  168 139 255  164 141 255  139 144 255  149 140 255  155 136 255  160 140 255  137 143 255  157 137 255  161 131 255  149 141 255  147 151 255  171 143 255  167 135 255  144 140 255  154 144 255  136 145 255  163 146 255  167 145 255  135 144 255  142 143 255  149 142 255  137 136 255  171 130 255  148 136 255  168 142 255  161 141 255  143 139 255  145 142 255
152 143 255  133 140 255  180 137 255  179 139 255  175 141 255  158 142 255  133 144 255  154 143 255  144 142 255  153 146 255  134 150 255  146 142 255  160 133 255  139 142 255  135 150 255  178 143 255  174 136 255  146 140 255  146 144 255  130 145 255  173 146 255  174 144 255  131 143 255  146 139 255  157 135 255  137 134 255  175 133 255  136 140 255  178 146 255  175 141 255  135 136 255  145 140 255
153 149 255  137 141 255  180 134 255  175 135 255  174 136 255  154 138 255  134 140 255  154 144 255  145 149 255  151 149 255  134 149 255  147 147 255  160 144 255  139 145 255  138 146 255  174 148 255  172 151 255  146 143 255  148 136 255  129 143 255  174 150 255  171 143 255  134 136 255  150 133 255  159 129 255  137 134 255  173 138 255  137 139 255  179 141 255  175 141 255  137 142 255  147 137 255
157 140 255  153 142 255  178 143 255  155 137 255  169 131 255  144 139 255  138 147 255  153 139 255  153 131 255  149 132 255  132 134 255  153 141 255  160 147 255  143 139 255  154 132 255  157 141 255  164 150 255  148 151 255  160 152 255  130 146 255  171 140 255  157 138 255  147 136 255  162 138 255  164 141 255  134 140 255  163 139 255  147 141 255  180 143 255  172 142 255  150 141 255  152 137 255
162 139 255  168 141 255  177 143 255  135 138 255  163 133 255  133 142 255  142 152 255  153 142 255  162 132 255  147 134 255  131 136 255  159 141 255  160 146 255  146 142 255  170 139 255  140 141 255  156 142 255  151 146 255  171 150 255  131 143 255  169 135 255  142 132 255  160 129 255  174 138 255  170 146 255  131 149 255  154 152 255  157 148 255  181 145 255  169 144 255  163 142 255  158 140 255
162 146 255  172 145 255  176 143 255  131 137 255  161 130 255  131 136 255  143 141 255  152 137 255  164 133 255  146 136 255  132 139 255  161 143 255  160 146 255  146 146 255  174 147 255  136 146 255  154 146 255  151 142 255  173 139 255  132 140 255  167 142 255  138 140 255  163 138 255  177 139 255  171 141 255  130 143 255  152 146 255  160 141 255  181 136 255  167 134 255  166 133 255  159 135 255
151 148 255  172 145 255  169 142 255  137 139 255  154 136 255  135 138 255  142 140 255  145 140 255  160 140 255  142 140 255  145 141 255  155 141 255  155 141 255  140 146 255  175 151 255  137 146 255  155 142 255  151 136 255  161 131 255  137 140 255  155 148 255  138 143 255  159 138 255  178 136 255  164 135 255  132 137 255  157 139 255  156 134 255  180 130 255  160 131 255  169 132 255  155 135 255
136 145 255  172 143 255  161 141 255  145 145 255  145 149 255  141 149 255  140 148 255  135 150 255  154 152 255  137 147 255  163 141 255  148 137 255  149 133 255  132 141 255  176 149 255  139 140 255  158 131 255  150 130 255  144 129 255  144 141 255  139 152 255  138 140 255  154 129 255  179 129 255  155 130 255  135 132 255  164 134 255  150 131 255  179 129 255  150 134 255  172 139 255  149 141 255
128 151 255  172 145 255  157 140 255  149 144 255  140 149 255  144 142 255  139 136 255  129 140 255  152 145 255  135 148 255  172 150 255  144 145 255  145 140 255  128 138 255  176 137 255  141 141 255  159 144 255  150 137 255  136 130 255  147 140 255  132 150 255  138 141 255  152 132 255  180 133 255  151 134 255  137 142 255  168 150 255  147 144 255  179 137 255  145 133 255  174 129 255  146 137 255
128 131 255  174 136 255  158 141 255  154 140 255  141 139 255  146 136 255  145 134 255  138 134 255  150 135 255  144 133 255  164 131 255  150 134 255  147 138 255  139 144 255  168 150 255  148 149 255  154 148 255  148 146 255  144 144 255  148 141 255  135 137 255  144 138 255  154 139 255  177 143 255  149 147 255  146 147 255  165 148 255  154 142 255  176 135 255  143 139 255  165 143 255  153 142 255
