P3
32 32
255
121 116 86  113 108 80  114 106 79  113 106 78  108 104 77  112 108 80  112 106 79  110 101 75  110 101 75  108 99 73  99 91 68  106 101 75  120 117 87  131 128 95  125 122 91  132 128 95  112 111 82  128 124 92  117 114 85  106 102 75  101 96 71  118 111 82  124 119 88  111 107 80  126 119 88  111 105 78  108 102 76  111 104 77  103 97 72  101 93 69  98 89 66  118 107 79
116 110 81  109 103 76  113 105 77  113 105 77  110 105 78  115 111 82  111 105 78  110 102 75  110 101 75  107 99 73  99 92 68  104 99 73  117 113 84  126 121 90  120 116 86  124 119 88  109 106 79  126 122 90  119 116 86  110 106 78  104 99 74  120 114 85  126 121 90  114 111 82  124 118 87  109 104 77  107 102 75  112 104 77  104 98 72  104 96 71  101 93 69  118 109 81
105 98 72  103 96 71  112 102 76  113 104 77  114 108 80  120 116 86  108 103 77  109 101 75  109 101 75  105 97 72  101 93 69  101 95 70  113 108 80  116 110 81  112 105 78  109 102 76  105 100 74  122 118 87  123 119 89  116 112 83  107 105 78  123 119 88  128 125 93  120 118 87  120 115 85  107 102 75  106 100 74  114 106 78  106 99 73  109 102 76  108 101 75  117 111 82
99 92 68  101 93 69  113 103 76  114 105 77  118 111 82  125 119 88  104 101 75  107 101 75  107 100 74  105 97 72  104 96 71  100 95 70  113 108 80  110 105 78  109 103 76  101 95 70  105 99 74  118 114 84  126 121 90  119 115 85  107 105 78  124 120 89  129 125 93  125 122 90  115 111 82  104 99 73  105 100 74  117 108 80  109 102 75  114 107 79  112 105 78  113 108 80
97 91 67  100 93 69  114 104 77  115 106 78  118 111 82  125 118 87  103 99 74  110 106 79  111 107 79  110 105 78  112 107 79  105 102 76  118 114 84  111 108 80  111 105 78  100 95 70  104 99 73  112 106 79  124 116 86  117 111 82  104 100 74  122 117 86  129 125 93  127 123 92  113 108 80  102 97 72  105 99 73  120 111 82  112 105 77  118 112 83  116 112 83  112 108 80
98 91 68  102 94 70  112 103 76  114 105 77  118 110 81  120 113 84  105 101 75  114 110 82  116 113 84  115 112 83  118 115 85  110 108 81  120 117 87  116 113 84  113 108 80  104 99 73  105 99 74  110 103 76  120 112 83  115 108 80  103 98 72  121 115 85  126 123 91  127 124 92  113 109 81  105 99 73  107 101 75  120 111 82  114 107 79  121 115 85  119 116 86  112 109 81
99 94 70  106 100 74  112 105 77  115 108 80  120 113 84  114 108 80  109 105 78  116 112 83  120 116 86  118 115 86  122 119 88  112 110 81  117 114 85  119 115 85  113 107 79  108 101 75  106 99 73  110 102 75  118 109 80  113 106 78  104 98 73  121 114 85  119 116 86  127 122 91  114 108 80  110 103 76  112 105 77  120 112 82  117 110 81  124 118 88  122 118 88  110 107 80
102 99 73  112 108 80  113 109 81  118 113 84  124 118 87  108 104 78  113 109 81  118 114 85  123 119 89  122 118 88  126 123 91  113 111 82  114 110 81  122 115 85  112 105 77  111 103 76  106 98 72  109 99 73  114 104 77  112 103 76  105 99 73  120 113 83  111 107 80  125 119 88  114 106 79  115 106 78  117 108 80  120 113 83  121 114 85  127 122 91  125 122 91  108 105 78
102 99 73  114 109 81  113 109 81  119 114 85  125 119 88  105 101 75  115 111 82  119 115 86  125 121 90  122 119 88  127 123 91  113 110 81  112 107 80  123 116 86  112 105 77  114 105 78  107 99 73  110 100 74  114 104 77  111 103 76  105 98 73  119 112 83  108 104 77  125 118 87  115 107 79  119 109 80  119 111 82  120 113 83  122 115 85  128 123 91  125 121 90  107 103 77
101 96 71  113 108 80  115 113 84  120 116 86  122 115 86  103 98 73  115 110 82  120 117 87  124 121 90  118 113 84  119 113 83  109 103 76  108 101 75  117 109 80  112 105 77  114 106 78  109 102 75  114 106 78  117 109 80  111 103 76  104 96 71  117 108 79  104 98 73  121 113 83  116 109 81  123 115 85  121 114 84  117 110 82  120 113 83  121 115 85  121 115 85  107 101 75
103 97 72  113 107 80  118 116 86  120 117 87  116 110 82  103 97 72  119 113 84  121 119 88  120 117 87  113 108 80  112 104 77  108 101 74  105 97 72  110 101 75  112 104 77  109 103 77  108 102 76  116 110 81  119 111 82  113 104 77  107 98 72  115 105 78  101 94 70  117 108 80  117 110 82  124 118 87  121 114 85  112 106 78  117 109 81  112 105 78  121 113 83  110 103 76
109 104 77  114 110 81  119 115 85  117 113 84  111 107 79  106 101 75  123 116 86  119 115 86  112 109 81  108 102 76  107 99 73  112 104 77  110 104 77  110 104 77  114 108 80  104 100 74  105 101 75  117 110 82  118 111 82  116 108 80  114 106 78  118 109 80  103 96 71  117 109 80  117 111 82  123 118 87  120 115 85  110 106 79  117 112 83  106 102 75  124 116 86  116 108 80
116 113 84  117 113 84  117 112 83  114 109 81  110 106 78  110 105 78  125 118 87  115 109 81  105 100 74  103 96 71  103 94 69  115 107 79  117 114 85  115 113 84  118 113 84  103 100 74  105 101 75  118 111 83  119 112 83  120 113 83  121 113 84  122 114 84  105 99 74  118 111 82  118 113 84  124 119 88  122 118 88  112 111 82  121 117 87  105 102 76  126 118 87  118 110 81
118 114 85  117 113 84  116 111 83  114 110 81  112 108 80  112 108 80  125 119 88  115 110 81  105 100 74  104 97 72  106 97 72  114 107 79  120 116 86  115 112 84  117 113 84  106 103 76  107 103 76  117 110 82  119 112 83  117 111 82  121 114 84  120 113 84  106 101 75  118 111 82  119 114 84  121 117 87  121 118 87  115 113 84  122 119 89  108 105 78  125 118 87  120 112 83
114 107 79  113 107 80  115 109 81  117 112 83  118 113 84  116 112 83  127 122 90  121 116 86  111 108 80  111 106 79  118 112 83  115 109 81  118 112 83  107 102 76  113 107 80  113 108 80  110 105 78  113 105 78  117 109 81  109 103 76  117 109 81  114 107 79  108 102 76  117 110 81  120 115 85  115 111 83  119 116 86  118 116 86  124 121 90  114 110 82  125 119 88  125 119 88
113 104 76  111 104 77  113 108 80  120 114 85  123 118 88  119 116 86  129 124 92  124 121 90  115 113 84  115 113 84  128 123 91  115 110 81  119 110 81  102 95 71  109 103 77  119 114 84  114 107 80  109 102 75  117 108 79  102 96 71  115 106 78  109 101 75  110 104 77  116 109 81  122 116 86  109 106 79  116 113 84  121 118 88  126 122 91  119 115 86  124 119 88  130 124 92
114 105 77  111 103 76  112 106 78  120 113 84  122 115 85  116 110 82  125 119 88  124 120 89  115 113 84  114 111 82  129 123 91  114 109 81  123 114 85  104 98 72  108 103 77  122 116 86  115 109 80  109 101 75  117 108 80  101 95 70  116 108 80  108 101 75  112 105 78  115 108 80  121 114 85  104 101 75  112 108 80  118 113 84  122 117 87  118 113 83  121 115 85  128 121 89
114 104 77  109 101 74  110 103 76  116 108 80  114 105 78  109 101 74  118 111 82  122 117 87  114 111 83  112 108 81  126 119 88  113 108 80  123 116 86  107 103 76  109 105 78  119 113 84  113 107 79  108 100 74  116 107 79  103 98 73  118 112 83  110 104 77  113 106 78  114 107 79  117 109 81  102 97 72  108 101 75  111 104 77  114 106 79  112 105 77  117 110 81  121 112 83
114 104 76  108 100 74  111 104 77  115 108 80  107 100 74  110 101 74  113 106 79  121 116 86  114 111 83  113 109 81  124 117 87  112 107 79  115 110 81  109 104 77  109 105 78  114 108 80  110 104 77  107 100 74  111 104 77  105 100 74  119 113 83  112 106 79  113 106 79  110 103 77  112 106 78  104 99 73  107 101 75  110 102 76  110 103 76  108 101 75  117 109 81  119 110 81
113 103 76  108 101 75  116 112 83  120 116 86  106 102 75  115 108 80  111 106 79  120 116 86  115 112 83  114 110 82  123 117 87  111 106 78  106 101 75  109 103 76  108 103 76  108 103 76  106 101 75  107 102 75  109 104 77  109 105 78  121 116 86  114 108 80  111 103 76  104 97 71  110 105 78  111 108 80  111 107 80  113 107 80  111 106 78  109 106 78  121 117 87  120 113 84
113 103 76  109 103 76  120 117 87  123 121 90  107 104 77  118 113 83  111 107 80  120 116 86  115 112 83  114 110 82  123 117 87  110 105 78  101 96 71  108 101 75  107 102 75  105 100 74  105 100 75  108 103 76  109 104 77  111 108 80  122 118 88  115 109 81  110 100 74  101 93 68  109 105 78  115 113 84  114 111 83  115 111 82  112 108 80  111 109 81  125 122 91  121 116 86
120 112 83  113 108 80  118 115 85  121 117 87  106 103 76  117 111 82  110 105 78  116 110 82  110 105 78  115 111 82  122 117 87  110 105 78  102 96 71  108 100 74  108 102 76  108 103 76  108 104 77  111 106 79  112 108 80  112 108 81  123 118 88  118 112 83  116 109 80  107 101 75  112 108 81  114 112 83  115 112 83  115 111 82  113 109 81  108 105 78  122 117 87  118 112 83
130 126 93  120 116 86  116 111 83  117 112 83  105 101 75  116 109 81  109 102 75  111 102 75  102 94 70  118 112 83  118 115 86  110 106 78  103 96 71  107 99 73  110 104 77  114 109 81  115 110 82  115 112 83  118 115 85  113 110 81  125 120 89  122 118 87  127 122 91  119 116 86  119 115 86  112 109 81  118 114 84  115 110 82  116 111 82  105 99 74  118 109 81  112 104 77
133 128 95  122 118 88  114 110 81  116 110 82  106 101 75  115 108 80  111 103 76  112 102 75  99 91 67  121 114 84  112 110 82  108 104 77  106 98 73  109 100 74  111 105 78  118 112 83  119 114 84  116 113 84  121 116 86  112 109 81  127 121 90  123 119 88  130 126 94  123 120 89  122 118 88  109 106 79  121 116 86  114 110 81  120 114 84  106 100 74  121 111 82  111 103 76
126 118 87  118 111 82  111 105 78  114 107 79  105 99 73  113 105 78  111 102 76  114 104 77  98 91 67  118 110 81  103 98 72  104 98 73  108 100 74  110 102 76  110 103 76  117 109 81  116 109 81  111 105 77  116 109 81  109 104 77  126 119 88  123 118 87  131 127 94  124 121 90  121 115 85  103 98 73  119 112 83  113 108 80  122 115 86  109 105 78  127 119 88  116 111 82
120 110 81  115 106 78  110 103 76  112 105 77  104 97 72  112 103 76  112 103 76  113 104 76  99 92 68  114 104 77  101 93 69  104 97 71  108 101 74  111 103 76  109 101 75  113 105 77  113 104 77  109 100 74  112 103 76  106 100 74  124 117 86  120 115 86  129 125 93  123 119 89  119 112 83  102 95 70  115 107 79  113 108 80  122 116 86  110 106 79  128 122 90  121 117 87
120 111 82  118 110 81  114 108 80  115 110 81  109 103 76  114 106 78  117 109 81  112 105 78  104 98 73  110 102 75  105 96 71  110 102 75  110 103 76  111 105 77  111 105 78  113 107 79  114 107 79  114 106 78  111 103 76  104 98 73  119 111 82  115 109 81  121 117 87  119 115 85  121 114 84  109 102 75  114 107 79  115 110 81  123 116 86  106 101 75  119 113 84  120 115 85
121 112 83  122 116 86  120 117 87  121 118 87  116 111 83  117 112 83  125 119 88  114 110 82  111 107 80  108 100 74  109 99 73  117 107 79  112 106 78  113 108 80  115 110 82  114 111 82  117 112 83  120 113 83  111 104 77  101 95 70  113 104 76  108 101 75  112 107 80  114 109 81  123 117 86  117 111 82  113 107 80  117 111 82  124 116 86  100 94 70  109 101 74  118 109 81
122 114 84  124 118 87  121 118 87  121 118 88  117 113 84  117 112 83  127 120 89  112 109 81  112 108 80  106 100 74  112 103 76  120 111 82  112 106 79  113 108 80  115 111 82  113 110 82  117 113 83  123 116 86  111 105 78  102 95 71  113 103 76  106 99 73  108 103 77  111 106 79  124 117 87  120 113 84  112 107 79  118 112 83  124 117 86  99 93 69  106 98 73  119 110 81
126 121 90  126 120 89  117 112 83  118 113 84  113 107 80  114 108 80  123 116 85  108 103 76  109 104 77  108 103 76  118 111 82  123 115 85  113 107 79  114 108 80  112 107 79  110 105 78  117 112 83  126 121 90  115 112 83  110 106 79  117 112 83  108 102 76  104 97 72  106 99 73  119 112 83  118 112 83  111 106 78  117 111 82  124 117 87  104 99 74  109 102 76  121 113 84
128 125 93  126 122 90  114 108 80  119 112 83  109 103 76  109 103 76  120 111 82  104 98 73  110 103 76  108 104 77  120 116 86  122 116 86  115 109 81  118 110 82  110 104 77  108 103 76  116 111 82  127 123 91  117 115 86  119 117 87  118 114 85  107 103 76  101 93 69  102 94 69  112 105 78  116 110 81  108 103 77  113 108 80  122 116 86  112 107 79  108 104 77  119 113 84
122 117 87  123 117 87  112 106 79  123 115 85  105 100 74  105 99 73  118 110 81  106 101 74  114 108 80  105 100 74  114 108 80  117 111 82  119 112 83  124 117 86  112 108 80  111 107 79  117 112 83  123 118 88  112 109 81  123 118 88  112 109 81  104 100 74  101 94 70  102 94 70  105 99 73  111 104 77  104 100 74  109 105 78  121 115 85  118 111 82  104 99 73  116 110 81
