P3
32 32
255
236 183 0  234 179 0  233 178 0  236 183 0  235 182 0  233 177 0  233 178 0  234 179 0  235 182 0  235 181 0  234 180 0  235 181 0  235 181 0  235 180 0  235 181 0  235 181 0  236 183 0  236 183 0  233 178 0  233 177 0  232 176 0  233 177 0  233 178 0  234 180 0  234 179 0  232 176 0  233 177 0  233 178 0  234 180 0  235 181 0  236 182 0  234 180 0
235 180 0  234 179 0  233 179 0  236 182 0  235 181 0  233 178 0  233 178 0  233 178 0  234 180 0  234 179 0  233 178 0  234 179 0  234 180 0  234 179 0  234 179 0  234 180 0  234 179 0  234 179 0  235 181 0  234 180 0  233 178 0  234 180 0  235 181 0  234 179 0  234 179 0  234 179 0  234 179 0  234 179 0  235 182 0  235 182 0  235 182 0  235 182 0
234 179 0  234 179 0  234 179 0  235 181 0  235 180 0  233 178 0  233 178 0  233 178 0  234 179 0  233 179 0  233 178 0  234 179 0  234 179 0  233 178 0  233 178 0  234 179 0  233 178 0  233 177 0  235 182 0  235 181 0  234 179 0  235 181 0  236 182 0  233 178 0  233 179 0  234 180 0  234 179 0  234 179 0  236 182 0  236 182 0  235 182 0  236 183 0
233 177 0  234 180 0  235 181 0  233 178 0  233 178 0  233 178 0  234 179 0  234 179 0  233 178 0  234 179 0  236 183 0  235 181 0  234 180 0  233 179 0  234 180 0  236 183 0  235 181 0  234 179 0  234 180 0  234 179 0  232 177 0  234 179 0  234 180 0  233 178 0  233 178 0  233 179 0  233 178 0  233 178 0  233 178 0  234 180 0  236 183 0  235 180 0
233 179 0  235 181 0  235 182 0  234 179 0  234 179 0  234 180 0  234 179 0  233 178 0  233 178 0  234 180 0  236 184 0  235 180 0  234 179 0  234 180 0  235 181 0  236 183 0  235 181 0  234 180 0  234 180 0  233 178 0  232 176 0  234 179 0  234 180 0  233 178 0  234 179 0  234 180 0  234 179 0  234 179 0  233 178 0  234 179 0  236 183 0  235 181 0
235 182 0  236 183 0  236 183 0  235 181 0  235 182 0  236 184 0  234 179 0  232 177 0  234 179 0  235 181 0  236 184 0  234 179 0  233 177 0  236 183 0  236 182 0  234 180 0  235 181 0  235 181 0  234 179 0  233 178 0  232 176 0  234 180 0  235 181 0  233 178 0  234 180 0  236 183 0  235 181 0  235 181 0  233 179 0  234 179 0  235 182 0  235 182 0
233 178 0  234 180 0  235 181 0  233 178 0  234 179 0  235 181 0  235 181 0  235 181 0  234 180 0  235 181 0  236 182 0  235 182 0  235 181 0  234 180 0  234 180 0  235 181 0  234 180 0  234 180 0  236 182 0  235 182 0  235 181 0  235 182 0  235 182 0  235 182 0  235 182 0  236 182 0  234 180 0  234 179 0  235 182 0  235 182 0  235 180 0  234 179 0
232 177 0  234 179 0  234 180 0  233 177 0  233 178 0  234 179 0  235 182 0  236 183 0  235 181 0  235 181 0  235 182 0  236 183 0  236 183 0  233 178 0  234 179 0  235 181 0  234 180 0  234 180 0  236 183 0  236 184 0  236 184 0  236 183 0  236 183 0  236 183 0  236 183 0  235 182 0  234 180 0  234 179 0  236 184 0  236 183 0  234 180 0  233 178 0
234 180 0  233 178 0  233 178 0  234 179 0  233 178 0  233 178 0  233 179 0  234 179 0  234 180 0  235 181 0  235 181 0  235 180 0  234 180 0  235 182 0  236 183 0  236 183 0  236 183 0  236 182 0  233 178 0  234 180 0  237 184 0  236 183 0  236 183 0  235 182 0  235 181 0  233 178 0  235 181 0  236 183 0  236 184 0  236 182 0  234 180 0  235 181 0
234 180 0  234 179 0  233 179 0  233 178 0  233 178 0  233 177 0  234 179 0  234 180 0  235 181 0  235 181 0  235 181 0  235 181 0  235 180 0  236 183 0  236 183 0  236 183 0  235 182 0  235 181 0  234 179 0  234 180 0  235 182 0  235 182 0  235 182 0  234 180 0  234 180 0  234 180 0  235 181 0  235 181 0  235 182 0  235 181 0  234 180 0  234 180 0
234 180 0  235 181 0  235 180 0  232 177 0  232 177 0  233 177 0  234 180 0  235 181 0  236 184 0  236 183 0  235 181 0  235 181 0  235 182 0  236 183 0  236 183 0  236 183 0  234 180 0  233 178 0  236 182 0  235 181 0  233 178 0  234 179 0  234 179 0  232 177 0  234 179 0  237 184 0  234 179 0  232 177 0  233 178 0  234 179 0  234 180 0  233 178 0
233 178 0  234 179 0  234 180 0  235 181 0  235 181 0  235 182 0  234 179 0  233 178 0  234 180 0  234 180 0  234 179 0  234 180 0  235 181 0  234 179 0  234 179 0  234 179 0  234 180 0  235 180 0  234 179 0  234 180 0  235 181 0  235 181 0  235 180 0  235 181 0  235 181 0  235 180 0  233 178 0  232 177 0  234 179 0  234 180 0  235 181 0  234 179 0
232 177 0  233 178 0  234 179 0  236 182 0  236 183 0  236 183 0  234 179 0  233 177 0  233 178 0  233 178 0  233 177 0  234 180 0  235 180 0  233 177 0  233 177 0  232 177 0  234 180 0  235 182 0  233 178 0  234 179 0  236 183 0  235 182 0  235 181 0  236 183 0  235 181 0  234 179 0  233 178 0  233 177 0  234 180 0  235 180 0  235 181 0  234 180 0
233 178 0  233 177 0  233 177 0  233 178 0  234 179 0  234 180 0  236 182 0  236 183 0  233 178 0  233 178 0  233 178 0  233 178 0  234 179 0  235 181 0  234 180 0  234 179 0  234 180 0  235 181 0  234 180 0  235 180 0  235 182 0  236 183 0  236 183 0  235 181 0  235 181 0  235 182 0  235 181 0  235 181 0  234 180 0  234 179 0  233 179 0  235 181 0
233 178 0  233 178 0  233 178 0  233 178 0  233 178 0  234 179 0  235 182 0  236 183 0  234 179 0  233 178 0  233 178 0  234 179 0  234 180 0  234 180 0  234 179 0  234 179 0  234 179 0  234 179 0  234 179 0  234 180 0  235 182 0  235 182 0  235 182 0  235 182 0  235 182 0  235 182 0  235 181 0  235 181 0  234 180 0  234 179 0  234 179 0  235 182 0
233 178 0  234 180 0  234 180 0  233 179 0  233 178 0  233 178 0  234 180 0  235 181 0  234 180 0  233 178 0  232 176 0  234 180 0  235 182 0  232 177 0  232 177 0  233 178 0  232 177 0  232 176 0  233 178 0  234 180 0  236 183 0  235 181 0  234 180 0  236 183 0  236 183 0  234 180 0  234 179 0  234 179 0  235 181 0  235 181 0  234 180 0  236 183 0
235 180 0  234 179 0  233 178 0  233 178 0  233 178 0  233 177 0  233 178 0  233 178 0  234 179 0  234 180 0  235 181 0  234 180 0  234 180 0  234 180 0  234 179 0  234 179 0  233 178 0  233 178 0  234 179 0  234 179 0  234 179 0  234 180 0  235 181 0  235 181 0  235 182 0  236 182 0  235 181 0  234 180 0  235 182 0  235 181 0  233 178 0  234 180 0
235 182 0  234 179 0  233 178 0  233 178 0  233 178 0  233 178 0  233 177 0  233 177 0  234 179 0  235 181 0  236 183 0  234 180 0  234 179 0  235 181 0  235 181 0  234 179 0  234 179 0  234 179 0  234 180 0  234 179 0  233 177 0  234 179 0  234 180 0  235 181 0  235 181 0  236 183 0  235 181 0  235 181 0  236 183 0  235 181 0  233 178 0  234 179 0
236 183 0  236 182 0  235 182 0  236 182 0  236 182 0  235 182 0  234 180 0  234 179 0  235 181 0  235 181 0  235 181 0  235 182 0  235 181 0  233 178 0  233 178 0  234 180 0  234 180 0  234 180 0  236 183 0  235 182 0  234 179 0  233 178 0  233 178 0  236 183 0  236 183 0  235 181 0  235 182 0  236 182 0  236 182 0  236 182 0  236 183 0  235 182 0
236 182 0  235 181 0  235 181 0  236 182 0  235 182 0  235 181 0  234 180 0  234 179 0  234 180 0  234 180 0  234 180 0  235 181 0  235 181 0  234 179 0  234 179 0  234 179 0  234 179 0  234 180 0  235 182 0  235 181 0  234 180 0  234 179 0  234 179 0  235 181 0  235 181 0  235 181 0  235 181 0  235 181 0  235 181 0  235 181 0  235 181 0  235 182 0
235 181 0  233 178 0  233 177 0  235 182 0  235 181 0  233 177 0  233 178 0  233 178 0  234 179 0  234 179 0  234 179 0  234 179 0  234 179 0  235 181 0  234 180 0  233 177 0  233 178 0  233 178 0  233 178 0  234 179 0  235 181 0  235 182 0  235 181 0  232 177 0  233 178 0  236 183 0  234 179 0  233 177 0  234 179 0  234 179 0  233 177 0  235 182 0
234 179 0  233 178 0  233 178 0  235 182 0  235 181 0  233 177 0  233 179 0  234 179 0  233 178 0  234 179 0  235 182 0  234 180 0  234 179 0  233 178 0  234 179 0  234 180 0  234 180 0  234 179 0  233 177 0  233 178 0  234 180 0  234 180 0  234 179 0  233 178 0  234 180 0  236 183 0  234 179 0  233 177 0  233 178 0  234 179 0  235 181 0  236 182 0
233 178 0  233 178 0  234 179 0  236 182 0  235 181 0  233 177 0  234 179 0  234 180 0  233 178 0  234 179 0  236 183 0  234 180 0  234 179 0  233 177 0  233 178 0  235 181 0  235 180 0  234 180 0  233 177 0  233 178 0  234 180 0  234 179 0  234 179 0  234 179 0  234 180 0  235 182 0  234 179 0  233 178 0  233 177 0  234 179 0  236 183 0  236 183 0
233 178 0  234 180 0  235 181 0  236 184 0  236 183 0  234 180 0  234 180 0  234 180 0  235 181 0  235 181 0  235 182 0  234 179 0  233 178 0  235 180 0  235 180 0  234 180 0  234 179 0  233 178 0  233 178 0  234 179 0  234 179 0  235 182 0  236 183 0  235 181 0  234 179 0  232 177 0  234 180 0  235 181 0  232 177 0  232 176 0  232 177 0  235 181 0
234 179 0  235 181 0  235 182 0  236 184 0  236 182 0  234 179 0  234 179 0  234 180 0  235 181 0  235 181 0  235 181 0  234 180 0  234 180 0  234 180 0  235 180 0  235 181 0  234 179 0  234 179 0  235 180 0  234 180 0  234 179 0  235 182 0  236 183 0  235 181 0  234 179 0  232 177 0  234 180 0  235 181 0  233 178 0  233 178 0  233 178 0  234 180 0
236 183 0  236 183 0  236 183 0  236 184 0  235 181 0  232 177 0  233 178 0  234 179 0  236 182 0  235 181 0  234 179 0  235 181 0  236 182 0  234 179 0  234 180 0  236 183 0  235 181 0  234 180 0  237 184 0  235 182 0  233 178 0  235 182 0  236 183 0  234 180 0  234 179 0  233 178 0  235 181 0  235 182 0  235 181 0  234 180 0  234 180 0  233 178 0
234 179 0  235 182 0  236 183 0  236 183 0  235 182 0  235 181 0  235 181 0  234 180 0  236 183 0  236 182 0  235 181 0  236 183 0  236 183 0  234 180 0  234 179 0  234 179 0  235 180 0  235 181 0  236 183 0  236 182 0  234 179 0  234 179 0  234 179 0  234 179 0  234 179 0  233 177 0  235 181 0  236 182 0  235 181 0  234 180 0  234 179 0  235 181 0
233 178 0  235 181 0  236 183 0  235 182 0  236 182 0  236 184 0  235 182 0  235 181 0  236 182 0  236 182 0  236 182 0  236 183 0  236 183 0  234 180 0  234 179 0  233 177 0  234 180 0  235 182 0  236 183 0  236 182 0  235 181 0  233 178 0  233 177 0  234 179 0  233 178 0  232 177 0  234 180 0  235 182 0  235 182 0  235 180 0  233 178 0  235 182 0
236 182 0  235 181 0  235 181 0  235 182 0  235 181 0  234 180 0  235 182 0  236 182 0  234 180 0  234 180 0  234 180 0  234 179 0  233 178 0  232 177 0  233 178 0  234 180 0  235 181 0  235 181 0  235 181 0  235 181 0  235 182 0  234 179 0  233 177 0  233 178 0  233 178 0  232 176 0  233 178 0  234 179 0  234 179 0  235 181 0  236 183 0  235 180 0
235 182 0  235 182 0  235 181 0  234 180 0  234 180 0  234 179 0  234 180 0  235 181 0  233 178 0  233 178 0  234 179 0  234 179 0  233 178 0  234 179 0  234 179 0  234 179 0  235 181 0  235 182 0  234 180 0  234 180 0  235 181 0  234 180 0  234 179 0  233 178 0  233 178 0  233 178 0  233 178 0  233 178 0  234 180 0  235 181 0  235 181 0  234 180 0
235 181 0  236 182 0  236 183 0  233 177 0  233 177 0  233 178 0  233 178 0  233 178 0  232 176 0  233 177 0  234 179 0  234 179 0  234 180 0  236 184 0  235 182 0  233 178 0  235 182 0  236 184 0  234 179 0  233 178 0  234 179 0  235 181 0  235 182 0  234 179 0  234 180 0  235 182 0  234 179 0  233 178 0  235 181 0  234 180 0  232 177 0  234 180 0
234 179 0  234 179 0  234 179 0  234 179 0  233 178 0  232 177 0  234 180 0  235 181 0  233 178 0  233 178 0  233 179 0  235 181 0  236 182 0  236 182 0  235 182 0  235 181 0  235 180 0  234 180 0  233 178 0  233 178 0  234 179 0  235 181 0  236 182 0  234 179 0  233 179 0  234 179 0  234 179 0  234 180 0  235 182 0  235 182 0  235 181 0  234 179 0
