P3
32 32
255
64 120 44  69 127 49  70 129 46  75 135 49  83 146 46  89 152 49  75 136 50  60 115 44  67 125 54  64 120 42  67 124 47  64 120 45  67 125 53  62 118 46  60 116 45  60 115 43  61 117 42  64 121 45  68 126 51  64 120 42  76 136 57  80 142 53  76 137 47  75 135 50  73 133 50  72 131 45  71 129 41  71 129 44  72 131 52  71 130 52  63 120 43  69 128 55
62 118 41  66 123 44  75 135 54  76 137 51  85 148 51  90 154 53  76 136 51  60 116 45  68 126 54  71 129 53  72 132 55  63 119 43  61 116 41  63 119 47  61 117 46  61 116 44  62 118 42  62 118 41  63 119 42  67 125 49  67 125 43  75 135 46  73 131 42  76 136 52  71 130 46  72 130 45  76 136 50  76 136 52  70 128 48  68 126 48  65 121 44  66 123 49
68 125 50  73 132 56  70 128 44  77 137 52  85 147 51  88 151 52  76 137 52  63 120 49  66 123 49  69 126 47  66 123 42  63 119 41  63 119 43  65 121 48  61 116 44  63 120 47  69 127 51  67 125 47  67 124 48  66 122 47  72 131 53  71 130 42  72 131 43  76 136 54  74 134 52  73 131 46  73 133 45  73 132 47  68 125 42  72 131 52  69 127 49  70 128 53
71 130 55  68 126 46  69 127 43  76 136 50  80 141 45  82 143 44  73 132 48  65 121 49  68 125 50  74 134 54  75 134 54  67 124 44  69 127 50  68 126 50  67 124 52  67 124 50  68 126 47  69 127 46  65 122 45  68 126 53  67 124 47  70 127 43  74 133 49  76 136 54  74 134 51  74 133 48  74 133 44  72 130 42  71 130 46  73 132 50  67 124 41  67 123 43
69 127 50  70 128 48  70 128 43  73 132 45  80 141 48  80 140 45  71 128 43  66 123 49  70 128 51  72 131 46  72 131 46  70 127 44  71 130 49  68 126 47  68 125 50  70 128 52  72 131 49  71 129 44  65 121 42  68 125 54  68 126 51  69 126 45  70 128 47  71 130 47  72 131 48  75 135 50  78 138 50  76 136 48  74 133 47  73 132 46  69 126 40  70 128 43
67 124 45  69 127 45  73 132 46  74 133 46  79 140 50  79 140 49  72 131 47  67 124 48  69 126 46  73 131 43  74 132 43  72 130 43  73 131 46  71 130 48  67 125 46  70 128 49  77 137 52  76 135 49  68 126 48  66 123 53  68 126 54  70 128 51  68 126 47  70 128 46  74 133 50  78 139 53  81 143 54  79 140 51  74 134 45  74 133 44  76 135 48  73 132 43
66 123 42  69 126 42  75 134 47  77 137 50  78 139 51  79 139 52  74 133 51  68 125 47  70 127 45  77 137 47  79 139 48  73 132 41  76 135 47  76 136 52  70 128 48  71 129 46  77 137 48  78 139 49  70 128 50  65 121 52  65 122 51  70 128 55  66 122 46  71 129 49  74 133 50  78 139 53  81 143 52  79 139 48  77 137 46  76 135 44  80 141 50  76 136 44
67 123 42  72 130 47  72 130 41  76 135 47  77 138 52  77 137 52  72 131 48  68 125 45  76 135 53  80 141 49  81 142 49  77 136 43  78 138 47  77 136 50  74 133 53  74 133 49  77 136 44  77 136 42  68 125 45  61 116 48  63 119 49  65 122 51  61 116 41  70 128 47  72 130 46  76 136 48  80 140 48  78 138 45  81 143 51  78 138 45  78 137 42  80 141 46
73 132 53  71 129 45  71 129 39  73 132 43  75 134 50  74 133 50  70 128 46  68 124 43  74 133 49  78 138 43  80 140 44  83 145 53  77 136 42  73 131 42  73 132 49  76 136 51  81 142 48  81 142 48  72 130 52  56 109 40  62 118 50  60 115 45  63 118 46  68 126 45  73 132 48  77 137 50  80 140 48  79 139 46  78 137 43  79 139 44  79 139 43  79 138 40
72 130 50  71 128 44  71 129 39  71 128 39  72 130 45  73 132 50  71 129 48  67 124 43  75 134 50  78 137 43  86 149 55  77 136 41  84 146 54  79 139 51  73 131 49  75 134 49  81 142 48  81 141 46  72 131 53  59 113 46  63 119 52  60 115 46  60 114 42  71 129 51  75 134 52  78 138 51  81 142 51  80 141 49  79 139 44  79 139 44  78 138 40  87 150 55
74 133 55  72 130 47  73 131 44  74 133 46  73 131 48  73 132 50  71 129 48  65 121 39  69 125 39  77 136 41  85 147 54  75 134 39  81 142 49  74 133 44  70 127 45  70 128 42  75 133 38  77 136 40  70 127 48  61 116 50  64 120 54  61 116 48  60 114 43  72 130 52  72 131 48  74 132 45  79 139 48  81 142 50  76 135 41  83 144 52  78 137 41  79 139 42
68 125 47  74 133 53  76 135 50  74 133 48  76 135 52  74 132 50  69 125 43  68 124 43  76 135 52  82 143 51  76 134 38  79 139 46  82 143 52  74 133 46  67 123 42  70 127 44  78 137 46  77 136 42  64 119 38  57 110 40  60 114 45  63 119 52  66 123 54  72 131 54  74 133 52  77 137 51  80 141 50  79 139 48  79 140 47  79 139 46  78 137 42  80 141 46
64 119 43  71 129 51  75 134 52  73 131 46  70 127 42  71 129 44  74 132 51  74 133 53  74 133 49  77 137 44  80 140 47  79 139 46  77 136 44  73 131 46  68 124 47  70 127 48  77 136 47  77 136 45  70 127 48  59 113 40  63 119 49  63 119 52  64 119 50  70 127 51  72 129 49  74 132 46  77 136 45  77 137 45  75 134 41  82 143 52  76 135 42  78 137 43
66 121 49  67 124 47  72 130 48  70 127 43  71 129 43  73 132 46  73 131 48  72 130 48  76 136 51  77 137 44  82 143 51  81 142 51  81 141 51  70 127 43  63 118 43  66 122 44  72 130 43  74 132 43  71 128 49  64 119 45  62 117 44  62 116 48  65 120 52  67 123 47  69 126 47  75 134 49  79 139 48  76 134 42  74 132 39  76 135 43  78 137 46  78 137 46
63 119 49  66 122 48  70 127 47  72 130 48  74 132 46  73 131 43  71 128 42  70 127 43  74 133 47  75 134 42  82 143 52  77 136 45  80 141 52  73 131 50  61 116 44  64 119 45  74 132 49  75 134 48  70 127 46  66 122 45  66 122 49  62 116 47  62 117 47  66 122 46  68 124 46  74 132 48  79 139 49  77 136 45  76 135 44  78 137 47  77 137 47  74 132 41
58 112 44  63 118 46  67 123 45  71 129 49  73 131 45  74 132 43  74 132 45  73 131 47  74 133 46  74 132 39  77 136 44  75 133 42  78 138 49  72 129 50  59 112 43  62 116 45  72 130 50  74 132 49  70 126 45  69 126 47  67 124 49  61 115 46  62 117 47  65 120 45  66 121 43  71 128 44  77 136 44  77 136 44  78 137 47  76 135 45  78 138 51  72 129 41
56 108 43  61 115 45  64 119 42  68 124 45  73 131 44  76 135 45  76 134 48  75 133 49  77 136 50  76 135 44  76 134 42  76 135 45  78 137 49  68 124 45  57 109 43  59 112 43  68 124 45  71 128 47  71 129 47  72 130 49  67 123 46  59 113 42  63 118 49  63 118 43  65 120 43  71 128 44  76 134 43  75 133 41  77 136 47  74 133 43  77 136 50  73 131 46
58 111 49  63 118 51  64 118 42  67 122 43  76 134 48  77 136 46  73 130 41  72 130 44  78 137 51  79 139 50  80 140 51  77 137 48  77 136 48  65 120 42  57 109 45  58 111 44  65 120 42  70 127 48  73 131 50  73 130 48  67 123 45  58 111 40  62 116 47  62 116 42  65 120 44  73 131 48  78 137 47  74 132 41  76 134 45  77 136 48  72 129 42  76 134 52
57 110 49  62 117 51  66 122 48  66 122 43  76 134 48  79 139 50  75 134 46  72 130 44  75 133 46  75 133 43  76 135 45  75 134 45  72 129 40  64 118 41  58 111 49  59 112 48  66 121 45  70 127 49  68 124 41  71 128 44  63 117 37  60 113 43  60 114 45  62 115 42  62 115 39  67 123 39  74 131 40  74 132 41  73 131 42  74 132 44  70 127 41  74 132 50
51 101 38  60 113 47  66 121 47  64 118 40  74 132 46  76 135 46  74 132 45  75 134 50  73 131 44  77 136 49  73 130 41  75 133 45  73 130 43  64 119 42  57 109 47  58 111 47  63 118 42  65 120 40  70 126 45  74 132 50  63 117 37  64 119 51  57 109 39  64 118 46  63 118 43  69 125 43  76 134 45  74 132 43  73 131 43  72 129 41  68 124 38  67 123 39
56 108 47  57 110 42  66 122 49  66 121 44  73 131 48  74 132 45  71 127 41  71 128 43  70 127 41  71 128 41  74 132 46  72 129 44  72 129 44  64 118 44  55 107 45  56 107 42  61 115 40  66 122 45  73 131 52  73 130 48  67 123 45  63 118 49  59 113 43  66 122 50  67 123 48  69 125 43  71 128 40  72 128 41  77 135 51  74 132 46  70 126 42  68 124 41
59 112 53  59 112 46  67 123 51  65 119 43  68 123 41  72 129 45  73 130 46  70 127 42  70 126 42  73 131 50  69 125 43  71 129 48  74 132 52  64 118 45  55 106 43  57 109 44  63 117 44  65 119 43  69 125 46  68 123 40  63 117 38  64 118 49  63 118 49  67 122 48  67 123 47  69 125 46  72 129 46  72 129 45  70 126 41  71 128 43  73 130 48  71 128 47
55 106 45  56 108 41  64 118 45  66 122 47  68 124 45  68 124 43  69 125 42  70 127 42  69 124 42  71 128 52  69 125 49  66 121 44  68 124 47  61 114 43  53 104 39  56 108 42  62 116 45  64 118 43  68 123 45  69 125 42  69 126 48  63 117 46  64 118 48  65 119 42  69 125 47  68 124 45  66 121 41  68 123 43  69 126 43  69 125 42  69 124 42  70 127 46
53 104 42  59 111 45  61 114 39  62 116 40  64 118 41  63 117 39  67 122 40  71 128 45  69 124 44  62 115 42  61 114 42  62 115 42  64 119 45  63 117 48  57 109 45  57 109 43  62 115 45  64 119 47  65 120 41  69 125 43  69 125 48  60 113 40  66 121 50  68 124 46  69 124 44  66 121 42  63 117 41  64 118 41  66 121 40  67 122 41  66 121 38  68 124 43
54 105 42  61 115 49  63 117 44  64 118 44  64 119 46  63 117 44  66 121 42  72 129 46  66 121 42  60 113 45  57 108 40  58 110 41  60 112 42  61 114 47  59 112 48  59 112 47  61 115 46  61 114 44  63 117 39  71 128 46  70 126 48  62 115 41  64 118 44  70 127 47  70 126 43  64 118 40  60 112 40  62 115 41  66 121 43  64 118 38  66 120 39  71 128 48
54 104 42  60 113 47  66 121 49  64 118 45  63 117 47  61 114 44  65 119 41  71 128 45  64 118 40  58 110 45  55 106 43  56 107 41  58 110 43  60 113 47  60 114 49  60 114 49  60 113 46  59 112 43  65 119 43  72 130 49  69 125 47  63 117 43  63 117 42  70 127 45  71 127 42  64 119 42  59 111 43  60 113 42  67 122 47  65 119 42  68 124 44  72 129 49
53 103 40  58 110 44  65 120 48  61 115 41  59 112 42  58 110 41  63 117 41  71 127 45  64 118 41  54 105 42  53 103 43  54 105 42  57 109 44  58 110 46  59 112 47  59 112 47  59 112 45  59 111 43  67 122 47  71 127 46  69 125 47  64 119 45  64 118 43  69 125 42  70 126 40  65 119 44  59 112 47  59 111 43  64 118 44  67 122 46  70 126 48  69 125 46
53 103 41  58 111 45  63 116 44  59 111 38  57 108 39  57 108 42  64 118 44  71 127 46  65 119 45  52 103 42  49 98 39  54 104 43  54 105 42  56 107 43  57 108 42  58 110 44  57 109 43  56 107 39  65 119 44  66 121 39  68 124 46  66 121 48  64 118 42  68 123 39  70 126 39  64 119 44  58 110 46  58 109 43  60 113 39  64 118 43  68 124 47  68 124 45
55 106 45  59 112 47  59 111 37  60 113 41  57 109 41  57 108 42  64 117 44  69 125 44  65 120 46  52 102 42  48 96 38  52 102 41  53 103 39  58 111 48  58 110 45  55 106 39  54 104 36  54 105 36  63 116 41  68 123 42  63 116 37  65 119 47  62 116 41  67 122 39  72 129 45  65 119 46  56 107 44  59 112 46  64 119 47  60 113 36  68 124 48  70 126 48
54 105 45  59 112 48  59 111 39  60 112 41  60 113 47  59 112 47  62 115 42  65 118 37  61 113 39  50 98 37  51 101 43  50 99 37  56 108 47  58 110 48  60 113 50  58 110 44  54 105 37  55 105 37  62 115 40  69 124 45  68 123 47  62 115 44  61 113 40  68 124 44  69 124 41  60 112 38  53 103 39  57 108 42  62 116 43  63 117 42  67 123 48  64 118 41
49 98 37  52 101 36  63 116 48  62 115 47  61 114 49  58 110 45  59 111 38  64 118 39  65 119 48  56 108 49  51 100 41  50 98 36  56 108 47  55 105 41  57 109 43  58 110 45  59 111 45  60 112 45  62 116 41  68 123 45  63 116 41  61 114 45  62 116 47  69 124 49  69 125 47  62 116 45  57 108 47  59 112 48  61 113 40  60 112 36  60 112 37  65 119 46
49 97 37  53 103 40  56 107 37  61 115 47  61 114 49  60 112 47  61 113 42  61 114 37  61 114 44  54 104 43  49 97 37  57 108 49  58 110 50  56 107 43  59 112 47  61 114 48  59 111 42  57 108 38  65 119 47  65 119 42  63 116 43  61 114 49  58 110 43  60 111 37  61 114 36  59 111 42  55 106 44  55 106 40  66 120 50  66 121 48  57 108 34  60 112 42
