P3
32 32
255
208 189 6  209 191 6  210 192 6  208 190 6  207 188 6  209 190 6  210 192 6  208 189 6  205 186 6  206 187 6  206 188 6  207 188 6  207 188 6  209 190 6  210 192 6  211 193 6  211 193 6  208 190 6  205 186 6  208 189 6  211 193 6  209 190 6  207 188 6  209 191 6  212 194 6  211 193 6  211 193 6  211 193 6  211 193 6  208 190 6  205 186 6  208 189 6
207 188 6  209 190 6  210 192 6  210 192 6  209 191 6  210 191 6  210 192 6  209 191 6  208 189 6  207 188 6  206 188 6  207 189 6  208 190 6  209 191 6  210 192 6  211 193 6  212 194 6  209 191 6  207 188 6  209 191 6  211 193 6  209 191 6  207 188 6  208 190 6  209 191 6  210 192 6  211 193 6  210 192 6  209 191 6  208 190 6  208 189 6  208 189 6
206 187 6  208 189 6  210 192 6  211 193 6  212 194 6  211 193 6  210 191 6  210 192 6  210 192 6  208 190 6  206 188 6  208 189 6  209 191 6  209 191 6  210 192 6  211 193 6  212 194 6  210 192 6  208 190 6  210 192 6  212 194 6  210 191 6  207 189 6  207 189 6  207 189 6  209 191 6  212 194 6  209 191 6  207 188 6  209 190 6  210 192 6  208 190 6
208 189 6  208 190 6  209 190 6  209 191 6  209 191 6  210 191 6  210 191 6  210 192 6  211 193 6  208 190 6  206 187 6  207 188 6  208 189 6  209 190 6  209 191 6  210 191 6  210 192 6  210 191 6  209 191 6  210 192 6  211 193 6  210 191 6  209 190 6  208 190 6  207 189 6  208 190 6  209 191 6  208 189 6  207 188 6  208 190 6  210 192 6  209 191 6
210 192 6  209 190 6  207 189 6  207 189 6  207 188 6  208 190 6  210 192 6  211 193 6  211 193 6  208 190 6  205 186 6  206 187 6  207 188 6  208 189 6  209 190 6  208 190 6  208 189 6  209 191 6  211 193 6  210 192 6  209 191 6  210 191 6  210 192 6  209 190 6  208 189 6  207 188 6  206 188 6  207 188 6  207 188 6  208 190 6  210 191 6  210 192 6
207 189 6  208 190 6  209 191 6  208 190 6  207 189 6  209 190 6  210 192 6  209 191 6  209 190 6  208 190 6  208 190 6  209 190 6  209 191 6  209 191 6  210 191 6  208 190 6  207 188 6  208 189 6  209 190 6  208 190 6  208 189 6  209 190 6  209 191 6  209 190 6  208 189 6  207 188 6  206 188 6  208 189 6  209 191 6  209 191 6  209 191 6  210 192 6
205 186 6  208 190 6  211 193 6  210 191 6  208 189 6  209 190 6  210 191 6  208 189 6  206 187 6  208 190 6  211 193 6  211 193 6  212 194 6  211 193 6  211 192 6  208 190 6  206 187 6  206 187 6  206 188 6  206 187 6  206 187 6  207 189 6  209 190 6  208 190 6  208 189 6  207 188 6  206 188 6  209 190 6  211 193 6  210 192 6  209 191 6  210 191 6
207 189 6  208 189 6  208 190 6  208 189 6  207 189 6  207 189 6  207 189 6  207 188 6  207 188 6  208 189 6  209 190 6  209 191 6  209 191 6  209 191 6  208 190 6  208 190 6  208 190 6  208 189 6  207 189 6  208 190 6  209 190 6  208 190 6  208 190 6  209 191 6  210 191 6  208 190 6  206 188 6  209 190 6  211 193 6  210 192 6  210 192 6  211 193 6
210 191 6  207 189 6  205 186 6  206 187 6  207 188 6  206 187 6  205 186 6  206 187 6  207 189 6  207 188 6  207 188 6  207 188 6  207 188 6  207 188 6  206 188 6  209 191 6  211 193 6  210 192 6  208 190 6  210 192 6  212 194 6  210 191 6  207 189 6  209 191 6  211 193 6  209 191 6  207 188 6  208 190 6  210 192 6  211 193 6  211 193 6  212 194 6
210 192 6  208 189 6  205 186 6  206 187 6  207 188 6  206 187 6  205 187 6  206 188 6  208 189 6  208 189 6  208 189 6  209 190 6  209 191 6  208 190 6  207 189 6  209 191 6  211 193 6  210 192 6  209 191 6  210 191 6  210 192 6  209 190 6  207 188 6  208 189 6  209 190 6  207 189 6  206 188 6  207 189 6  208 190 6  210 191 6  211 193 6  210 192 6
211 193 6  208 190 6  205 186 6  206 187 6  206 188 6  206 187 6  206 187 6  207 188 6  208 189 6  208 190 6  209 191 6  210 192 6  211 193 6  210 191 6  208 190 6  209 191 6  210 192 6  210 192 6  210 192 6  209 191 6  209 190 6  208 189 6  207 188 6  206 187 6  206 187 6  206 187 6  206 187 6  206 188 6  207 188 6  209 190 6  211 193 6  209 190 6
210 191 6  208 190 6  207 189 6  208 189 6  208 190 6  207 188 6  206 187 6  207 189 6  208 190 6  208 190 6  208 189 6  209 191 6  210 192 6  209 191 6  208 189 6  208 190 6  209 190 6  208 190 6  208 189 6  207 189 6  207 188 6  208 189 6  208 190 6  208 190 6  208 190 6  208 189 6  208 189 6  207 189 6  207 189 6  209 190 6  210 192 6  208 190 6
208 190 6  209 190 6  209 191 6  210 191 6  210 191 6  208 190 6  206 188 6  208 189 6  209 190 6  208 189 6  207 188 6  208 189 6  209 191 6  208 190 6  207 188 6  207 189 6  207 189 6  207 188 6  206 187 6  205 187 6  205 186 6  208 189 6  210 192 6  211 193 6  211 193 6  210 192 6  209 191 6  208 190 6  208 189 6  209 191 6  210 192 6  208 190 6
209 191 6  209 191 6  208 190 6  208 190 6  208 189 6  208 190 6  208 190 6  208 189 6  208 189 6  208 190 6  209 191 6  208 190 6  207 189 6  207 188 6  206 187 6  208 189 6  209 191 6  209 190 6  208 189 6  208 189 6  207 189 6  208 189 6  208 190 6  209 190 6  209 191 6  209 191 6  209 191 6  209 191 6  208 190 6  209 190 6  209 191 6  209 190 6
211 193 6  209 191 6  207 189 6  207 188 6  206 187 6  208 190 6  210 192 6  208 190 6  206 188 6  209 191 6  212 194 6  209 190 6  206 187 6  205 186 6  205 186 6  208 189 6  211 193 6  211 192 6  210 192 6  210 192 6  209 191 6  208 189 6  207 188 6  207 188 6  207 188 6  208 190 6  210 192 6  209 191 6  209 190 6  209 190 6  209 190 6  209 191 6
208 190 6  207 189 6  207 188 6  207 188 6  206 188 6  208 189 6  209 191 6  207 189 6  206 187 6  207 189 6  209 190 6  208 189 6  206 188 6  206 188 6  206 187 6  208 189 6  210 191 6  210 192 6  211 193 6  211 193 6  211 192 6  209 190 6  207 188 6  207 188 6  207 189 6  208 190 6  209 191 6  210 191 6  210 192 6  209 190 6  207 188 6  208 189 6
205 186 6  206 187 6  206 188 6  207 188 6  207 188 6  207 189 6  208 189 6  207 188 6  205 186 6  205 186 6  205 187 6  206 188 6  207 189 6  207 189 6  207 189 6  208 189 6  209 190 6  210 192 6  211 193 6  211 194 6  212 194 6  209 191 6  207 188 6  207 188 6  208 189 6  208 189 6  208 190 6  210 192 6  212 194 6  209 190 6  205 186 6  206 187 6
206 187 6  207 188 6  207 188 6  207 189 6  208 189 6  207 188 6  206 188 6  207 189 6  208 189 6  207 188 6  206 187 6  206 187 6  207 188 6  206 188 6  206 188 6  208 189 6  209 191 6  209 190 6  208 190 6  209 190 6  209 190 6  208 189 6  207 188 6  207 188 6  206 188 6  207 188 6  208 189 6  209 191 6  210 192 6  209 191 6  208 189 6  207 188 6
207 188 6  207 189 6  208 189 6  208 190 6  209 190 6  207 188 6  205 186 6  208 189 6  211 193 6  209 190 6  206 188 6  206 187 6  206 187 6  206 187 6  206 187 6  207 189 6  209 191 6  207 189 6  205 186 6  206 187 6  206 187 6  207 188 6  207 189 6  206 187 6  205 186 6  206 188 6  208 189 6  208 189 6  208 190 6  209 191 6  210 192 6  208 189 6
207 189 6  207 188 6  207 188 6  208 189 6  208 190 6  207 189 6  206 187 6  209 190 6  211 193 6  209 190 6  206 188 6  207 189 6  208 190 6  208 189 6  207 188 6  208 189 6  209 191 6  208 190 6  208 189 6  208 190 6  208 190 6  208 189 6  207 188 6  207 188 6  207 188 6  208 190 6  210 191 6  210 191 6  210 191 6  209 190 6  208 190 6  207 188 6
208 189 6  207 188 6  206 187 6  207 188 6  208 190 6  208 189 6  207 189 6  210 191 6  212 194 6  209 191 6  206 188 6  209 190 6  211 193 6  209 191 6  208 189 6  208 190 6  209 190 6  210 191 6  210 192 6  211 193 6  211 193 6  209 190 6  206 187 6  207 189 6  209 190 6  210 192 6  212 194 6  211 193 6  211 193 6  208 190 6  206 187 6  206 188 6
209 190 6  208 189 6  207 188 6  207 188 6  207 188 6  208 189 6  209 191 6  210 191 6  210 192 6  208 190 6  206 188 6  209 190 6  211 193 6  209 191 6  207 189 6  208 190 6  209 191 6  209 190 6  208 189 6  209 191 6  210 192 6  208 190 6  206 187 6  207 189 6  209 190 6  210 192 6  212 194 6  210 192 6  209 191 6  208 190 6  208 189 6  208 190 6
210 191 6  209 190 6  208 190 6  207 188 6  206 187 6  208 190 6  211 193 6  210 192 6  209 191 6  208 189 6  206 188 6  208 190 6  210 192 6  209 190 6  207 188 6  208 190 6  210 191 6  208 189 6  206 187 6  207 189 6  209 191 6  207 189 6  206 187 6  207 189 6  209 190 6  210 192 6  212 194 6  210 191 6  207 188 6  208 190 6  209 191 6  210 191 6
210 192 6  209 191 6  208 190 6  208 189 6  207 188 6  209 190 6  211 193 6  210 192 6  209 191 6  209 190 6  208 189 6  209 191 6  211 193 6  209 190 6  206 188 6  207 188 6  208 189 6  208 190 6  208 190 6  208 190 6  208 189 6  207 189 6  207 188 6  208 189 6  209 191 6  210 192 6  211 193 6  210 192 6  209 190 6  209 190 6  209 190 6  209 191 6
210 192 6  209 191 6  209 190 6  208 190 6  208 189 6  210 191 6  211 193 6  211 193 6  210 192 6  209 191 6  209 191 6  210 192 6  211 193 6  208 190 6  206 187 6  206 187 6  206 187 6  209 190 6  211 193 6  209 191 6  207 188 6  208 189 6  208 190 6  209 190 6  209 191 6  209 191 6  210 192 6  210 192 6  210 192 6  209 191 6  209 190 6  208 190 6
208 190 6  209 190 6  209 191 6  209 191 6  210 191 6  210 192 6  210 192 6  209 191 6  208 190 6  209 191 6  210 191 6  210 191 6  209 191 6  209 191 6  209 190 6  208 190 6  208 189 6  210 191 6  212 194 6  210 191 6  208 189 6  208 190 6  209 190 6  208 190 6  208 190 6  208 190 6  208 190 6  209 190 6  209 191 6  209 191 6  210 191 6  210 192 6
206 187 6  208 189 6  209 191 6  211 192 6  212 194 6  210 192 6  209 190 6  208 189 6  207 188 6  209 190 6  210 192 6  209 191 6  208 189 6  210 191 6  211 194 6  210 192 6  209 191 6  211 193 6  212 194 6  210 192 6  208 190 6  209 191 6  209 191 6  208 190 6  207 188 6  207 188 6  207 188 6  207 189 6  208 189 6  209 191 6  211 193 6  211 193 6
207 189 6  208 190 6  209 191 6  210 192 6  210 192 6  209 191 6  209 190 6  208 189 6  207 189 6  208 189 6  208 189 6  208 190 6  209 190 6  210 192 6  211 193 6  209 191 6  207 189 6  209 191 6  212 194 6  210 191 6  207 189 6  207 189 6  207 189 6  207 188 6  206 187 6  208 189 6  209 191 6  208 189 6  206 188 6  209 190 6  211 193 6  211 193 6
208 190 6  209 191 6  210 191 6  209 191 6  209 191 6  209 190 6  209 190 6  208 190 6  208 189 6  207 188 6  205 186 6  207 189 6  209 191 6  210 192 6  210 192 6  208 189 6  205 186 6  208 190 6  211 193 6  209 191 6  207 188 6  206 187 6  205 186 6  205 186 6  205 186 6  209 190 6  212 194 6  208 190 6  205 186 6  208 190 6  211 193 6  211 193 6
209 191 6  209 191 6  209 191 6  208 190 6  208 189 6  208 190 6  208 190 6  209 190 6  210 191 6  208 190 6  207 188 6  209 190 6  210 192 6  209 191 6  208 189 6  208 190 6  208 190 6  208 190 6  208 190 6  208 189 6  207 189 6  208 189 6  208 189 6  207 188 6  205 187 6  209 190 6  212 194 6  210 191 6  208 189 6  209 191 6  210 192 6  210 192 6
210 192 6  209 191 6  208 190 6  208 189 6  207 188 6  207 189 6  207 189 6  209 191 6  211 193 6  210 192 6  209 191 6  210 192 6  211 193 6  208 190 6  205 186 6  208 190 6  211 193 6  208 190 6  205 186 6  207 188 6  208 190 6  209 191 6  210 192 6  208 190 6  206 187 6  208 190 6  211 193 6  211 193 6  210 192 6  210 192 6  209 191 6  209 190 6
209 190 6  209 191 6  210 192 6  208 190 6  207 188 6  206 188 6  206 188 6  208 190 6  210 192 6  209 191 6  207 189 6  209 190 6  210 192 6  209 190 6  207 188 6  209 191 6  211 193 6  209 191 6  207 188 6  208 189 6  208 190 6  209 191 6  210 192 6  208 190 6  206 188 6  208 189 6  209 190 6  210 191 6  211 192 6  210 192 6  210 192 6  210 192 6
