P3
32 32
255
152 146 145  146 141 140  126 122 122  122 120 120  121 120 119  119 118 118  119 117 117  125 122 121  146 141 139  152 144 143  133 126 126  118 111 112  117 110 111  134 126 125  155 146 144  151 142 141  140 131 131  131 122 122  136 126 126  145 135 134  154 143 141  144 134 134  133 126 125  135 129 129  145 140 139  142 138 137  156 152 150  158 153 151  152 146 145  152 146 144  160 153 152  151 145 143
141 135 134  137 132 131  123 119 119  122 119 119  115 113 113  117 115 115  120 118 118  127 123 123  142 136 135  147 139 138  137 129 128  128 120 120  127 120 120  141 132 132  149 140 139  144 135 134  131 123 123  133 124 124  135 125 125  140 130 129  151 140 139  148 138 137  140 131 131  135 129 129  133 129 129  140 136 135  141 137 136  147 142 141  138 133 132  136 130 130  138 131 131  138 131 131
137 129 129  135 127 127  121 115 115  111 106 107  123 118 118  126 121 121  131 126 126  136 130 130  145 137 136  150 141 140  138 129 129  144 135 134  132 124 124  146 138 137  144 136 135  134 126 126  127 120 120  123 116 116  130 120 120  137 127 126  153 141 139  145 134 133  135 126 126  131 125 125  129 124 124  127 123 123  133 129 129  125 120 120  125 119 119  120 114 114  120 113 113  126 118 119
146 135 135  127 118 118  110 103 104  120 113 113  120 113 113  130 124 123  142 135 134  141 132 132  151 140 139  155 144 142  144 133 132  142 132 131  133 124 124  141 133 132  134 128 127  136 129 129  130 123 123  136 127 127  138 128 127  138 126 126  155 141 140  149 136 136  129 119 119  131 124 124  117 113 113  120 115 116  135 130 129  123 118 118  117 111 111  109 102 103  118 111 111  114 107 107
135 123 123  129 118 118  125 115 115  117 108 109  122 113 113  129 120 120  130 121 121  139 128 128  145 134 133  148 136 135  149 136 135  141 129 129  129 120 119  131 123 123  129 123 123  129 123 123  122 116 116  122 114 114  137 127 126  145 132 131  143 129 128  150 136 135  135 124 124  124 116 116  119 114 114  125 120 120  130 125 125  130 123 123  121 113 114  114 106 107  123 114 114  131 121 121
136 123 123  140 127 126  126 115 115  124 114 115  117 108 109  123 114 114  128 119 119  130 119 119  141 129 129  135 123 123  130 118 118  121 111 112  119 111 111  122 115 115  116 111 112  111 106 107  124 118 118  137 128 128  134 123 123  150 136 135  152 137 136  148 134 133  132 122 121  131 122 122  123 117 117  119 114 114  119 114 114  123 116 116  130 121 121  131 121 121  132 122 122  156 144 142
133 121 120  138 126 125  126 115 115  123 113 113  119 110 110  115 107 107  124 115 115  131 121 121  131 121 121  133 121 121  122 111 111  115 105 106  113 105 106  115 108 109  107 102 103  113 108 109  128 121 121  125 117 117  140 130 129  152 138 137  161 146 145  144 131 130  129 119 119  130 122 122  119 114 114  119 115 115  109 104 105  123 117 117  128 120 120  137 127 127  135 125 125  155 143 142
137 126 125  133 122 122  129 119 119  134 124 124  133 124 124  135 126 125  141 131 130  145 134 133  143 131 131  136 124 124  131 119 119  125 114 114  119 110 110  116 108 109  128 120 120  125 118 118  126 119 119  128 120 120  139 129 129  144 133 132  152 141 140  149 138 137  132 124 123  135 128 128  131 126 126  125 121 121  112 108 109  116 110 111  124 117 117  122 114 114  134 124 124  143 133 132
144 133 133  142 131 130  130 120 120  126 117 117  133 124 124  140 131 130  146 136 135  139 129 128  145 134 133  144 132 131  132 121 121  121 111 111  126 116 116  124 115 115  128 120 120  124 116 116  130 122 122  137 129 128  134 126 126  135 127 126  143 134 134  135 127 127  134 128 127  130 125 125  126 122 122  125 122 122  127 123 123  124 119 119  116 110 111  121 113 114  119 111 112  119 111 112
149 139 138  143 133 133  134 125 124  125 117 117  137 128 128  139 130 130  149 139 138  151 140 139  151 139 138  141 130 129  137 125 125  129 118 118  127 117 117  124 114 114  132 122 122  136 126 126  133 123 123  140 131 130  139 132 131  137 130 130  134 129 128  128 123 123  131 126 126  125 121 121  126 123 123  124 122 121  123 120 120  115 111 111  112 106 107  120 113 113  111 104 105  125 118 118
139 130 129  137 128 128  121 113 114  117 109 110  128 120 120  122 115 115  124 116 117  143 133 132  145 134 133  146 134 133  145 133 132  141 129 128  136 125 125  129 118 118  134 123 123  131 121 121  127 118 118  128 120 120  126 120 120  133 128 128  125 121 121  126 121 121  118 115 115  122 119 119  123 121 121  135 132 131  133 130 129  130 125 125  116 111 111  119 112 113  117 110 110  122 115 115
133 125 125  137 129 128  121 114 114  117 110 110  114 107 107  118 111 111  123 116 116  129 120 120  137 127 126  144 132 132  140 129 128  140 128 128  142 131 130  146 135 134  137 127 127  131 121 121  128 119 119  123 115 115  117 111 111  119 114 115  118 114 114  116 112 112  120 116 116  114 111 111  130 127 126  140 136 135  148 143 142  137 132 131  127 121 121  129 122 122  129 121 121  125 118 118
134 127 127  133 127 126  128 121 121  119 112 113  122 115 115  116 109 109  120 113 113  126 118 118  137 127 127  135 125 125  143 133 132  145 135 134  144 134 133  143 133 133  134 126 125  130 122 122  123 115 116  118 112 112  120 115 115  125 119 119  119 114 114  122 117 117  119 114 115  127 121 121  122 117 117  136 130 130  149 142 141  137 131 130  127 121 121  127 121 121  124 117 117  128 121 121
129 124 124  130 125 125  139 133 132  131 124 124  129 121 121  131 122 122  121 113 113  123 116 116  137 128 128  131 123 122  143 134 133  151 142 141  146 138 137  145 137 136  136 129 129  127 122 122  128 122 122  126 120 120  130 123 123  136 129 128  131 124 124  137 130 129  124 117 117  121 114 114  127 120 120  134 126 126  132 124 124  129 122 122  141 134 133  138 131 130  136 130 129  132 125 125
124 121 121  137 133 132  144 138 137  152 145 143  150 141 140  134 125 125  125 117 118  133 125 125  134 126 126  145 136 136  134 126 126  142 134 133  145 138 137  128 123 122  122 118 118  124 121 120  119 116 116  122 117 117  133 127 127  149 141 140  145 138 137  151 143 142  143 134 134  130 121 121  127 118 118  124 115 116  114 106 107  132 124 124  151 143 142  145 139 138  137 131 130  128 122 122
124 122 121  135 132 132  150 145 143  151 143 142  142 134 133  124 116 116  122 115 115  123 115 115  137 129 128  131 124 124  140 133 132  144 137 136  146 139 138  128 124 124  125 122 122  125 122 122  119 116 116  115 110 111  123 118 118  144 136 135  144 136 135  148 140 139  144 135 134  133 124 123  135 125 124  128 118 118  126 117 117  139 130 129  151 143 141  146 139 138  137 131 130  130 124 124
134 132 131  141 138 137  153 148 146  157 149 148  136 128 127  119 112 112  123 116 116  118 111 112  131 123 123  124 117 117  132 125 125  134 127 127  140 134 133  143 138 137  139 136 135  129 126 126  126 123 123  115 111 111  127 122 122  128 122 122  133 126 126  141 133 132  130 122 122  138 129 128  138 128 128  143 132 132  139 129 129  134 125 125  135 127 127  126 121 121  118 113 113  129 123 122
143 140 139  147 143 142  145 140 139  153 146 145  145 137 136  123 116 116  115 108 109  114 108 108  124 118 118  116 110 110  133 126 125  133 126 126  131 125 125  136 131 131  135 132 131  138 134 134  118 115 115  117 113 113  125 120 120  129 123 123  137 130 129  136 129 129  129 122 121  129 121 121  136 127 127  147 138 137  150 141 140  149 140 139  130 124 123  121 116 116  119 114 114  112 107 108
141 137 136  139 135 134  146 141 140  146 140 139  136 130 130  121 116 116  114 109 110  124 118 118  124 118 118  121 115 115  135 128 127  127 121 120  132 127 126  131 127 126  142 139 138  134 131 130  126 123 123  125 121 121  122 117 117  132 126 125  133 127 126  137 130 130  131 125 125  135 128 128  144 136 135  148 140 139  148 140 139  136 130 129  126 120 120  116 111 111  114 110 110  111 106 107
123 118 118  128 123 123  138 133 133  141 136 135  134 129 129  126 121 121  118 113 113  118 112 113  123 117 117  115 109 109  122 115 115  128 121 121  130 124 124  118 114 115  124 121 121  122 120 120  125 122 122  120 116 116  122 118 118  133 128 127  146 140 139  142 136 135  144 138 137  143 137 136  144 138 137  143 137 136  142 135 135  127 121 121  127 122 121  126 121 121  127 122 121  115 111 111
120 116 116  114 110 110  129 124 124  122 118 118  128 123 123  123 119 119  124 119 119  114 109 110  122 116 116  125 118 118  127 120 120  120 114 114  122 117 117  129 124 124  125 121 121  118 116 116  130 127 126  135 131 131  133 128 128  136 131 130  141 135 135  141 135 134  145 139 138  139 133 132  148 141 140  135 130 129  141 136 135  136 131 130  124 119 119  126 121 121  118 114 114  120 116 116
130 125 125  135 130 129  129 124 123  128 123 123  130 125 125  131 126 126  121 116 116  128 122 122  122 116 116  119 113 113  115 109 110  119 113 114  116 111 112  119 115 115  124 121 121  116 114 114  122 119 119  130 126 126  124 119 119  134 128 128  145 139 138  139 133 132  141 135 134  144 138 137  140 134 133  134 128 128  145 139 138  134 129 128  132 127 127  129 124 123  123 118 118  124 119 119
150 142 141  144 137 136  129 122 122  133 127 126  126 121 121  132 126 126  133 127 126  133 127 126  119 114 114  120 115 115  121 115 116  117 112 112  116 111 112  123 118 118  122 118 118  121 117 117  116 112 112  119 114 115  125 119 119  134 128 127  144 137 136  141 134 133  128 122 121  140 133 132  139 133 132  142 135 134  140 134 133  147 141 140  148 142 141  148 143 142  136 131 131  128 123 123
157 147 145  150 140 139  129 121 121  135 127 127  129 122 122  133 126 126  147 139 138  130 124 124  117 112 113  122 117 117  124 120 120  122 118 118  114 109 110  121 116 116  125 119 119  120 115 115  120 114 114  106 101 102  113 107 108  129 121 121  137 128 128  142 133 132  139 131 131  137 130 129  130 123 123  146 139 138  141 134 133  153 147 145  147 142 141  150 146 145  139 135 134  138 133 132
143 133 132  140 130 129  125 116 116  120 112 113  130 123 123  131 124 124  134 127 127  131 125 125  114 110 110  118 114 114  113 110 110  130 125 125  130 125 125  132 126 126  124 118 118  116 110 110  116 110 110  125 118 118  123 115 116  135 126 125  144 134 133  139 129 129  138 129 129  125 117 117  143 135 134  151 143 142  146 139 138  137 132 131  138 133 133  135 132 131  126 123 123  130 126 126
123 113 113  126 117 117  123 114 114  117 109 110  122 114 115  128 121 121  129 122 122  119 114 114  114 110 110  113 110 110  127 124 123  138 133 133  141 136 135  125 119 119  125 118 118  122 116 116  121 114 114  117 110 110  123 115 115  136 126 126  146 135 134  141 131 130  126 118 118  124 117 117  137 129 129  139 131 131  150 142 141  137 131 131  126 121 121  122 119 119  120 118 118  115 112 112
119 110 110  129 120 120  117 108 109  120 113 113  124 116 116  131 123 123  131 124 123  117 112 112  115 110 111  106 103 104  129 126 125  143 139 138  143 138 137  135 129 128  128 122 121  120 114 115  123 117 117  124 116 116  121 113 113  128 119 119  141 130 129  141 131 130  134 125 125  128 120 120  137 129 129  142 135 134  144 137 136  137 131 131  129 124 124  124 121 120  107 104 105  112 109 109
142 132 131  131 122 122  124 115 116  126 117 118  131 123 122  137 129 128  138 130 130  135 129 128  128 123 122  127 123 123  122 118 118  135 131 130  124 120 120  137 132 131  137 132 131  132 127 126  119 114 114  118 112 112  119 112 112  122 113 113  140 129 128  137 127 126  137 127 127  140 132 131  138 131 130  148 141 140  141 134 133  142 136 135  133 127 127  130 125 125  121 117 117  122 117 117
140 131 131  130 122 122  127 119 119  129 121 121  132 124 124  141 132 131  147 138 137  135 128 128  146 140 139  143 138 137  133 129 128  122 118 118  126 122 122  134 130 129  143 139 138  147 142 141  126 122 122  124 118 118  129 121 121  129 119 119  129 119 119  138 127 127  145 135 134  152 143 142  151 144 142  148 141 140  144 137 136  141 135 134  144 137 136  145 139 138  130 124 124  124 118 118
147 138 137  137 129 128  137 129 128  132 124 124  140 131 130  145 135 134  144 135 134  151 142 141  145 139 138  151 145 144  133 129 128  115 112 112  116 113 113  133 130 129  148 145 144  141 138 137  132 129 129  120 115 115  127 119 119  120 111 111  130 119 119  139 128 127  147 137 136  152 143 142  148 141 140  146 139 138  150 144 142  150 143 142  145 138 137  146 138 137  137 130 129  130 123 122
134 127 126  142 134 133  133 125 125  139 130 130  132 123 123  142 132 131  137 128 127  145 136 136  149 142 141  152 146 145  133 129 128  119 115 115  118 115 115  133 130 130  148 146 145  132 130 130  124 122 122  119 114 114  124 116 116  121 112 112  135 124 123  143 132 131  149 138 137  144 135 134  142 135 134  140 134 133  137 131 130  143 136 135  148 140 139  144 135 134  130 122 122  130 122 122
140 132 131  149 140 139  138 129 128  135 126 126  140 130 130  140 130 130  135 126 126  134 127 126  146 139 138  139 134 134  118 114 114  117 113 114  113 110 111  134 131 130  135 133 132  131 129 129  119 116 116  118 113 113  125 117 118  130 120 120  138 127 126  143 131 131  149 139 138  148 139 138  129 123 123  118 113 113  114 109 110  129 123 123  147 140 139  147 139 138  145 137 136  130 123 123
