P3
32 32
255
193 145 255  159 151 255  191 145 255  146 176 255  147 170 255  176 178 255  177 193 255  143 178 255  150 136 255  133 176 255  178 165 255  166 186 255  133 175 255  161 189 255  146 191 255  162 165 255  177 153 255  152 182 255  152 195 255  148 195 255  133 156 255  168 156 255  150 175 255  180 188 255  171 160 255  152 169 255  141 195 255  142 181 255  158 136 255  195 174 255  164 174 255  195 181 255
149 187 255  148 160 255  137 143 255  153 134 255  180 144 255  194 173 255  186 192 255  173 178 255  189 141 255  148 159 255  143 176 255  159 153 255  174 159 255  150 178 255  152 191 255  171 173 255  165 162 255  134 182 255  147 182 255  161 188 255  187 143 255  181 175 255  144 163 255  159 142 255  155 158 255  142 161 255  135 155 255  139 155 255  160 154 255  163 191 255  152 185 255  132 169 255
138 150 255  177 153 255  175 147 255  158 157 255  154 143 255  163 137 255  168 140 255  169 147 255  193 170 255  164 148 255  173 180 255  190 157 255  150 156 255  177 140 255  181 166 255  158 157 255  154 134 255  175 142 255  147 151 255  183 178 255  135 185 255  140 159 255  145 134 255  142 140 255  142 139 255  141 135 255  141 134 255  149 147 255  159 188 255  162 159 255  171 175 255  170 174 255
177 141 255  177 162 255  153 164 255  176 171 255  155 146 255  162 145 255  179 154 255  169 146 255  164 153 255  174 161 255  189 187 255  185 143 255  138 164 255  166 174 255  178 171 255  173 174 255  173 165 255  173 147 255  139 174 255  149 179 255  169 186 255  182 169 255  162 132 255  141 147 255  134 137 255  149 137 255  166 147 255  160 155 255  142 174 255  186 166 255  174 139 255  155 147 255
184 160 255  178 141 255  153 152 255  174 181 255  165 174 255  154 159 255  164 161 255  187 169 255  179 143 255  173 177 255  177 189 255  158 173 255  141 186 255  142 176 255  155 164 255  154 176 255  147 174 255  149 150 255  148 183 255  142 169 255  190 184 255  181 184 255  182 138 255  148 170 255  147 147 255  165 134 255  178 154 255  173 180 255  158 177 255  172 170 255  151 129 255  141 152 255
176 156 255  161 138 255  174 166 255  157 176 255  160 177 255  158 167 255  161 166 255  177 171 255  174 149 255  169 177 255  154 181 255  169 189 255  169 186 255  153 155 255  153 159 255  156 171 255  157 171 255  161 163 255  172 171 255  157 146 255  182 163 255  161 169 255  190 142 255  153 178 255  147 162 255  167 147 255  182 153 255  172 166 255  155 167 255  150 170 255  136 157 255  136 164 255
167 149 255  152 141 255  180 187 255  159 176 255  165 167 255  170 172 255  163 175 255  154 168 255  156 168 255  171 165 255  147 169 255  187 166 255  180 169 255  170 145 255  162 158 255  171 170 255  182 168 255  183 165 255  184 165 255  159 130 255  174 156 255  160 147 255  172 158 255  157 179 255  141 164 255  152 163 255  170 165 255  167 153 255  142 163 255  139 159 255  141 174 255  147 169 255
155 161 255  165 133 255  161 183 255  185 190 255  182 169 255  170 170 255  159 178 255  149 171 255  154 177 255  180 160 255  163 156 255  168 136 255  152 160 255  164 154 255  162 160 255  166 172 255  174 165 255  176 148 255  165 180 255  146 141 255  177 179 255  174 140 255  144 174 255  159 178 255  151 155 255  141 163 255  153 180 255  173 176 255  141 182 255  145 140 255  161 152 255  174 170 255
128 155 255  148 144 255  155 175 255  175 180 255  155 151 255  158 146 255  173 151 255  164 139 255  149 143 255  188 178 255  155 145 255  146 162 255  154 174 255  176 141 255  158 169 255  143 172 255  154 150 255  168 152 255  140 187 255  185 169 255  156 166 255  156 133 255  164 133 255  145 153 255  167 173 255  174 161 255  176 149 255  181 167 255  137 173 255  173 143 255  195 142 255  189 177 255
132 142 255  143 182 255  158 151 255  154 161 255  180 149 255  191 148 255  181 168 255  169 194 255  162 189 255  175 144 255  150 159 255  148 190 255  157 145 255  147 134 255  143 138 255  157 155 255  163 157 255  148 141 255  163 166 255  182 180 255  189 184 255  141 167 255  183 140 255  141 179 255  148 180 255  178 183 255  192 187 255  180 178 255  166 179 255  161 149 255  176 174 255  192 144 255
172 162 255  140 169 255  133 190 255  130 156 255  167 175 255  158 168 255  141 140 255  168 146 255  171 190 255  174 133 255  133 163 255  149 134 255  142 183 255  159 157 255  141 147 255  150 152 255  157 162 255  134 167 255  147 154 255  143 145 255  134 177 255  164 178 255  156 180 255  133 182 255  133 153 255  146 151 255  149 161 255  149 149 255  193 131 255  188 132 255  137 194 255  143 170 255
172 195 255  138 133 255  174 190 255  158 147 255  174 143 255  161 168 255  156 186 255  189 178 255  173 161 255  136 178 255  181 168 255  152 155 255  177 176 255  157 163 255  161 143 255  176 145 255  185 146 255  173 144 255  143 192 255  187 164 255  145 169 255  145 136 255  181 187 255  173 192 255  144 176 255  150 159 255  159 166 255  152 189 255  190 169 255  153 132 255  164 193 255  130 182 255
182 197 255  172 156 255  149 162 255  179 170 255  162 152 255  144 160 255  139 175 255  150 168 255  187 176 255  140 190 255  179 160 255  185 188 255  169 188 255  147 157 255  139 167 255  140 169 255  154 155 255  167 154 255  137 191 255  179 166 255  176 191 255  132 180 255  156 147 255  165 183 255  171 186 255  162 185 255  163 184 255  185 172 255  174 153 255  153 138 255  142 165 255  138 191 255
176 162 255  147 154 255  151 185 255  160 176 255  145 161 255  155 170 255  176 183 255  176 178 255  167 177 255  181 154 255  149 163 255  189 169 255  166 160 255  153 140 255  151 159 255  151 159 255  147 142 255  146 146 255  160 191 255  173 182 255  189 174 255  149 171 255  159 168 255  169 173 255  156 178 255  150 177 255  151 169 255  147 159 255  148 160 255  151 165 255  155 154 255  175 195 255
149 150 255  150 139 255  144 181 255  141 163 255  146 152 255  158 172 255  167 178 255  164 158 255  149 185 255  152 164 255  168 176 255  187 151 255  183 140 255  158 145 255  163 163 255  158 157 255  147 149 255  157 159 255  183 155 255  188 189 255  187 176 255  157 177 255  146 185 255  169 177 255  154 157 255  158 160 255  165 161 255  145 146 255  134 160 255  148 150 255  141 182 255  157 165 255
161 156 255  171 133 255  139 160 255  148 148 255  151 150 255  150 163 255  147 162 255  147 153 255  159 186 255  160 185 255  159 178 255  186 165 255  187 153 255  170 151 255  179 161 255  164 165 255  152 168 255  171 170 255  173 155 255  194 167 255  189 166 255  172 183 255  142 175 255  167 162 255  167 161 255  173 159 255  175 157 255  158 162 255  151 160 255  152 159 255  139 192 255  156 147 255
187 151 255  187 143 255  149 144 255  172 139 255  161 157 255  155 159 255  151 153 255  142 163 255  166 185 255  168 186 255  143 175 255  179 169 255  177 163 255  181 159 255  189 165 255  167 168 255  152 165 255  168 161 255  150 163 255  183 149 255  177 149 255  173 180 255  144 158 255  154 158 255  174 167 255  182 162 255  173 159 255  160 167 255  172 151 255  160 172 255  151 177 255  173 163 255
176 139 255  188 164 255  163 145 255  185 140 255  177 160 255  176 164 255  169 154 255  145 158 255  150 183 255  133 169 255  154 177 255  160 142 255  171 147 255  183 167 255  184 174 255  165 155 255  151 139 255  157 147 255  152 144 255  174 158 255  145 145 255  149 178 255  149 158 255  137 183 255  167 157 255  180 160 255  166 166 255  157 140 255  175 143 255  161 158 255  155 163 255  181 186 255
143 171 255  184 181 255  143 152 255  170 154 255  182 161 255  168 157 255  153 145 255  153 139 255  144 156 255  150 163 255  143 187 255  140 146 255  186 142 255  186 149 255  173 143 255  173 136 255  174 148 255  167 172 255  187 158 255  186 160 255  136 157 255  145 191 255  174 164 255  157 175 255  176 177 255  171 176 255  164 168 255  185 159 255  179 176 255  136 169 255  149 170 255  182 160 255
187 135 255  156 135 255  144 159 255  145 141 255  172 145 255  158 162 255  149 173 255  172 173 255  135 179 255  186 174 255  147 186 255  138 145 255  154 144 255  175 178 255  174 159 255  176 140 255  178 153 255  176 186 255  187 192 255  135 192 255  149 165 255  193 176 255  173 177 255  179 148 255  190 163 255  189 168 255  168 169 255  147 179 255  172 163 255  133 182 255  183 134 255  148 130 255
185 161 255  180 196 255  186 165 255  157 165 255  146 149 255  158 158 255  173 182 255  165 186 255  130 157 255  137 154 255  182 129 255  180 148 255  180 141 255  158 138 255  173 132 255  188 156 255  182 164 255  155 136 255  134 159 255  167 180 255  158 135 255  152 163 255  174 152 255  162 155 255  177 141 255  191 137 255  177 148 255  152 155 255  177 130 255  191 148 255  128 193 255  188 197 255
162 160 255  179 138 255  149 181 255  175 183 255  151 151 255  161 138 255  189 140 255  186 148 255  159 189 255  143 176 255  130 133 255  163 134 255  175 149 255  145 181 255  169 183 255  179 176 255  163 161 255  157 152 255  187 195 255  182 185 255  137 134 255  144 174 255  131 152 255  152 161 255  168 142 255  164 146 255  161 167 255  166 177 255  148 173 255  157 158 255  132 143 255  161 166 255
164 140 255  159 165 255  171 186 255  174 161 255  156 177 255  141 161 255  141 133 255  150 142 255  149 157 255  139 140 255  157 140 255  152 149 255  176 187 255  147 175 255  150 181 255  170 171 255  184 148 255  183 138 255  178 155 255  147 172 255  164 189 255  186 184 255  172 164 255  140 159 255  136 168 255  161 161 255  169 156 255  140 171 255  133 179 255  138 160 255  155 191 255  134 177 255
154 170 255  181 182 255  155 173 255  142 176 255  142 181 255  153 167 255  166 157 255  172 167 255  169 170 255  136 181 255  135 185 255  135 149 255  163 174 255  170 147 255  162 145 255  165 167 255  173 177 255  169 168 255  157 180 255  167 144 255  148 162 255  172 153 255  175 167 255  140 154 255  156 150 255  182 159 255  172 170 255  138 171 255  165 156 255  173 159 255  157 184 255  131 186 255
149 164 255  182 169 255  162 175 255  170 178 255  160 162 255  152 167 255  155 174 255  159 159 255  153 151 255  138 194 255  169 180 255  137 158 255  166 180 255  180 152 255  168 149 255  152 154 255  149 155 255  155 159 255  144 180 255  185 161 255  138 147 255  180 160 255  161 151 255  142 155 255  170 154 255  182 153 255  174 163 255  174 176 255  184 166 255  178 165 255  140 155 255  145 150 255
164 147 255  179 161 255  159 160 255  182 163 255  181 159 255  160 163 255  151 165 255  165 157 255  161 154 255  144 166 255  161 162 255  150 162 255  175 186 255  174 175 255  160 171 255  149 166 255  144 156 255  148 152 255  164 171 255  175 159 255  143 169 255  178 170 255  157 147 255  148 166 255  170 162 255  177 153 255  177 153 255  184 164 255  171 170 255  153 170 255  156 141 255  170 137 255
187 155 255  177 152 255  147 152 255  165 148 255  183 171 255  172 161 255  164 145 255  181 160 255  168 169 255  146 146 255  151 164 255  160 150 255  177 174 255  172 186 255  150 172 255  155 176 255  161 175 255  151 151 255  175 161 255  156 150 255  168 173 255  166 160 255  151 151 255  150 165 255  157 159 255  163 153 255  166 152 255  165 155 255  146 163 255  146 175 255  174 148 255  185 157 255
189 176 255  174 143 255  152 168 255  157 157 255  171 177 255  174 160 255  177 136 255  181 153 255  145 163 255  141 157 255  184 182 255  161 135 255  168 149 255  178 166 255  156 145 255  161 162 255  172 178 255  154 152 255  147 149 255  158 156 255  184 133 255  166 139 255  140 156 255  146 146 255  149 153 255  147 159 255  150 160 255  155 163 255  138 166 255  166 178 255  156 168 255  170 171 255
160 139 255  174 184 255  178 165 255  186 186 255  178 180 255  175 152 255  179 138 255  177 153 255  152 158 255  139 152 255  170 181 255  157 146 255  158 140 255  154 134 255  179 135 255  164 159 255  139 183 255  142 178 255  137 143 255  175 134 255  139 139 255  178 144 255  167 177 255  153 146 255  172 170 255  173 189 255  169 173 255  178 152 255  153 180 255  145 162 255  134 179 255  134 149 255
160 154 255  157 179 255  144 195 255  170 196 255  184 196 255  187 175 255  171 165 255  142 177 255  142 155 255  133 148 255  169 186 255  173 166 255  136 174 255  174 172 255  193 153 255  189 152 255  169 169 255  149 178 255  157 167 255  167 184 255  135 196 255  131 153 255  171 131 255  160 178 255  173 177 255  170 172 255  169 160 255  177 137 255  144 154 255  189 129 255  158 132 255  168 190 255
155 152 255  148 178 255  143 183 255  166 181 255  153 176 255  143 179 255  149 185 255  158 184 255  145 167 255  163 130 255  189 184 255  143 185 255  153 145 255  134 134 255  162 171 255  167 166 255  162 144 255  175 157 255  172 172 255  157 167 255  192 190 255  195 157 255  138 143 255  172 163 255  192 149 255  166 136 255  136 135 255  138 145 255  141 172 255  138 139 255  158 138 255  150 155 255
181 143 255  147 140 255  184 183 255  173 152 255  167 152 255  159 158 255  164 163 255  177 164 255  146 146 255  182 182 255  187 155 255  177 188 255  185 144 255  177 148 255  170 148 255  151 150 255  147 161 255  169 165 255  173 138 255  183 151 255  170 131 255  183 171 255  172 148 255  160 172 255  179 172 255  183 156 255  177 147 255  175 150 255  145 148 255  169 140 255  142 163 255  161 192 255
