P3
32 32
255
165 137 255  176 144 255  153 142 255  129 139 255  146 135 255  159 128 255  134 133 255  125 135 255  151 139 255  154 144 255  124 142 255  127 133 255  163 135 255  154 134 255  122 130 255  140 130 255  160 128 255  143 137 255  152 138 255  173 129 255  165 130 255  137 146 255  142 142 255  151 141 255  133 144 255  120 135 255  141 133 255  159 134 255  137 133 255  128 129 255  157 137 255  162 141 255
159 133 255  173 145 255  153 142 255  128 141 255  144 145 255  155 137 255  132 134 255  128 131 255  155 132 255  155 135 255  130 135 255  138 144 255  161 138 255  147 136 255  125 138 255  145 136 255  164 137 255  145 141 255  145 141 255  166 136 255  160 130 255  138 143 255  147 143 255  157 143 255  139 142 255  121 139 255  141 136 255  160 138 255  138 135 255  129 130 255  157 140 255  161 139 255
149 130 255  169 142 255  153 141 255  126 139 255  142 139 255  147 143 255  126 142 255  134 141 255  160 141 255  158 140 255  141 138 255  157 145 255  159 139 255  134 136 255  128 139 255  153 132 255  173 143 255  147 141 255  131 139 255  154 139 255  151 129 255  138 139 255  154 140 255  168 140 255  149 140 255  122 141 255  142 139 255  162 142 255  140 142 255  131 138 255  157 141 255  160 136 255
144 135 255  167 142 255  153 140 255  126 137 255  141 135 255  144 144 255  124 144 255  137 145 255  163 145 255  160 143 255  146 136 255  165 142 255  158 139 255  128 137 255  130 136 255  157 131 255  177 142 255  148 140 255  126 139 255  149 140 255  148 132 255  139 137 255  158 138 255  172 138 255  153 137 255  123 140 255  142 136 255  163 142 255  141 143 255  131 140 255  157 139 255  160 133 255
152 144 255  172 144 255  157 138 255  135 135 255  152 136 255  156 140 255  133 139 255  138 141 255  163 142 255  161 141 255  143 131 255  159 135 255  156 141 255  129 139 255  125 129 255  151 132 255  170 136 255  144 140 255  130 140 255  156 138 255  157 136 255  143 135 255  159 138 255  170 139 255  151 135 255  124 135 255  142 130 255  162 137 255  142 139 255  137 136 255  163 134 255  166 131 255
163 140 255  180 146 255  162 145 255  149 144 255  169 144 255  172 145 255  146 141 255  140 135 255  165 135 255  162 141 255  139 141 255  149 133 255  153 140 255  129 142 255  118 136 255  142 132 255  160 139 255  139 136 255  137 134 255  166 135 255  171 129 255  150 134 255  159 135 255  167 138 255  147 142 255  125 132 255  144 141 255  160 139 255  143 141 255  146 146 255  172 136 255  174 134 255
166 145 255  182 147 255  163 144 255  153 140 255  174 137 255  176 147 255  150 140 255  140 135 255  165 137 255  162 144 255  138 130 255  146 143 255  153 145 255  130 142 255  117 133 255  140 128 255  157 138 255  137 141 255  138 142 255  169 140 255  175 136 255  151 141 255  159 144 255  166 141 255  146 134 255  125 142 255  144 144 255  159 144 255  143 140 255  148 134 255  174 131 255  177 140 255
159 144 255  180 146 255  164 145 255  145 143 255  163 140 255  163 139 255  137 144 255  133 136 255  158 135 255  157 140 255  132 133 255  140 135 255  161 140 255  145 140 255  131 136 255  151 136 255  163 134 255  139 140 255  130 143 255  158 143 255  161 139 255  138 137 255  146 141 255  157 143 255  140 141 255  129 145 255  147 136 255  154 135 255  137 137 255  140 140 255  168 131 255  172 138 255
151 142 255  177 140 255  166 140 255  137 141 255  150 140 255  147 136 255  123 145 255  124 140 255  151 138 255  152 140 255  126 139 255  133 135 255  170 137 255  163 139 255  146 139 255  165 143 255  170 138 255  140 138 255  121 140 255  145 142 255  145 140 255  122 137 255  131 137 255  147 140 255  133 145 255  133 143 255  150 137 255  149 136 255  130 138 255  130 142 255  160 137 255  167 135 255
149 140 255  175 131 255  164 131 255  136 133 255  149 136 255  145 139 255  121 143 255  124 145 255  151 145 255  151 144 255  125 146 255  133 144 255  171 139 255  165 138 255  149 141 255  167 146 255  172 146 255  141 138 255  119 135 255  143 138 255  143 137 255  119 141 255  128 133 255  146 134 255  133 143 255  134 136 255  153 146 255  150 147 255  130 143 255  129 139 255  159 146 255  165 132 255
150 136 255  168 137 255  151 141 255  140 138 255  160 131 255  151 137 255  128 144 255  135 141 255  159 136 255  153 132 255  131 139 255  142 138 255  163 141 255  149 139 255  142 131 255  164 129 255  175 140 255  144 142 255  119 138 255  148 130 255  154 129 255  127 141 255  133 139 255  152 135 255  140 132 255  142 133 255  162 144 255  165 140 255  142 139 255  133 142 255  159 135 255  162 136 255
152 144 255  161 131 255  138 136 255  145 138 255  171 136 255  158 139 255  135 134 255  147 132 255  168 134 255  156 141 255  137 146 255  151 131 255  156 135 255  133 135 255  135 129 255  161 130 255  178 145 255  147 146 255  119 143 255  153 135 255  165 130 255  134 131 255  138 135 255  158 140 255  147 144 255  150 135 255  172 146 255  181 145 255  153 143 255  137 143 255  160 138 255  160 130 255
153 141 255  160 133 255  137 138 255  145 139 255  172 135 255  158 137 255  135 134 255  149 135 255  169 135 255  156 134 255  138 134 255  152 138 255  155 142 255  131 139 255  132 130 255  158 138 255  177 137 255  146 141 255  119 142 255  153 140 255  165 131 255  134 135 255  137 135 255  159 136 255  148 138 255  150 132 255  171 136 255  180 136 255  152 136 255  136 138 255  160 142 255  160 138 255
157 141 255  165 138 255  141 138 255  144 137 255  169 134 255  153 136 255  131 134 255  150 136 255  171 135 255  159 130 255  139 132 255  151 141 255  154 145 255  130 141 255  122 133 255  147 142 255  168 132 255  140 135 255  120 139 255  151 141 255  159 134 255  129 140 255  133 137 255  158 135 255  148 134 255  144 133 255  163 134 255  166 131 255  140 132 255  126 138 255  158 145 255  166 142 255
160 145 255  169 143 255  145 137 255  143 134 255  166 134 255  149 136 255  128 134 255  152 135 255  173 134 255  161 132 255  139 139 255  151 139 255  154 141 255  129 140 255  115 138 255  138 142 255  161 131 255  135 133 255  121 136 255  150 140 255  154 140 255  125 143 255  129 142 255  158 137 255  148 133 255  139 139 255  155 139 255  155 133 255  129 134 255  118 142 255  156 145 255  171 139 255
157 142 255  169 138 255  148 143 255  144 140 255  165 130 255  152 134 255  131 144 255  151 138 255  173 133 255  161 132 255  138 134 255  148 139 255  154 134 255  131 131 255  118 132 255  140 146 255  160 140 255  135 144 255  122 142 255  150 136 255  153 147 255  124 147 255  128 140 255  157 133 255  147 129 255  135 141 255  152 134 255  153 141 255  129 141 255  121 134 255  158 129 255  172 141 255
148 145 255  170 135 255  156 131 255  144 134 255  165 142 255  164 139 255  142 135 255  149 140 255  170 141 255  159 137 255  133 131 255  140 142 255  153 139 255  134 139 255  128 143 255  151 143 255  158 143 255  133 145 255  126 143 255  151 140 255  150 147 255  122 145 255  127 137 255  156 135 255  145 138 255  125 131 255  142 142 255  148 136 255  130 136 255  132 143 255  165 144 255  174 138 255
141 146 255  170 133 255  161 136 255  144 139 255  164 140 255  173 138 255  150 140 255  148 143 255  168 143 255  157 140 255  129 138 255  134 135 255  152 140 255  136 142 255  136 141 255  158 144 255  157 136 255  133 142 255  128 141 255  151 136 255  148 141 255  120 146 255  126 136 255  155 133 255  144 135 255  118 132 255  135 140 255  144 141 255  131 141 255  139 142 255  169 146 255  176 140 255
141 142 255  167 131 255  156 137 255  140 141 255  160 140 255  174 139 255  150 145 255  142 144 255  164 142 255  157 138 255  129 139 255  134 132 255  151 139 255  135 140 255  136 136 255  158 142 255  157 137 255  133 141 255  132 140 255  156 134 255  154 141 255  127 143 255  133 137 255  158 134 255  145 135 255  119 133 255  135 139 255  145 142 255  130 142 255  136 141 255  168 142 255  176 142 255
141 134 255  161 129 255  145 134 255  129 139 255  151 142 255  176 140 255  150 146 255  129 145 255  156 140 255  158 133 255  131 134 255  136 134 255  150 137 255  132 135 255  135 129 255  158 137 255  156 144 255  136 142 255  142 139 255  169 137 255  169 145 255  143 137 255  149 138 255  165 139 255  147 137 255  120 133 255  136 140 255  147 138 255  129 139 255  128 142 255  163 134 255  175 145 255
142 143 255  157 135 255  138 138 255  122 137 255  146 132 255  177 130 255  150 142 255  122 138 255  151 139 255  159 145 255  131 137 255  137 130 255  149 133 255  131 134 255  135 130 255  158 128 255  155 143 255  137 135 255  148 132 255  175 135 255  177 132 255  152 130 255  159 138 255  169 142 255  148 142 255  120 147 255  137 132 255  149 137 255  128 143 255  124 147 255  161 143 255  175 140 255
142 132 255  161 135 255  144 142 255  127 144 255  149 139 255  172 130 255  147 141 255  130 138 255  157 138 255  161 142 255  132 133 255  136 134 255  155 132 255  140 132 255  136 134 255  158 134 255  160 144 255  140 138 255  147 134 255  171 136 255  168 145 255  143 141 255  151 143 255  171 139 255  154 131 255  127 141 255  143 140 255  152 138 255  131 140 255  127 144 255  162 130 255  174 142 255
143 141 255  168 134 255  155 134 255  137 138 255  155 142 255  162 135 255  141 137 255  144 135 255  169 135 255  165 136 255  134 136 255  136 135 255  166 131 255  156 132 255  138 137 255  157 133 255  167 138 255  146 134 255  145 133 255  162 139 255  150 144 255  128 138 255  138 140 255  174 140 255  165 139 255  139 142 255  154 143 255  159 142 255  137 141 255  132 139 255  165 131 255  174 139 255
143 145 255  170 133 255  160 133 255  140 138 255  158 144 255  159 135 255  138 133 255  150 132 255  174 131 255  166 132 255  134 135 255  136 138 255  171 134 255  162 136 255  139 141 255  157 132 255  170 138 255  148 134 255  145 134 255  159 139 255  143 139 255  122 134 255  133 138 255  175 141 255  169 142 255  144 140 255  158 140 255  161 141 255  140 139 255  135 134 255  166 137 255  174 138 255
150 141 255  171 134 255  156 138 255  137 142 255  156 144 255  164 131 255  144 130 255  152 129 255  173 129 255  160 131 255  135 130 255  143 142 255  167 140 255  153 141 255  141 144 255  160 133 255  163 141 255  140 138 255  141 136 255  161 137 255  154 132 255  127 132 255  133 139 255  168 142 255  159 140 255  135 137 255  152 132 255  165 136 255  144 136 255  138 132 255  162 143 255  163 137 255
159 135 255  172 143 255  151 134 255  133 130 255  154 135 255  171 141 255  152 132 255  156 135 255  171 139 255  151 143 255  135 141 255  153 144 255  161 137 255  140 134 255  144 137 255  165 140 255  151 130 255  129 141 255  136 141 255  165 130 255  169 132 255  134 144 255  135 137 255  158 138 255  145 148 255  123 147 255  144 137 255  170 136 255  150 135 255  144 135 255  157 139 255  148 136 255
162 140 255  172 143 255  149 145 255  132 145 255  153 144 255  174 143 255  154 130 255  157 134 255  171 135 255  148 130 255  135 130 255  155 138 255  159 136 255  136 134 255  145 134 255  166 136 255  148 130 255  126 135 255  135 137 255  166 135 255  173 139 255  136 134 255  135 140 255  155 141 255  141 138 255  119 139 255  142 138 255  171 140 255  151 141 255  145 140 255  156 133 255  143 142 255
161 138 255  176 137 255  155 138 255  136 137 255  155 136 255  170 137 255  151 139 255  158 139 255  173 135 255  151 130 255  132 134 255  146 135 255  162 137 255  145 138 255  137 138 255  156 140 255  150 138 255  131 142 255  142 142 255  164 140 255  159 141 255  128 141 255  132 144 255  160 142 255  148 134 255  128 134 255  146 143 255  161 143 255  141 143 255  139 143 255  155 136 255  147 138 255
161 137 255  179 133 255  162 135 255  140 137 255  157 136 255  166 133 255  147 142 255  159 139 255  175 136 255  155 134 255  128 134 255  135 136 255  166 139 255  155 141 255  129 142 255  145 144 255  152 140 255  136 143 255  150 143 255  162 142 255  142 138 255  119 143 255  129 144 255  166 140 255  158 133 255  138 137 255  152 142 255  149 142 255  130 142 255  131 144 255  153 139 255  153 135 255
159 137 255  180 133 255  164 139 255  141 144 255  158 144 255  165 133 255  145 140 255  159 136 255  175 137 255  156 141 255  128 129 255  133 141 255  167 141 255  157 141 255  127 144 255  142 145 255  154 137 255  138 137 255  152 140 255  161 141 255  139 132 255  118 139 255  129 139 255  166 137 255  159 134 255  140 145 255  153 135 255  148 137 255  129 140 255  130 141 255  153 142 255  153 134 255
151 147 255  174 140 255  160 139 255  144 139 255  163 140 255  162 131 255  141 140 255  152 142 255  173 144 255  163 145 255  132 139 255  135 138 255  169 132 255  159 132 255  125 139 255  142 146 255  162 136 255  143 142 255  147 143 255  160 137 255  143 142 255  121 142 255  132 144 255  162 142 255  153 137 255  140 140 255  156 130 255  160 132 255  138 132 255  133 129 255  153 134 255  150 136 255
143 140 255  168 130 255  157 133 255  147 134 255  168 130 255  160 134 255  137 130 255  145 133 255  171 136 255  169 138 255  136 146 255  136 147 255  171 145 255  162 140 255  124 134 255  141 145 255  170 139 255  149 133 255  142 134 255  159 142 255  147 145 255  125 133 255  134 141 255  158 141 255  147 133 255  139 143 255  160 132 255  171 136 255  146 136 255  136 132 255  153 135 255  147 130 255
