P3
32 32
255
221 201 0  220 200 0  219 199 0  218 198 0  220 200 0  219 200 0  218 199 0  218 198 0  219 199 0  219 200 0  219 200 0  220 201 0  220 200 0  219 199 0  219 199 0  220 200 0  221 202 0  220 201 0  219 199 0  219 199 0  221 201 0  219 199 0  219 200 0  222 202 0  221 202 0  219 200 0  218 198 0  219 199 0  219 200 0  220 201 0  221 202 0  220 201 0
220 201 0  220 200 0  219 200 0  218 198 0  220 201 0  220 200 0  219 200 0  220 200 0  220 200 0  220 200 0  219 199 0  220 201 0  221 201 0  221 201 0  220 201 0  220 201 0  220 201 0  220 200 0  219 199 0  219 199 0  220 200 0  219 200 0  220 200 0  220 201 0  219 199 0  219 200 0  220 201 0  221 202 0  219 200 0  219 199 0  220 201 0  220 201 0
220 200 0  220 201 0  220 200 0  219 200 0  220 201 0  220 200 0  219 199 0  219 200 0  220 201 0  220 201 0  219 199 0  220 201 0  221 201 0  221 202 0  221 202 0  221 201 0  220 201 0  220 200 0  219 200 0  219 200 0  220 200 0  219 200 0  219 200 0  220 201 0  219 199 0  219 200 0  220 201 0  220 201 0  220 200 0  219 199 0  220 200 0  219 200 0
220 201 0  220 201 0  221 201 0  221 202 0  219 200 0  219 199 0  218 199 0  218 198 0  220 200 0  221 201 0  220 201 0  220 200 0  220 201 0  221 202 0  221 202 0  221 201 0  220 201 0  220 201 0  221 201 0  221 202 0  220 201 0  219 199 0  219 199 0  220 201 0  219 199 0  219 199 0  219 199 0  219 199 0  220 200 0  220 200 0  219 200 0  219 199 0
219 200 0  220 201 0  220 201 0  220 200 0  221 202 0  221 202 0  221 201 0  219 199 0  220 201 0  221 202 0  221 202 0  221 202 0  221 202 0  221 202 0  221 202 0  220 201 0  219 200 0  220 200 0  220 201 0  221 201 0  220 201 0  221 201 0  221 201 0  221 202 0  220 200 0  220 201 0  221 202 0  221 201 0  221 201 0  220 201 0  219 200 0  221 202 0
219 200 0  220 200 0  220 200 0  220 201 0  221 201 0  221 201 0  220 201 0  219 199 0  220 201 0  221 202 0  221 202 0  220 201 0  220 201 0  221 202 0  220 200 0  220 200 0  220 201 0  220 200 0  220 201 0  220 201 0  220 201 0  221 202 0  221 201 0  220 200 0  220 200 0  220 200 0  220 201 0  220 201 0  220 201 0  220 201 0  220 200 0  220 200 0
219 199 0  219 199 0  220 200 0  221 202 0  220 201 0  220 200 0  219 200 0  219 199 0  220 200 0  220 201 0  221 202 0  219 200 0  220 200 0  221 201 0  218 199 0  220 200 0  221 202 0  219 200 0  220 200 0  220 200 0  220 201 0  221 202 0  220 201 0  219 199 0  220 201 0  219 200 0  219 199 0  219 200 0  220 200 0  220 201 0  220 201 0  219 199 0
218 199 0  220 201 0  220 201 0  219 200 0  219 199 0  219 199 0  218 198 0  218 199 0  220 200 0  221 201 0  221 201 0  221 201 0  221 201 0  221 201 0  219 199 0  219 200 0  220 200 0  219 199 0  219 200 0  220 200 0  219 199 0  220 201 0  220 201 0  221 201 0  221 202 0  219 200 0  218 198 0  219 199 0  219 199 0  219 199 0  220 201 0  221 201 0
219 200 0  221 202 0  221 201 0  219 200 0  220 201 0  220 201 0  220 200 0  219 199 0  219 199 0  219 200 0  220 200 0  220 200 0  220 200 0  219 200 0  219 199 0  219 200 0  220 201 0  219 199 0  219 199 0  219 200 0  220 201 0  219 200 0  219 199 0  219 200 0  221 202 0  220 200 0  219 199 0  219 200 0  220 200 0  220 200 0  221 201 0  219 200 0
220 200 0  221 201 0  220 201 0  219 200 0  221 201 0  220 201 0  220 200 0  219 200 0  219 199 0  219 199 0  219 199 0  220 200 0  220 200 0  219 199 0  219 199 0  220 200 0  220 200 0  219 199 0  219 199 0  219 200 0  221 201 0  219 199 0  219 199 0  219 199 0  221 202 0  220 201 0  219 200 0  220 200 0  220 201 0  220 201 0  221 201 0  219 199 0
219 200 0  219 199 0  219 200 0  220 200 0  218 199 0  218 198 0  218 199 0  220 201 0  220 200 0  219 200 0  219 199 0  221 201 0  221 202 0  221 202 0  221 202 0  220 201 0  219 200 0  220 200 0  220 200 0  220 200 0  219 200 0  218 199 0  219 200 0  221 202 0  221 202 0  221 201 0  220 201 0  220 201 0  221 202 0  221 202 0  220 201 0  220 200 0
218 198 0  220 200 0  220 200 0  219 199 0  219 199 0  219 199 0  219 199 0  219 200 0  220 201 0  220 201 0  219 199 0  219 199 0  219 199 0  220 200 0  220 200 0  219 199 0  218 199 0  219 199 0  220 201 0  221 201 0  219 199 0  219 199 0  220 200 0  221 202 0  220 201 0  220 200 0  220 200 0  221 202 0  221 202 0  221 202 0  221 202 0  221 201 0
218 199 0  220 200 0  219 200 0  219 199 0  220 200 0  219 200 0  219 199 0  219 199 0  220 201 0  220 201 0  219 199 0  219 199 0  219 199 0  219 199 0  219 200 0  219 199 0  219 199 0  219 200 0  220 201 0  220 201 0  219 199 0  219 199 0  219 200 0  220 201 0  220 200 0  219 200 0  220 200 0  221 201 0  220 201 0  220 201 0  221 202 0  221 201 0
219 199 0  219 199 0  219 199 0  219 200 0  221 202 0  220 201 0  219 199 0  220 200 0  220 201 0  220 201 0  219 199 0  219 199 0  219 199 0  218 198 0  219 200 0  219 200 0  220 200 0  221 202 0  220 201 0  220 200 0  220 200 0  219 199 0  219 199 0  219 200 0  218 199 0  219 199 0  220 200 0  219 199 0  219 199 0  219 199 0  221 201 0  220 201 0
219 199 0  220 200 0  220 200 0  219 199 0  219 199 0  219 199 0  219 200 0  219 200 0  220 200 0  220 201 0  220 201 0  219 199 0  219 200 0  221 202 0  219 199 0  219 200 0  220 200 0  220 200 0  219 199 0  219 199 0  220 200 0  220 201 0  220 201 0  219 199 0  220 201 0  220 201 0  220 200 0  218 198 0  218 198 0  219 199 0  220 201 0  219 199 0
220 201 0  220 201 0  220 200 0  220 200 0  219 199 0  219 199 0  219 199 0  219 199 0  219 199 0  219 200 0  220 200 0  219 200 0  220 200 0  220 201 0  219 199 0  219 199 0  219 200 0  219 199 0  219 199 0  219 199 0  219 199 0  220 200 0  220 201 0  220 201 0  221 202 0  221 202 0  220 201 0  218 198 0  218 198 0  219 199 0  220 201 0  220 200 0
221 202 0  220 200 0  220 200 0  220 201 0  219 200 0  219 199 0  219 199 0  219 199 0  218 199 0  219 199 0  219 199 0  220 200 0  220 200 0  219 199 0  220 200 0  219 200 0  219 199 0  219 199 0  219 199 0  219 199 0  219 199 0  219 200 0  220 201 0  221 202 0  221 202 0  221 202 0  221 202 0  218 198 0  218 198 0  219 199 0  220 201 0  221 201 0
218 198 0  219 200 0  219 200 0  218 198 0  219 199 0  219 200 0  219 200 0  220 200 0  219 200 0  219 199 0  219 199 0  220 201 0  220 200 0  219 199 0  221 202 0  221 202 0  221 201 0  221 202 0  221 202 0  221 201 0  220 200 0  220 200 0  220 200 0  220 200 0  220 201 0  220 200 0  219 200 0  219 200 0  220 200 0  219 200 0  218 198 0  220 201 0
220 200 0  220 201 0  220 201 0  220 201 0  219 199 0  219 199 0  219 199 0  219 199 0  220 201 0  220 201 0  219 200 0  221 201 0  221 202 0  220 201 0  221 201 0  220 201 0  220 200 0  219 200 0  220 200 0  220 200 0  220 201 0  220 200 0  219 200 0  219 199 0  220 201 0  220 201 0  220 201 0  220 200 0  219 200 0  220 200 0  220 201 0  221 202 0
221 202 0  221 202 0  221 201 0  221 201 0  219 199 0  219 199 0  218 199 0  218 198 0  220 200 0  221 201 0  220 200 0  220 201 0  221 201 0  221 201 0  221 201 0  220 201 0  220 200 0  219 199 0  219 199 0  219 200 0  221 201 0  220 200 0  219 199 0  219 199 0  220 201 0  220 201 0  221 201 0  220 200 0  220 200 0  220 200 0  221 202 0  221 202 0
222 203 0  221 202 0  220 201 0  219 199 0  219 199 0  219 199 0  219 199 0  219 199 0  218 199 0  219 199 0  221 201 0  219 199 0  218 198 0  218 198 0  221 202 0  221 202 0  221 202 0  221 202 0  219 199 0  218 198 0  219 199 0  219 200 0  220 201 0  221 201 0  219 200 0  220 201 0  221 202 0  220 200 0  221 201 0  221 202 0  220 201 0  219 199 0
221 202 0  221 202 0  221 201 0  220 200 0  220 201 0  220 201 0  220 200 0  219 199 0  218 199 0  219 199 0  221 202 0  220 201 0  220 201 0  220 201 0  219 199 0  219 199 0  219 200 0  219 200 0  220 200 0  220 200 0  218 199 0  218 199 0  219 199 0  220 201 0  221 202 0  221 201 0  220 201 0  219 199 0  220 200 0  220 201 0  220 201 0  219 199 0
220 201 0  221 202 0  221 201 0  220 201 0  220 201 0  220 200 0  219 200 0  220 200 0  219 200 0  219 200 0  221 201 0  220 201 0  220 201 0  221 202 0  219 200 0  219 200 0  219 200 0  219 199 0  220 201 0  220 201 0  218 199 0  219 199 0  219 200 0  220 201 0  221 202 0  221 201 0  220 200 0  219 199 0  220 200 0  220 201 0  220 201 0  220 200 0
220 200 0  220 201 0  220 201 0  220 201 0  219 200 0  219 199 0  218 199 0  221 202 0  221 202 0  221 201 0  219 200 0  219 200 0  220 200 0  220 201 0  221 202 0  220 201 0  220 200 0  219 199 0  221 201 0  221 202 0  219 199 0  220 201 0  221 201 0  221 202 0  221 202 0  220 201 0  219 200 0  220 201 0  220 200 0  220 200 0  220 201 0  220 201 0
220 201 0  220 200 0  220 200 0  219 200 0  219 199 0  219 200 0  220 201 0  220 201 0  219 200 0  219 200 0  221 202 0  219 200 0  219 199 0  219 199 0  219 200 0  219 200 0  219 200 0  221 201 0  220 201 0  220 200 0  219 199 0  221 202 0  221 202 0  221 202 0  220 201 0  219 200 0  219 199 0  219 200 0  219 199 0  219 200 0  221 202 0  219 200 0
221 201 0  220 200 0  219 200 0  219 199 0  219 200 0  220 200 0  221 201 0  221 202 0  220 200 0  220 200 0  220 201 0  220 201 0  219 200 0  218 199 0  219 199 0  219 200 0  219 200 0  219 200 0  219 200 0  219 199 0  219 199 0  220 201 0  221 202 0  221 202 0  220 201 0  220 200 0  219 200 0  220 200 0  220 200 0  220 201 0  221 202 0  220 200 0
221 201 0  220 201 0  219 200 0  219 199 0  220 201 0  220 201 0  220 201 0  221 202 0  220 201 0  220 200 0  220 200 0  221 201 0  220 200 0  218 199 0  219 199 0  219 200 0  219 200 0  218 199 0  218 199 0  219 199 0  219 200 0  220 200 0  220 201 0  221 202 0  221 201 0  220 201 0  220 200 0  220 201 0  221 202 0  221 202 0  221 201 0  220 201 0
220 201 0  220 200 0  220 201 0  220 201 0  219 200 0  219 200 0  219 199 0  219 199 0  220 200 0  220 201 0  221 201 0  219 200 0  219 199 0  219 199 0  219 200 0  220 201 0  221 202 0  221 202 0  219 199 0  218 199 0  219 199 0  219 199 0  219 199 0  218 199 0  221 202 0  220 201 0  219 199 0  219 199 0  221 201 0  221 202 0  221 202 0  220 201 0
220 201 0  219 200 0  220 200 0  221 202 0  221 202 0  220 200 0  219 199 0  218 198 0  219 200 0  220 200 0  220 201 0  220 200 0  219 200 0  219 199 0  219 200 0  220 201 0  221 201 0  219 199 0  220 200 0  220 201 0  220 201 0  220 200 0  220 200 0  219 199 0  220 200 0  220 200 0  220 200 0  219 200 0  219 200 0  220 200 0  219 200 0  219 199 0
220 200 0  220 200 0  220 200 0  221 201 0  221 202 0  220 201 0  219 200 0  219 199 0  219 200 0  220 200 0  220 200 0  220 200 0  219 200 0  219 200 0  219 200 0  220 200 0  220 200 0  219 199 0  220 201 0  221 202 0  221 201 0  220 201 0  220 200 0  219 200 0  219 200 0  220 200 0  220 201 0  220 200 0  219 199 0  219 199 0  218 199 0  219 199 0
219 199 0  221 202 0  220 201 0  219 199 0  220 201 0  221 201 0  221 202 0  222 203 0  221 201 0  220 200 0  219 200 0  218 199 0  219 199 0  219 200 0  220 200 0  219 200 0  219 199 0  221 202 0  221 202 0  221 201 0  220 200 0  219 199 0  219 199 0  218 198 0  220 200 0  220 200 0  220 200 0  219 199 0  220 201 0  220 201 0  218 198 0  220 201 0
218 199 0  219 199 0  219 199 0  218 199 0  220 201 0  221 202 0  221 202 0  222 202 0  220 201 0  220 200 0  221 202 0  219 200 0  219 200 0  220 201 0  220 201 0  219 200 0  219 199 0  219 200 0  219 199 0  219 199 0  219 199 0  220 200 0  220 201 0  220 201 0  219 199 0  219 200 0  220 201 0  221 202 0  219 200 0  219 199 0  220 201 0  220 200 0
