P3
32 32
255
51 94 42  58 105 43  69 120 49  63 111 47  54 99 42  66 117 46  73 128 45  68 122 42  71 125 44  65 117 43  61 109 43  58 105 42  63 110 48  66 116 47  59 109 37  62 113 37  69 123 43  61 109 45  54 97 47  49 90 41  56 99 49  48 89 41  54 97 43  64 114 46  71 126 45  71 124 49  63 112 46  69 121 50  57 106 37  61 110 42  68 118 51  55 100 43
56 101 43  61 108 45  56 103 38  63 111 47  59 104 45  59 106 41  64 116 44  71 125 47  76 132 49  63 114 42  56 102 39  67 117 48  69 120 48  59 108 42  59 106 41  68 119 47  61 112 39  59 107 41  61 108 47  62 110 48  58 105 44  65 114 47  64 113 45  60 108 43  60 107 43  60 108 42  66 116 49  58 106 40  67 118 47  61 108 44  56 101 45  56 101 44
56 102 41  60 107 45  56 103 40  66 114 50  59 105 45  51 96 38  61 109 46  62 111 41  72 127 46  65 116 45  60 108 44  71 123 50  71 125 46  59 107 40  58 103 46  59 107 43  64 114 44  65 116 45  62 111 43  63 114 43  68 120 43  72 126 45  66 120 40  59 107 43  55 98 48  50 93 38  59 107 43  59 107 40  60 109 40  55 100 43  47 87 40  60 106 46
59 105 44  60 108 44  61 110 42  62 109 46  52 96 41  60 106 49  58 103 46  59 106 42  67 119 44  69 121 47  66 116 45  61 111 44  62 111 44  59 107 43  57 104 44  64 113 47  64 114 44  58 105 40  50 96 36  57 104 42  67 116 50  60 110 41  64 116 39  61 109 42  60 106 48  51 95 39  58 104 44  63 111 49  61 109 48  52 97 40  61 107 48  62 110 45
54 100 39  62 111 44  65 115 44  56 103 43  56 100 46  58 102 49  51 93 45  58 104 46  65 115 45  65 116 42  66 119 43  59 106 41  54 97 45  60 106 48  59 107 43  61 109 42  66 116 46  58 105 44  60 107 48  52 95 42  45 84 39  58 105 44  70 123 47  69 120 48  58 106 42  56 102 43  54 97 44  51 93 43  49 91 42  59 105 46  61 110 43  61 111 42
65 114 49  59 107 42  60 109 44  63 112 45  63 112 44  53 98 39  56 101 46  60 107 44  67 117 47  63 115 43  67 120 42  65 115 46  60 107 48  50 93 37  55 100 41  53 99 37  60 108 42  64 114 46  58 105 39  61 109 46  58 104 45  63 111 44  68 121 45  64 116 43  61 110 38  68 118 51  53 97 43  48 89 39  56 99 48  60 106 49  50 95 37  57 103 43
55 101 38  57 104 43  61 108 46  65 116 44  69 123 43  62 112 42  59 106 44  63 111 46  59 108 41  68 120 46  71 124 46  64 114 44  57 104 41  56 102 42  55 99 44  53 99 40  63 112 44  62 112 41  62 113 39  64 116 43  63 112 41  63 114 41  63 114 40  70 123 44  70 123 42  67 118 48  58 103 45  56 100 46  53 96 47  50 93 42  57 102 46  51 93 42
55 102 39  66 116 47  72 124 51  60 109 42  59 107 42  67 117 48  64 114 45  53 100 36  63 112 47  65 115 46  59 108 38  63 112 46  58 104 44  60 107 44  52 99 35  68 119 47  71 123 47  70 122 48  61 111 39  63 114 41  69 121 47  64 114 46  64 113 49  62 112 41  72 127 46  63 113 46  54 98 44  53 96 42  50 93 38  57 103 45  63 109 51  55 99 43
63 113 45  71 124 49  73 127 48  55 102 39  52 94 43  64 112 48  64 116 41  59 107 40  58 104 44  59 106 43  59 107 41  64 112 50  52 95 43  53 99 36  73 128 46  68 122 41  71 126 45  63 114 40  67 118 46  68 120 46  63 114 41  62 110 47  52 94 45  59 107 43  69 123 44  66 115 49  52 94 45  49 93 38  60 108 42  61 109 46  47 89 36  62 110 47
69 121 48  66 116 48  58 105 43  57 102 45  48 90 41  48 91 38  59 106 44  63 110 47  60 107 46  59 105 45  65 112 51  62 109 48  57 104 43  62 111 44  66 117 44  59 109 36  68 121 43  66 117 44  65 115 48  57 105 40  66 116 47  59 106 45  50 93 42  57 103 45  61 109 44  61 108 47  51 95 42  56 101 42  60 108 43  56 103 41  61 108 45  67 117 49
69 122 46  59 106 45  58 101 51  49 90 43  44 84 39  52 94 45  52 94 44  57 102 46  58 105 43  55 99 43  54 97 46  56 102 42  69 120 47  61 110 42  58 106 43  66 117 47  71 124 47  60 109 42  50 94 37  57 102 42  64 112 49  58 104 46  60 105 50  49 91 40  52 95 44  52 95 41  60 108 45  58 105 42  57 104 42  64 114 46  62 111 41  65 115 46
64 115 41  63 111 45  54 98 43  56 101 44  61 108 46  58 105 42  55 101 40  63 112 46  66 116 47  62 110 46  46 90 34  64 112 46  72 125 50  56 104 38  63 111 47  62 110 46  56 102 41  54 99 42  53 96 41  62 109 47  56 103 40  55 100 43  52 94 43  55 99 44  55 101 43  56 101 44  57 101 46  50 93 40  50 93 39  55 101 41  58 105 42  54 101 37
64 114 41  67 117 47  62 111 47  65 116 45  67 119 43  63 115 40  63 114 39  68 121 45  64 114 42  59 108 40  69 120 50  65 115 44  66 117 45  58 106 39  67 117 49  52 96 41  47 88 42  51 93 43  49 91 40  54 99 40  57 105 38  60 107 47  49 89 43  56 101 44  64 114 44  62 109 49  48 89 44  47 88 42  48 89 41  50 92 40  48 91 36  60 108 43
64 113 50  53 98 41  53 96 41  64 113 48  65 116 45  57 105 37  65 115 44  62 112 43  57 105 41  63 111 47  63 110 48  61 109 45  62 111 43  64 113 47  59 106 46  55 100 43  51 95 39  58 102 46  57 102 47  57 104 43  61 109 41  59 106 44  55 100 45  66 116 49  67 119 44  59 107 42  53 98 40  62 108 49  56 100 44  56 102 44  53 98 39  66 116 49
52 95 46  53 95 46  48 88 41  54 98 42  62 110 44  63 111 45  58 105 41  54 100 40  57 104 43  57 102 44  52 95 43  59 106 46  60 108 42  56 102 43  47 89 39  64 112 51  62 110 44  53 98 39  56 101 44  61 108 46  59 106 41  57 105 41  60 108 42  68 120 46  67 120 41  62 113 39  71 123 50  61 109 42  58 106 44  62 109 46  58 105 43  60 109 44
58 103 46  52 96 39  52 97 41  53 100 37  67 118 45  65 114 49  55 99 45  63 110 49  58 104 41  57 104 41  55 102 37  64 113 44  64 114 43  65 116 47  67 116 49  57 103 42  47 89 36  60 106 46  57 103 40  60 108 44  54 101 38  65 115 47  66 116 47  59 109 37  66 118 40  67 119 43  65 116 44  54 101 39  60 106 47  65 113 50  64 114 48  63 112 46
60 108 43  59 108 42  57 105 39  64 115 42  70 123 45  55 102 42  49 90 44  55 99 43  61 109 44  66 118 45  71 126 44  71 125 45  64 117 41  75 130 50  73 127 47  62 111 48  50 92 45  58 104 45  63 113 44  56 103 39  65 115 48  63 112 44  58 107 39  68 120 45  67 120 41  67 120 44  63 113 42  59 105 43  54 97 44  57 103 44  58 106 40  65 115 47
59 108 40  66 118 46  72 126 49  65 115 46  51 96 37  57 104 42  54 99 40  52 97 38  56 102 41  69 119 51  63 113 44  59 108 39  64 114 41  64 115 40  68 121 43  59 107 44  54 96 46  54 98 42  53 99 39  65 114 47  65 115 46  62 110 47  53 98 40  61 109 43  65 116 43  52 98 35  57 103 41  54 98 42  48 89 41  62 109 48  67 117 45  63 114 42
62 112 40  69 122 44  74 129 47  54 101 39  52 93 45  63 111 48  68 120 46  64 113 47  64 111 50  51 95 39  54 99 45  61 108 45  67 118 46  61 111 39  72 126 47  67 117 50  48 90 39  51 94 42  54 99 43  58 105 42  60 109 40  55 100 42  55 97 48  51 94 38  55 102 38  52 97 39  57 101 48  54 96 47  48 89 42  64 112 48  73 127 50  66 118 42
60 107 42  65 116 43  62 115 37  60 109 42  55 99 45  49 92 37  56 103 41  58 104 45  57 101 47  49 92 38  63 110 48  61 110 43  62 113 42  61 110 40  67 118 45  58 105 40  57 104 45  58 105 44  63 110 47  58 106 41  60 110 40  59 105 43  52 95 43  53 98 40  64 113 45  59 105 44  51 95 41  49 91 40  52 94 45  62 110 47  63 115 41  71 123 47
57 103 45  63 113 45  74 129 47  68 119 48  50 93 38  56 101 47  55 98 45  51 93 44  53 95 48  56 100 43  58 106 40  63 113 44  61 111 40  63 112 43  59 107 42  59 107 42  58 106 39  57 105 38  57 104 40  64 114 44  74 128 52  58 105 41  52 96 41  57 103 42  65 114 47  62 111 48  61 108 47  54 97 43  51 93 44  55 102 41  63 115 38  64 114 42
56 102 43  62 111 43  68 120 43  63 113 43  57 105 41  64 113 47  62 110 44  57 102 45  54 97 45  60 107 44  64 114 42  67 118 47  67 117 49  67 118 48  59 108 40  67 118 46  65 116 43  64 113 47  54 99 41  59 107 41  62 113 40  61 110 44  61 108 45  64 113 46  61 111 42  58 106 41  63 110 48  59 105 49  48 90 43  56 101 44  64 113 46  53 98 38
58 105 43  62 110 43  65 116 45  65 116 45  68 119 46  67 119 43  66 119 42  58 106 40  57 102 46  64 114 46  72 126 46  66 117 45  61 108 47  57 104 40  68 120 46  67 119 44  67 120 44  55 101 39  60 104 50  56 102 40  63 114 42  62 112 42  58 106 39  63 113 43  65 117 44  58 105 39  61 108 46  51 94 42  55 97 48  51 93 42  50 93 40  50 93 41
55 99 44  50 94 37  57 105 41  59 107 40  62 111 42  66 118 47  64 115 43  65 115 45  64 114 47  62 112 40  72 126 45  67 118 49  50 93 40  62 110 44  64 115 40  65 117 42  62 114 39  63 111 45  58 103 48  57 105 41  68 121 44  65 115 44  60 108 44  62 111 46  60 108 43  64 113 47  54 101 39  56 102 40  61 109 45  55 102 40  58 106 42  61 108 47
48 89 43  54 97 45  60 106 46  58 104 42  57 105 40  67 116 49  61 108 43  62 113 42  71 125 46  68 121 42  72 126 46  57 105 42  48 89 41  63 111 46  65 117 40  70 123 45  70 123 46  61 109 43  52 97 41  66 116 46  77 133 50  63 113 44  59 105 45  57 102 44  56 101 45  54 100 41  66 116 48  72 125 49  65 118 40  70 124 46  68 121 45  59 107 41
50 93 40  51 94 39  53 97 40  52 97 39  58 104 41  65 113 49  54 100 41  65 115 48  68 119 46  64 116 41  70 124 45  65 116 44  57 103 41  58 106 41  65 116 44  61 110 41  64 114 46  49 93 36  55 98 44  58 104 42  57 106 38  60 108 43  65 113 52  50 92 39  52 95 45  57 103 41  70 122 48  61 111 39  60 110 37  61 110 41  55 100 39  57 104 43
63 110 47  55 101 41  54 99 43  61 108 47  61 108 47  54 98 42  53 97 42  64 112 50  58 105 42  63 114 43  69 122 42  67 120 42  68 120 45  63 113 43  62 111 45  60 107 45  53 98 41  57 101 46  52 94 43  53 97 42  62 110 48  60 106 46  51 95 39  53 96 45  52 93 46  63 111 47  65 118 41  63 114 40  70 122 48  53 98 38  52 95 44  56 101 44
64 115 44  54 99 39  52 95 42  51 94 40  52 95 41  52 95 42  51 93 41  59 106 44  60 110 40  69 122 45  68 121 41  64 115 44  63 111 47  58 105 40  62 110 43  52 98 36  62 110 46  53 97 40  56 101 47  59 105 45  59 107 40  63 112 45  58 106 42  64 113 49  58 103 45  59 107 41  73 127 48  70 123 47  69 120 49  61 109 44  59 106 43  60 108 43
65 118 40  62 110 45  53 95 46  53 95 46  49 91 41  57 101 49  53 96 45  57 105 41  66 118 39  75 130 48  73 129 48  61 109 43  56 99 46  58 104 43  59 109 39  60 108 40  63 111 45  52 98 39  51 95 40  65 114 48  69 121 47  59 109 38  71 124 47  71 124 50  58 106 40  59 108 38  67 119 42  68 120 47  60 108 43  66 116 45  72 125 48  67 119 46
64 113 46  64 113 46  57 105 41  57 104 40  64 113 47  55 100 43  50 92 44  55 101 41  66 117 45  60 110 39  64 115 43  62 111 45  52 95 39  58 105 44  66 116 48  60 107 42  58 105 42  60 107 44  63 111 47  62 110 47  50 95 37  60 107 44  58 105 42  61 109 44  61 110 42  68 117 50  58 105 42  59 108 42  68 120 47  65 115 45  61 110 44  64 113 45
56 99 47  58 106 41  76 133 50  67 120 40  67 120 42  62 111 47  57 100 50  57 101 45  58 105 43  59 106 42  58 106 40  60 108 44  57 104 43  60 106 44  60 107 44  56 102 41  62 110 47  57 104 39  69 120 50  54 99 43  51 93 44  53 95 45  52 95 45  51 95 38  65 115 45  55 100 42  47 88 41  61 109 45  69 122 44  64 114 46  50 94 38  65 113 48
52 95 44  54 99 39  65 116 45  60 108 42  59 107 44  64 111 50  57 102 46  54 99 42  59 105 45  64 113 45  66 117 43  62 112 45  59 107 43  62 109 48  52 95 41  56 101 46  57 102 46  54 99 40  55 102 38  60 108 43  61 109 45  52 97 40  51 94 42  56 101 41  62 111 44  59 106 45  61 108 49  64 112 48  58 106 40  59 106 43  58 104 44  59 106 44
