P3
32 32
255
226 171 0  225 170 0  227 173 0  227 173 0  226 172 0  227 174 0  228 174 0  227 174 0  226 172 0  225 170 0  226 171 0  227 173 0  226 171 0  225 171 0  227 173 0  225 170 0  224 169 0  226 172 0  226 172 0  224 169 0  227 173 0  228 174 0  226 171 0  226 171 0  227 172 0  227 172 0  226 172 0  226 171 0  226 172 0  227 174 0  226 172 0  226 171 0
225 170 0  225 170 0  226 172 0  226 172 0  226 171 0  227 172 0  226 171 0  225 171 0  226 171 0  226 172 0  226 171 0  226 171 0  225 170 0  225 170 0  226 171 0  224 169 0  225 170 0  225 169 0  225 170 0  227 173 0  226 172 0  227 173 0  226 172 0  226 171 0  226 171 0  225 170 0  225 169 0  225 169 0  226 171 0  227 174 0  226 171 0  226 172 0
225 169 0  226 171 0  226 171 0  226 171 0  225 170 0  225 170 0  227 173 0  226 171 0  226 171 0  226 172 0  226 172 0  227 172 0  226 172 0  226 171 0  225 170 0  226 171 0  226 171 0  225 169 0  225 170 0  227 173 0  226 171 0  226 171 0  226 171 0  226 172 0  227 173 0  225 170 0  226 171 0  225 169 0  225 170 0  227 174 0  226 172 0  226 172 0
225 170 0  226 171 0  226 171 0  225 170 0  225 170 0  225 169 0  227 174 0  227 172 0  226 172 0  226 172 0  226 171 0  227 172 0  226 172 0  226 171 0  225 170 0  227 173 0  227 172 0  226 171 0  226 171 0  227 173 0  226 171 0  225 170 0  226 171 0  226 172 0  227 174 0  226 171 0  226 171 0  225 170 0  225 170 0  226 172 0  226 171 0  226 172 0
226 171 0  225 170 0  225 170 0  225 170 0  225 170 0  225 170 0  227 173 0  227 174 0  227 174 0  227 173 0  225 170 0  225 170 0  225 170 0  226 171 0  227 173 0  227 173 0  227 172 0  227 173 0  227 172 0  226 171 0  226 171 0  226 171 0  226 171 0  226 171 0  227 172 0  226 172 0  225 170 0  226 171 0  225 170 0  224 168 0  225 169 0  226 172 0
225 170 0  227 174 0  226 172 0  226 172 0  227 173 0  227 172 0  227 174 0  226 171 0  225 170 0  225 169 0  224 168 0  227 173 0  226 172 0  226 172 0  227 173 0  224 168 0  224 169 0  224 169 0  224 168 0  224 169 0  227 173 0  227 173 0  227 172 0  226 172 0  226 172 0  225 170 0  225 169 0  225 169 0  225 169 0  225 169 0  225 171 0  225 170 0
226 172 0  228 174 0  227 173 0  227 172 0  227 174 0  227 174 0  225 170 0  227 173 0  227 173 0  226 171 0  227 172 0  225 169 0  226 172 0  227 173 0  227 173 0  225 169 0  225 170 0  227 172 0  227 173 0  226 172 0  226 171 0  227 173 0  227 173 0  226 172 0  226 171 0  227 174 0  227 173 0  227 173 0  227 173 0  227 172 0  225 169 0  226 171 0
227 172 0  226 171 0  225 170 0  226 171 0  227 174 0  226 172 0  226 172 0  227 173 0  227 173 0  227 173 0  227 173 0  226 171 0  226 171 0  226 171 0  226 171 0  227 172 0  225 170 0  227 172 0  227 174 0  227 172 0  225 170 0  226 172 0  226 172 0  226 172 0  227 172 0  226 171 0  226 171 0  227 173 0  227 174 0  227 173 0  225 170 0  226 171 0
226 172 0  226 171 0  225 170 0  226 171 0  227 173 0  226 171 0  227 173 0  227 173 0  227 173 0  226 172 0  227 173 0  226 172 0  226 171 0  225 170 0  225 170 0  227 173 0  225 170 0  226 171 0  226 172 0  226 171 0  225 169 0  226 171 0  226 172 0  227 172 0  227 172 0  226 171 0  225 170 0  226 172 0  227 173 0  226 172 0  225 170 0  226 172 0
226 171 0  227 173 0  226 171 0  226 171 0  226 172 0  226 171 0  226 172 0  227 173 0  227 172 0  225 170 0  226 171 0  227 173 0  226 171 0  226 171 0  226 171 0  225 170 0  225 170 0  225 170 0  225 170 0  225 169 0  225 170 0  225 170 0  226 172 0  227 172 0  226 171 0  227 173 0  225 169 0  225 170 0  226 171 0  226 171 0  225 169 0  227 173 0
227 174 0  228 174 0  226 172 0  226 172 0  227 173 0  224 168 0  227 173 0  226 171 0  226 171 0  227 173 0  225 171 0  226 172 0  226 171 0  225 170 0  225 170 0  227 172 0  227 173 0  227 174 0  227 173 0  226 172 0  226 171 0  225 169 0  225 171 0  226 171 0  226 171 0  226 171 0  224 169 0  224 168 0  225 170 0  227 172 0  224 168 0  225 171 0
227 173 0  227 173 0  226 171 0  226 171 0  227 174 0  226 171 0  226 171 0  227 172 0  226 172 0  225 170 0  227 173 0  226 171 0  226 172 0  226 171 0  225 169 0  227 173 0  226 171 0  226 171 0  226 171 0  226 171 0  224 168 0  225 170 0  226 172 0  227 173 0  227 173 0  227 173 0  226 171 0  226 172 0  227 173 0  227 173 0  224 169 0  226 171 0
226 172 0  226 172 0  226 172 0  227 173 0  228 174 0  226 172 0  226 171 0  226 171 0  225 170 0  225 169 0  227 174 0  225 169 0  226 171 0  226 171 0  226 171 0  226 171 0  226 172 0  226 172 0  226 171 0  226 171 0  226 171 0  225 170 0  227 172 0  227 174 0  227 173 0  226 172 0  225 170 0  226 172 0  227 174 0  227 174 0  225 170 0  226 172 0
226 171 0  226 171 0  226 172 0  227 172 0  227 172 0  227 172 0  226 171 0  225 170 0  225 169 0  225 170 0  227 174 0  225 170 0  225 170 0  226 171 0  226 172 0  225 170 0  226 172 0  227 173 0  227 172 0  226 172 0  226 171 0  226 171 0  227 173 0  227 174 0  227 173 0  226 171 0  226 171 0  226 172 0  227 173 0  227 174 0  226 171 0  226 171 0
225 170 0  226 172 0  226 172 0  226 171 0  225 170 0  227 174 0  226 171 0  225 169 0  225 169 0  226 171 0  227 173 0  227 173 0  226 171 0  225 170 0  226 172 0  225 170 0  226 171 0  227 173 0  228 174 0  227 173 0  224 168 0  227 173 0  227 173 0  227 173 0  227 172 0  225 170 0  227 173 0  226 172 0  226 172 0  227 173 0  226 172 0  226 171 0
225 169 0  227 174 0  227 173 0  226 172 0  226 171 0  228 174 0  228 174 0  226 171 0  225 171 0  227 173 0  226 171 0  226 171 0  227 173 0  227 174 0  227 173 0  226 171 0  227 172 0  227 174 0  227 173 0  226 171 0  225 170 0  227 173 0  227 174 0  227 172 0  225 170 0  226 171 0  227 173 0  227 173 0  227 173 0  227 173 0  227 173 0  227 174 0
224 168 0  224 169 0  224 169 0  225 169 0  226 171 0  227 174 0  225 170 0  225 169 0  225 170 0  226 171 0  225 169 0  227 173 0  227 173 0  226 172 0  226 172 0  225 170 0  227 174 0  228 174 0  227 173 0  225 170 0  226 171 0  227 174 0  227 174 0  227 173 0  226 172 0  227 173 0  225 170 0  225 169 0  225 169 0  226 171 0  226 172 0  226 171 0
226 172 0  225 170 0  225 169 0  225 170 0  226 172 0  227 173 0  227 172 0  225 170 0  225 170 0  227 173 0  226 172 0  227 172 0  226 172 0  226 172 0  226 172 0  226 171 0  226 171 0  226 171 0  226 171 0  227 172 0  227 172 0  227 174 0  227 173 0  226 172 0  225 170 0  228 174 0  225 169 0  225 170 0  225 170 0  225 170 0  227 173 0  226 172 0
227 172 0  226 172 0  225 170 0  226 171 0  227 173 0  226 172 0  227 174 0  226 171 0  225 170 0  226 172 0  227 172 0  225 170 0  226 171 0  226 171 0  226 172 0  227 172 0  225 170 0  225 170 0  226 171 0  227 173 0  226 171 0  227 173 0  227 174 0  226 172 0  225 169 0  227 174 0  225 170 0  226 171 0  226 171 0  225 170 0  228 174 0  226 172 0
225 169 0  227 173 0  226 171 0  226 172 0  227 174 0  226 172 0  227 174 0  226 171 0  225 169 0  224 168 0  225 170 0  225 169 0  225 169 0  225 170 0  226 172 0  228 174 0  226 171 0  226 172 0  226 172 0  226 172 0  225 169 0  227 173 0  227 174 0  227 172 0  225 170 0  226 172 0  226 172 0  226 172 0  226 171 0  225 170 0  227 174 0  225 170 0
226 171 0  227 173 0  227 174 0  227 174 0  227 173 0  228 174 0  225 170 0  225 170 0  225 170 0  225 169 0  226 172 0  227 174 0  227 173 0  227 173 0  228 174 0  227 173 0  228 174 0  226 171 0  225 170 0  227 173 0  227 173 0  226 171 0  226 171 0  227 172 0  227 173 0  225 170 0  227 173 0  227 174 0  227 173 0  226 172 0  227 172 0  225 170 0
225 170 0  227 173 0  226 171 0  226 171 0  227 172 0  226 171 0  225 170 0  225 169 0  226 171 0  227 173 0  226 171 0  227 172 0  225 170 0  225 169 0  225 170 0  226 171 0  227 173 0  227 172 0  226 171 0  225 170 0  228 174 0  226 172 0  227 173 0  227 173 0  226 172 0  225 170 0  227 174 0  226 172 0  226 172 0  227 174 0  227 172 0  224 169 0
225 170 0  225 170 0  226 171 0  226 172 0  226 171 0  225 169 0  226 171 0  225 170 0  225 170 0  225 170 0  226 171 0  226 171 0  225 170 0  225 170 0  226 171 0  225 169 0  225 170 0  226 171 0  226 171 0  225 169 0  227 174 0  225 170 0  227 172 0  227 173 0  226 171 0  226 171 0  227 172 0  226 171 0  226 171 0  227 174 0  227 173 0  226 172 0
225 171 0  225 170 0  226 172 0  227 173 0  226 171 0  224 168 0  226 172 0  226 172 0  225 171 0  225 169 0  226 171 0  226 171 0  225 170 0  225 170 0  226 171 0  224 169 0  224 168 0  226 171 0  226 171 0  225 170 0  227 173 0  225 170 0  226 172 0  227 173 0  226 171 0  226 172 0  226 171 0  225 171 0  226 171 0  226 172 0  227 173 0  227 174 0
226 172 0  227 173 0  227 173 0  227 172 0  226 172 0  225 169 0  226 172 0  227 173 0  227 172 0  225 169 0  225 170 0  226 172 0  225 170 0  225 169 0  226 171 0  225 169 0  224 169 0  225 170 0  226 172 0  227 173 0  227 173 0  226 171 0  226 172 0  227 173 0  227 174 0  227 172 0  225 169 0  226 171 0  226 171 0  225 169 0  225 170 0  227 174 0
226 171 0  226 172 0  225 170 0  225 170 0  227 172 0  227 173 0  226 172 0  227 173 0  226 172 0  224 169 0  227 174 0  226 172 0  226 171 0  226 172 0  228 174 0  226 172 0  226 171 0  226 172 0  227 173 0  227 173 0  225 169 0  227 173 0  227 173 0  227 173 0  227 174 0  227 173 0  225 170 0  225 170 0  226 172 0  228 174 0  226 172 0  227 173 0
227 173 0  227 172 0  225 170 0  225 170 0  227 172 0  225 169 0  227 173 0  227 172 0  226 171 0  225 170 0  226 172 0  227 173 0  227 173 0  227 174 0  228 174 0  227 172 0  226 172 0  226 172 0  226 172 0  227 172 0  227 173 0  228 174 0  227 173 0  227 173 0  227 173 0  225 170 0  227 173 0  227 173 0  227 173 0  226 172 0  226 171 0  227 174 0
227 174 0  226 172 0  226 171 0  226 171 0  226 172 0  226 171 0  225 170 0  225 170 0  225 170 0  225 170 0  227 173 0  227 172 0  226 171 0  225 170 0  226 171 0  226 171 0  226 172 0  227 173 0  227 172 0  225 170 0  226 172 0  227 173 0  226 171 0  226 171 0  227 173 0  225 170 0  226 171 0  226 171 0  225 170 0  225 170 0  226 171 0  227 173 0
227 174 0  227 172 0  226 171 0  226 171 0  226 172 0  226 172 0  225 170 0  225 170 0  225 170 0  225 170 0  227 173 0  226 172 0  226 171 0  225 170 0  226 171 0  226 171 0  226 171 0  227 172 0  226 172 0  226 171 0  226 171 0  226 172 0  226 171 0  226 171 0  227 172 0  226 171 0  225 170 0  225 170 0  225 170 0  225 169 0  226 171 0  226 172 0
227 172 0  227 173 0  226 171 0  226 171 0  227 172 0  226 171 0  227 173 0  227 172 0  226 172 0  226 171 0  226 171 0  226 171 0  227 173 0  227 174 0  227 174 0  226 172 0  226 171 0  226 171 0  226 172 0  227 173 0  226 172 0  226 171 0  226 171 0  226 172 0  226 171 0  226 172 0  225 169 0  226 171 0  226 171 0  224 169 0  225 170 0  225 169 0
225 169 0  227 173 0  226 172 0  225 170 0  225 169 0  225 169 0  227 173 0  225 170 0  226 171 0  228 174 0  225 169 0  226 172 0  227 173 0  227 174 0  228 174 0  227 173 0  228 174 0  228 174 0  227 173 0  226 171 0  227 173 0  225 171 0  225 169 0  225 170 0  226 171 0  225 169 0  224 168 0  225 169 0  225 170 0  226 171 0  225 170 0  226 171 0
227 174 0  227 172 0  226 171 0  225 170 0  225 170 0  226 172 0  226 172 0  226 171 0  225 170 0  225 170 0  227 172 0  225 170 0  225 170 0  226 171 0  227 173 0  227 174 0  227 172 0  226 171 0  226 171 0  226 171 0  226 171 0  226 172 0  226 171 0  226 172 0  227 173 0  226 171 0  225 170 0  225 170 0  225 170 0  226 172 0  225 170 0  226 172 0
