P3
32 32
255
175 152 255  155 168 255  147 159 255  154 150 255  136 158 255  159 150 255  159 135 255  133 168 255  155 148 255  174 146 255  143 164 255  143 160 255  137 163 255  140 152 255  164 152 255  155 152 255  151 169 255  142 142 255  167 161 255  150 150 255  137 172 255  160 138 255  156 152 255  169 140 255  169 168 255  144 157 255  156 160 255  173 152 255  161 157 255  170 170 255  128 148 255  140 148 255
143 173 255  165 157 255  137 167 255  154 135 255  150 139 255  160 135 255  161 142 255  170 159 255  168 168 255  173 163 255  156 133 255  136 162 255  156 167 255  170 134 255  157 147 255  150 152 255  156 144 255  157 137 255  152 134 255  165 173 255  169 153 255  131 143 255  151 141 255  133 174 255  151 159 255  156 151 255  144 164 255  155 147 255  165 134 255  164 138 255  158 162 255  141 136 255
162 146 255  141 168 255  161 155 255  160 167 255  172 142 255  167 150 255  144 154 255  147 140 255  159 154 255  142 172 255  139 172 255  141 162 255  151 162 255  172 133 255  159 149 255  167 165 255  161 155 255  171 154 255  157 165 255  150 152 255  166 143 255  142 154 255  141 158 255  136 144 255  145 161 255  145 153 255  152 135 255  162 144 255  161 169 255  153 134 255  141 170 255  149 174 255
167 167 255  139 161 255  147 173 255  167 171 255  147 166 255  158 155 255  141 147 255  140 139 255  158 164 255  150 155 255  133 173 255  152 131 255  169 148 255  158 157 255  149 162 255  156 152 255  159 154 255  162 147 255  158 149 255  144 139 255  158 145 255  166 172 255  145 137 255  155 140 255  167 158 255  174 157 255  150 158 255  146 162 255  151 154 255  153 137 255  157 153 255  142 154 255
148 132 255  143 140 255  157 151 255  164 146 255  149 147 255  148 151 255  142 157 255  151 151 255  152 167 255  149 151 255  147 151 255  149 137 255  154 164 255  143 164 255  171 162 255  159 151 255  148 140 255  157 151 255  144 145 255  139 154 255  175 163 255  163 163 255  164 143 255  135 145 255  153 165 255  165 156 255  146 149 255  138 162 255  149 135 255  146 149 255  155 159 255  156 150 255
147 154 255  148 148 255  166 149 255  168 148 255  160 148 255  155 143 255  163 158 255  159 150 255  160 148 255  143 165 255  148 134 255  174 134 255  152 162 255  146 161 255  166 164 255  160 156 255  152 145 255  155 135 255  154 152 255  145 148 255  173 139 255  144 158 255  159 157 255  141 160 255  165 158 255  157 150 255  144 140 255  143 153 255  143 141 255  135 151 255  133 136 255  139 141 255
146 150 255  160 163 255  163 145 255  149 160 255  164 157 255  154 141 255  144 157 255  163 167 255  173 161 255  166 163 255  139 139 255  153 152 255  168 166 255  137 158 255  158 153 255  155 159 255  149 155 255  144 147 255  145 148 255  169 133 255  166 139 255  148 153 255  165 165 255  134 141 255  143 144 255  148 157 255  144 147 255  136 154 255  144 138 255  146 167 255  150 154 255  141 134 255
134 139 255  166 151 255  157 152 255  145 142 255  169 157 255  169 165 255  159 164 255  149 164 255  165 153 255  163 152 255  146 157 255  133 170 255  141 150 255  154 143 255  158 158 255  159 161 255  146 142 255  144 136 255  162 153 255  174 142 255  140 156 255  163 153 255  145 144 255  155 148 255  149 143 255  152 145 255  138 157 255  140 157 255  136 139 255  169 139 255  141 140 255  166 147 255
140 158 255  136 173 255  164 152 255  170 149 255  150 149 255  150 147 255  158 139 255  157 139 255  145 158 255  131 149 255  159 146 255  128 139 255  152 161 255  161 156 255  167 154 255  162 150 255  138 147 255  155 153 255  160 161 255  159 149 255  137 174 255  136 156 255  156 143 255  137 146 255  141 167 255  147 169 255  155 176 255  163 153 255  157 168 255  171 164 255  135 166 255  135 154 255
173 158 255  135 152 255  151 153 255  145 147 255  143 157 255  161 164 255  165 162 255  148 146 255  138 171 255  164 159 255  143 154 255  130 169 255  151 136 255  168 132 255  156 146 255  142 147 255  137 156 255  152 145 255  136 142 255  135 141 255  130 140 255  142 133 255  135 143 255  133 163 255  141 162 255  139 150 255  141 132 255  131 163 255  153 147 255  169 145 255  148 142 255  145 172 255
144 166 255  137 129 255  139 136 255  136 157 255  145 172 255  152 165 255  168 143 255  166 137 255  170 163 255  169 130 255  174 152 255  158 139 255  163 136 255  165 138 255  167 165 255  162 148 255  156 163 255  166 166 255  164 143 255  166 168 255  137 178 255  139 171 255  150 139 255  166 161 255  168 152 255  168 158 255  168 157 255  170 168 255  172 171 255  142 137 255  175 139 255  165 146 255
164 133 255  159 143 255  146 140 255  156 161 255  154 139 255  134 153 255  148 173 255  169 142 255  161 151 255  163 164 255  132 168 255  136 168 255  154 140 255  162 170 255  147 139 255  158 137 255  154 163 255  141 145 255  161 173 255  174 174 255  162 142 255  149 130 255  136 162 255  146 150 255  156 138 255  153 134 255  160 141 255  154 148 255  167 157 255  178 134 255  156 149 255  149 164 255
158 143 255  135 159 255  133 158 255  161 149 255  156 169 255  141 146 255  156 139 255  155 135 255  135 134 255  160 149 255  160 132 255  171 149 255  142 150 255  167 166 255  144 162 255  166 171 255  161 152 255  152 144 255  156 145 255  167 171 255  168 148 255  151 165 255  158 133 255  145 148 255  148 169 255  143 152 255  166 139 255  140 157 255  165 135 255  163 146 255  133 151 255  142 143 255
161 160 255  152 173 255  139 163 255  148 153 255  169 150 255  157 152 255  148 151 255  150 137 255  152 168 255  160 141 255  168 145 255  150 168 255  168 151 255  166 142 255  153 166 255  154 165 255  162 152 255  141 157 255  150 139 255  163 148 255  146 167 255  155 173 255  155 159 255  161 167 255  153 154 255  167 142 255  167 134 255  159 153 255  167 159 255  160 149 255  136 153 255  166 156 255
141 149 255  146 170 255  157 134 255  167 145 255  161 145 255  153 154 255  156 166 255  150 147 255  134 154 255  155 151 255  160 140 255  138 171 255  160 156 255  153 157 255  145 146 255  141 149 255  151 158 255  140 169 255  143 154 255  156 160 255  158 175 255  158 163 255  165 152 255  157 160 255  143 168 255  147 168 255  153 143 255  172 158 255  159 149 255  161 159 255  154 161 255  155 137 255
168 159 255  145 157 255  155 150 255  157 136 255  150 144 255  147 151 255  163 153 255  169 147 255  151 154 255  135 143 255  146 144 255  157 148 255  164 154 255  143 172 255  153 156 255  140 157 255  136 168 255  136 160 255  164 159 255  144 148 255  143 150 255  140 148 255  150 142 255  158 149 255  163 154 255  151 159 255  148 148 255  168 143 255  152 165 255  143 151 255  152 151 255  158 130 255
161 170 255  155 164 255  159 159 255  150 151 255  143 137 255  139 150 255  151 159 255  153 155 255  159 165 255  156 159 255  159 155 255  168 138 255  147 173 255  147 172 255  164 161 255  145 158 255  133 164 255  142 164 255  174 149 255  137 160 255  160 160 255  157 136 255  145 151 255  152 142 255  153 138 255  139 149 255  156 161 255  152 142 255  159 167 255  140 155 255  165 155 255  158 159 255
157 164 255  161 166 255  171 140 255  164 171 255  160 163 255  146 161 255  140 153 255  137 159 255  157 165 255  167 150 255  163 155 255  143 149 255  161 152 255  140 150 255  149 149 255  133 142 255  154 139 255  150 150 255  146 167 255  167 154 255  166 170 255  141 160 255  141 143 255  163 145 255  149 142 255  160 145 255  156 142 255  160 150 255  150 158 255  138 149 255  148 138 255  150 155 255
133 146 255  162 168 255  143 153 255  141 143 255  156 158 255  140 147 255  135 157 255  165 170 255  158 158 255  136 132 255  132 132 255  159 141 255  153 157 255  149 152 255  133 149 255  152 165 255  148 164 255  146 163 255  139 159 255  144 131 255  146 148 255  146 143 255  170 146 255  167 143 255  153 134 255  154 142 255  140 148 255  146 164 255  145 172 255  170 163 255  130 152 255  136 145 255
175 155 255  155 170 255  147 155 255  170 163 255  142 158 255  138 144 255  159 159 255  153 154 255  145 134 255  160 141 255  144 161 255  148 139 255  163 159 255  171 141 255  174 146 255  161 162 255  152 161 255  153 172 255  152 139 255  174 133 255  146 160 255  173 157 255  176 135 255  177 162 255  174 142 255  164 142 255  169 161 255  159 152 255  145 139 255  160 135 255  152 165 255  144 145 255
139 143 255  172 154 255  158 140 255  159 153 255  153 167 255  148 169 255  155 163 255  156 163 255  132 153 255  165 132 255  156 139 255  133 139 255  150 150 255  160 160 255  166 148 255  155 155 255  148 144 255  171 138 255  146 146 255  177 159 255  166 165 255  155 151 255  140 147 255  157 141 255  167 168 255  164 155 255  145 133 255  163 155 255  142 162 255  142 177 255  132 151 255  132 174 255
142 129 255  129 138 255  145 135 255  158 159 255  164 151 255  162 138 255  167 146 255  152 141 255  173 152 255  139 168 255  145 163 255  147 144 255  156 169 255  144 170 255  147 154 255  156 143 255  171 149 255  157 157 255  153 149 255  131 138 255  148 131 255  166 168 255  153 165 255  166 149 255  149 150 255  155 157 255  162 146 255  171 138 255  153 157 255  175 129 255  134 174 255  174 173 255
130 175 255  171 174 255  149 148 255  174 163 255  169 141 255  155 145 255  147 145 255  151 144 255  133 165 255  135 152 255  157 130 255  172 163 255  167 147 255  154 163 255  144 166 255  168 164 255  155 149 255  160 146 255  135 160 255  172 157 255  171 151 255  142 155 255  158 168 255  154 139 255  151 153 255  141 140 255  156 163 255  149 145 255  170 165 255  144 149 255  159 148 255  156 145 255
132 151 255  152 149 255  148 146 255  152 146 255  145 136 255  151 146 255  156 164 255  160 160 255  154 141 255  149 157 255  168 155 255  136 161 255  146 154 255  154 172 255  137 171 255  141 157 255  145 146 255  163 165 255  167 167 255  161 163 255  170 164 255  152 164 255  142 172 255  160 159 255  155 147 255  156 160 255  149 167 255  158 169 255  156 162 255  142 139 255  156 143 255  166 144 255
130 137 255  172 151 255  151 155 255  143 156 255  144 145 255  147 156 255  153 159 255  147 142 255  151 149 255  150 153 255  148 146 255  154 146 255  143 149 255  152 152 255  151 160 255  146 162 255  145 160 255  134 156 255  152 163 255  165 164 255  158 155 255  149 158 255  144 152 255  142 159 255  146 167 255  145 140 255  160 145 255  165 142 255  166 172 255  154 148 255  171 154 255  167 136 255
131 151 255  168 146 255  165 148 255  149 164 255  161 153 255  147 158 255  148 140 255  148 154 255  163 159 255  144 135 255  147 156 255  148 175 255  168 148 255  163 149 255  155 168 255  156 159 255  149 159 255  150 144 255  144 155 255  145 149 255  163 157 255  147 138 255  153 140 255  143 148 255  148 162 255  152 148 255  161 149 255  153 139 255  163 153 255  163 154 255  154 159 255  151 153 255
155 148 255  170 157 255  165 143 255  152 153 255  155 148 255  145 152 255  144 153 255  153 167 255  146 161 255  146 151 255  147 149 255  162 171 255  164 141 255  156 166 255  152 164 255  150 169 255  148 158 255  157 152 255  153 146 255  154 146 255  143 158 255  144 155 255  161 147 255  160 144 255  142 142 255  147 156 255  159 154 255  153 159 255  147 158 255  168 167 255  140 158 255  163 157 255
174 152 255  154 142 255  164 142 255  140 167 255  153 158 255  143 158 255  154 158 255  168 170 255  151 150 255  141 149 255  157 140 255  159 148 255  155 144 255  160 150 255  171 156 255  160 156 255  147 166 255  139 164 255  145 161 255  165 169 255  146 158 255  135 144 255  160 165 255  158 142 255  144 164 255  147 163 255  167 158 255  142 165 255  134 164 255  159 162 255  139 144 255  159 165 255
151 139 255  143 129 255  175 141 255  166 155 255  153 164 255  149 149 255  155 160 255  143 145 255  169 149 255  165 149 255  173 131 255  139 139 255  170 160 255  150 141 255  139 146 255  133 151 255  136 160 255  156 163 255  160 157 255  146 161 255  166 135 255  163 152 255  157 156 255  157 148 255  163 139 255  159 142 255  168 140 255  156 146 255  164 147 255  159 159 255  139 135 255  159 168 255
176 169 255  134 164 255  152 139 255  165 158 255  143 164 255  151 161 255  153 157 255  164 155 255  167 137 255  130 162 255  136 167 255  169 131 255  148 158 255  160 167 255  138 144 255  142 152 255  136 152 255  166 154 255  142 141 255  165 145 255  169 176 255  132 144 255  142 159 255  134 162 255  156 150 255  165 148 255  159 162 255  144 152 255  158 163 255  129 137 255  155 140 255  170 153 255
137 169 255  176 175 255  143 135 255  160 134 255  138 130 255  156 154 255  150 171 255  139 173 255  151 158 255  134 132 255  141 137 255  141 167 255  157 174 255  138 154 255  159 143 255  147 128 255  166 137 255  141 131 255  132 140 255  128 141 255  160 133 255  143 161 255  172 152 255  139 139 255  157 171 255  157 150 255  149 156 255  138 159 255  130 131 255  128 144 255  165 145 255  154 150 255
152 132 255  156 143 255  165 156 255  167 139 255  161 161 255  139 143 255  143 162 255  169 156 255  142 138 255  156 148 255  170 171 255  150 173 255  155 131 255  145 153 255  162 142 255  166 144 255  173 149 255  153 146 255  131 169 255  167 175 255  152 169 255  157 174 255  157 172 255  145 154 255  153 160 255  143 152 255  159 143 255  144 151 255  132 172 255  161 135 255  141 150 255  168 147 255
