P3
32 32
255
58 132 234  90 101 246  150 73 240  169 81 239  161 110 249  169 121 248  191 106 236  186 101 237  128 128 255  69 154 237  64 149 236  86 134 248  94 145 249  86 174 239  105 182 240  165 154 246  197 123 234  179 120 244  133 122 255  120 94 250  135 62 237  125 59 235  88 90 243  80 122 246  127 128 255  175 133 246  167 165 243  130 196 235  120 193 237  135 161 250  122 133 255  76 135 244
56 158 228  65 155 235  126 124 255  177 105 243  177 117 244  164 129 250  175 107 244  183 79 232  155 75 240  89 103 246  63 123 237  85 116 247  119 121 255  116 161 250  108 193 235  134 193 237  176 163 240  174 146 245  121 149 253  84 134 247  99 89 246  126 60 235  120 66 239  104 95 249  133 108 253  185 104 239  197 117 234  162 156 247  113 181 242  105 168 246  108 143 253  81 143 245
69 151 238  64 175 227  98 175 242  165 150 247  182 144 241  158 156 248  142 143 253  157 95 247  155 65 235  115 69 240  75 92 238  87 95 244  138 88 248  162 113 249  142 165 248  130 191 238  151 181 241  163 160 246  120 161 250  68 163 235  61 143 235  97 99 248  129 79 245  127 96 251  135 114 254  179 102 241  203 92 224  191 101 235  133 132 255  93 142 249  96 124 251  95 121 251
104 106 251  83 157 243  95 183 238  146 177 243  180 163 238  159 174 242  115 180 243  106 149 251  126 93 250  120 72 242  88 85 241  86 94 243  138 81 246  184 82 232  186 110 239  155 154 249  142 166 248  152 147 251  129 142 254  72 161 238  51 166 222  66 151 237  117 123 254  141 124 254  137 144 254  159 137 251  194 102 233  196 84 226  156 88 245  96 105 249  88 98 245  109 84 246
137 67 239  132 102 252  118 155 252  143 170 247  179 159 240  171 163 242  114 184 241  77 179 232  80 147 244  101 106 250  94 103 248  84 119 247  120 110 254  183 88 235  202 88 223  184 108 240  147 130 254  139 117 254  137 100 252  96 118 251  56 153 230  58 165 227  100 158 248  148 151 251  147 170 246  137 180 243  161 152 248  183 103 240  162 83 242  103 89 247  79 90 239  107 70 239
141 65 238  168 72 235  160 108 249  155 140 251  177 135 245  184 127 242  137 148 253  74 171 235  59 165 228  78 142 244  97 131 251  92 150 248  103 161 248  160 135 250  201 103 229  195 98 231  154 108 251  122 101 252  129 75 243  124 69 241  85 103 245  66 144 238  95 157 247  154 153 249  167 168 242  138 193 236  123 193 237  141 155 251  145 111 253  103 102 250  69 108 239  86 89 242
117 103 252  176 82 236  186 94 236  170 117 247  170 117 247  181 96 239  162 91 245  94 122 250  56 148 231  66 145 238  101 137 252  114 158 251  107 186 239  128 187 240  177 152 242  191 121 238  155 116 252  102 113 252  102 84 244  126 57 234  124 62 237  98 98 248  107 131 253  161 133 250  189 138 239  164 169 242  116 194 236  102 183 239  111 148 252  97 127 251  65 135 238  64 134 238
87 163 243  159 131 251  193 114 236  179 124 244  155 126 252  160 95 246  162 68 235  127 70 241  74 103 241  67 122 239  107 118 253  147 131 254  137 173 246  123 199 233  142 190 237  168 158 244  148 141 253  88 142 248  68 125 240  98 83 243  134 61 236  135 75 243  129 106 253  162 114 249  197 107 232  194 117 236  139 155 252  89 171 241  85 155 245  92 135 250  74 146 242  62 165 230
83 185 232  129 181 243  182 153 240  181 148 242  141 156 251  119 132 255  135 82 246  135 59 235  102 70 239  80 95 241  112 97 250  169 97 244  181 124 243  149 172 245  129 190 239  141 173 246  137 151 252  88 155 246  55 158 228  62 139 237  114 99 251  151 89 247  150 110 252  158 121 251  190 102 236  199 88 225  170 95 243  100 125 252  74 131 243  89 116 248  96 123 251  79 162 240
105 170 245  120 190 239  163 176 240  178 163 239  137 173 246  89 171 241  85 135 248  112 85 247  114 73 242  95 91 245  110 100 251  170 88 241  199 91 226  188 116 239  144 154 251  125 156 252  128 134 255  101 135 252  60 158 231  53 167 223  85 155 245  147 131 254  162 137 250  151 153 250  165 135 249  188 94 235  178 75 232  123 82 246  77 100 241  87 92 243  119 85 247  122 117 254
155 116 252  138 163 249  155 169 245  176 154 242  148 160 249  85 176 237  60 169 228  74 138 243  105 107 251  106 113 252  107 131 253  153 117 252  198 93 228  202 90 224  169 107 246  122 120 255  117 103 252  117 92 249  83 119 247  59 158 231  75 172 235  133 164 250  169 160 244  153 177 242  134 180 243  149 142 252  162 91 245  132 76 244  84 88 241  80 87 239  124 69 241  160 75 239
187 84 232  172 118 247  159 140 250  171 126 247  164 118 249  103 142 252  57 163 227  56 160 228  89 142 248  117 141 254  114 164 249  128 170 248  177 135 245  200 102 229  179 94 239  122 101 252  100 90 246  118 67 239  120 69 241  91 111 249  85 154 245  129 164 250  176 157 242  169 173 239  126 194 236  105 185 239  118 141 254  119 102 252  85 103 245  69 110 239  106 89 247  168 72 235
195 92 230  192 102 235  165 118 249  157 107 250  162 83 242  134 83 247  74 121 243  55 146 231  80 147 244  129 145 254  137 170 247  124 194 236  139 187 240  175 146 244  173 114 246  120 111 254  80 106 244  96 77 240  131 57 233  136 69 240  120 110 254  138 138 254  181 134 243  191 139 238  147 170 246  92 186 235  81 170 238  93 137 250  86 127 248  67 142 239  82 141 246  151 109 251
182 135 242  196 119 235  168 125 248  134 118 254  138 81 246  142 59 234  110 70 240  73 106 241  84 125 247  141 124 254  170 142 247  148 181 241  125 199 233  135 184 241  148 149 252  114 134 254  67 137 239  64 121 238  111 81 245  153 68 237  156 88 245  153 116 252  179 116 244  197 104 231  178 113 244  106 149 251  68 160 236  74 144 242  90 133 249  81 154 243  79 176 235  118 171 247
151 181 241  185 152 239  165 148 248  111 150 252  95 119 250  119 72 242  126 58 234  104 76 242  98 101 249  146 103 251  190 105 236  187 132 240  142 175 245  115 184 241  120 161 250  109 142 253  69 151 238  53 157 226  76 141 243  144 105 252  174 102 244  166 122 249  167 123 249  187 96 236  185 79 230  139 88 248  75 119 244  68 123 240  96 113 250  110 132 254  98 175 242  107 194 234
135 191 238  166 172 241  161 160 246  105 168 246  67 161 235  75 125 244  112 83 246  122 79 245  113 102 252  142 107 253  191 94 233  204 94 224  177 117 244  120 147 253  102 142 252  106 122 253  85 133 247  59 162 229  65 173 228  116 161 250  172 140 246  173 147 245  151 156 250  157 127 252  172 82 238  152 66 236  98 80 242  72 97 238  99 89 246  143 91 249  145 131 254  125 180 243
145 166 248  154 163 247  160 146 250  115 154 252  63 168 230  53 162 225  81 135 246  122 113 254  127 127 255  133 142 254  174 120 246  202 93 225  192 87 230  140 101 252  95 109 250  101 92 247  110 89 248  85 126 248  73 168 235  103 181 241  161 167 244  177 164 239  145 181 242  117 174 246  128 128 255  138 81 246  110 74 242  78 91 239  94 88 244  152 74 241  182 87 235  170 129 248
170 122 247  149 133 253  153 113 252  135 108 253  78 138 244  51 161 224  64 161 233  113 148 253  142 153 252  133 176 245  143 172 246  180 130 244  188 94 235  150 87 246  94 95 246  89 83 241  120 64 238  130 75 243  110 124 254  112 164 249  156 166 246  183 158 238  157 175 242  103 189 236  83 173 238  98 128 252  104 99 250  82 108 245  83 115 246  139 94 250  190 82 228  196 93 229
186 104 238  146 113 253  135 94 250  140 71 241  113 80 245  68 123 240  65 150 236  109 152 251  157 154 249  151 179 242  129 197 234  136 183 242  160 136 250  144 105 252  90 107 248  70 103 239  104 74 241  148 61 234  157 80 242  145 123 254  159 142 250  187 132 240  180 136 244  116 167 248  70 176 230  68 159 236  88 132 249  89 133 249  81 153 244  111 150 252  179 114 243  202 98 226
188 118 239  141 121 254  107 106 252  120 71 241  130 56 233  107 74 241  85 113 247  114 131 254  171 130 247  182 149 241  145 185 240  113 196 234  117 174 246  121 137 254  87 130 248  59 136 235  73 120 242  137 84 247  176 79 235  174 101 243  165 122 249  181 111 242  187 95 236  149 106 251  77 142 244  58 151 231  76 139 244  102 139 252  99 167 245  102 187 237  144 174 245  191 134 238
175 149 244  135 144 254  82 141 246  80 109 244  116 68 240  131 61 236  118 85 247  126 110 254  175 108 244  200 109 231  181 134 243  121 172 247  93 172 242  98 148 250  90 137 249  63 153 235  60 163 230  104 146 251  173 114 246  188 113 239  169 128 248  162 118 250  174 85 238  163 69 235  108 85 246  64 116 238  74 121 243  117 117 254  135 145 254  119 186 240  124 198 233  159 178 240
155 165 246  133 154 252  76 161 239  55 153 229  78 120 245  127 85 248  141 91 249  138 114 254  166 113 248  199 95 228  198 92 227  152 113 252  91 137 249  84 129 247  96 115 250  83 137 247  68 171 232  87 183 235  149 166 247  186 145 239  170 152 245  136 153 252  137 114 254  150 70 239  129 61 236  86 82 239  79 98 242  126 91 250  170 101 245  164 144 249  135 186 241  137 188 239
138 152 252  133 135 255  86 148 246  53 165 224  57 162 228  102 138 252  148 124 253  149 142 252  150 148 251  181 117 243  195 86 228  170 79 237  107 95 249  79 101 242  100 86 245  117 92 249  100 139 252  95 180 239  131 186 241  175 168 239  171 167 241  123 179 244  93 164 245  106 113 252  121 75 243  102 78 242  86 95 244  122 91 250  180 83 235  196 97 231  172 136 247  138 163 249
127 121 255  130 99 252  111 101 251  67 139 239  56 164 226  85 167 241  145 155 251  160 164 245  141 182 242  143 170 247  170 120 248  166 84 241  118 82 246  77 92 239  92 79 240  135 65 239  150 85 245  133 138 254  136 170 247  168 163 243  178 155 241  132 173 246  77 180 232  67 161 235  90 120 249  104 102 250  93 118 250  108 124 254  170 100 245  202 88 223  195 97 231  154 120 252
118 104 252  114 82 246  126 65 239  106 83 245  74 131 243  86 158 244  143 158 250  175 160 241  153 185 239  120 196 235  120 173 246  136 123 255  114 99 251  74 107 242  73 102 240  126 74 243  172 70 232  176 93 240  159 132 251  166 139 248  181 124 243  155 130 252  85 160 243  56 167 225  65 153 236  97 134 251  105 145 252  104 166 247  141 156 251  193 116 237  200 97 228  167 100 246
107 114 253  87 97 244  113 65 237  132 56 233  118 82 246  108 124 254  148 137 253  188 133 239  181 152 241  128 185 241  93 187 235  95 160 246  100 129 252  76 131 244  62 141 236  96 124 251  168 92 243  193 90 230  181 109 242  163 120 250  170 100 245  166 84 241  116 100 252  61 138 236  58 148 232  93 141 249  126 149 253  120 180 243  121 194 236  157 172 243  187 130 240  167 113 248
100 139 252  64 134 238  78 103 242  127 68 240  148 69 239  141 97 251  154 118 252  189 110 238  199 107 231  161 133 250  93 164 245  74 159 239  85 138 247  85 138 247  69 161 236  79 173 236  138 152 252  191 121 238  190 120 238  158 128 251  144 107 252  153 72 239  139 61 236  91 86 242  66 117 239  94 122 250  148 124 253  157 157 248  131 193 237  129 198 234  153 171 244  153 142 252
101 147 251  60 157 231  54 152 229  95 120 250  152 94 248  163 105 248  158 124 251  177 113 244  196 90 228  181 84 235  118 107 253  71 128 242  78 120 245  100 115 251  95 147 249  87 183 235  114 190 238  169 166 242  186 147 239  152 153 250  110 144 253  114 100 251  132 62 237  117 62 236  88 87 242  101 102 249  160 98 247  189 111 238  170 152 245  131 186 241  126 180 243  133 154 252
108 125 254  71 147 240  53 167 223  72 167 235  135 145 254  171 136 247  161 152 248  154 149 250  175 108 244  178 76 232  141 71 241  84 92 242  76 96 240  112 85 247  137 100 252  123 153 252  118 188 239  148 185 239  176 165 239  152 166 247  93 172 242  72 152 240  94 103 248  118 75 243  108 85 246  107 104 251  155 97 248  197 90 227  199 102 230  159 137 251  118 155 252  116 138 254
113 89 248  100 101 249  69 145 239  71 173 232  117 174 246  169 161 243  167 170 241  135 183 242  129 162 250  149 106 251  140 75 243  96 81 242  75 92 238  109 78 243  160 72 238  172 98 243  151 149 251  146 171 246  167 157 245  159 150 249  99 167 245  59 171 226  61 153 233  96 118 251  118 111 254  114 131 254  138 132 254  189 104 237  204 89 222  183 94 238  126 113 254  103 108 251
104 74 241  125 64 238  113 90 248  93 142 249  117 167 248  168 160 244  180 163 238  140 186 240  100 190 235  98 160 247  113 112 253  97 99 248  73 111 241  90 105 247  157 80 242  191 80 227  186 104 238  160 134 251  159 131 251  162 113 249  122 123 255  64 154 235  52 163 224  76 153 241  120 141 254  128 159 251  126 176 245  158 156 248  194 112 235  187 92 235  135 94 250  92 95 246
79 92 240  121 62 237  147 62 235  139 94 250  136 134 255  170 139 247  192 132 237  166 152 246  100 180 240  72 176 232  80 148 244  91 126 250  78 138 244  78 150 243  129 131 255  190 100 235  199 97 228  174 112 245  147 112 253  150 87 246  142 74 242  93 99 247  58 138 234  70 151 239  122 147 253  151 160 249  135 189 239  129 195 235  156 166 246  171 121 247  134 106 253  81 109 245
