P3
32 32
255
226 210 0  233 217 0  233 217 0  228 212 0  224 209 0  221 206 0  216 201 0  207 193 0  202 189 0  207 193 0  216 201 0  221 206 0  224 209 0  228 212 0  233 217 0  233 217 0  226 210 0  217 202 0  214 200 0  216 201 0  216 201 0  214 200 0  217 202 0  223 208 0  227 211 0  223 208 0  217 202 0  214 200 0  216 201 0  216 201 0  214 200 0  217 202 0
223 207 0  233 217 0  237 221 0  233 217 0  226 211 0  222 207 0  219 204 0  212 198 0  206 192 0  206 193 0  214 200 0  221 206 0  223 208 0  223 207 0  225 210 0  227 211 0  224 208 0  217 202 0  214 199 0  218 203 0  223 208 0  224 208 0  223 208 0  225 210 0  228 212 0  224 209 0  215 201 0  208 194 0  208 194 0  211 197 0  213 198 0  215 200 0
218 203 0  227 211 0  234 218 0  233 217 0  226 211 0  221 206 0  220 205 0  218 203 0  214 199 0  212 198 0  217 202 0  224 208 0  225 210 0  221 206 0  218 203 0  218 204 0  218 203 0  213 199 0  210 196 0  215 200 0  224 209 0  230 214 0  230 214 0  230 214 0  230 214 0  228 212 0  219 204 0  208 195 0  204 191 0  207 194 0  211 197 0  214 199 0
217 203 0  221 206 0  227 211 0  228 213 0  223 208 0  217 202 0  216 201 0  219 204 0  220 205 0  219 204 0  222 207 0  228 212 0  231 215 0  226 210 0  217 203 0  213 198 0  212 198 0  210 196 0  207 193 0  209 195 0  219 204 0  230 214 0  233 217 0  232 216 0  231 215 0  230 214 0  224 209 0  214 200 0  207 193 0  208 194 0  213 199 0  216 202 0
222 207 0  221 205 0  221 206 0  222 207 0  218 203 0  211 197 0  209 195 0  214 200 0  221 206 0  224 209 0  226 210 0  231 215 0  235 219 0  232 216 0  222 207 0  213 199 0  210 196 0  209 195 0  207 194 0  207 193 0  214 199 0  225 209 0  231 215 0  230 214 0  227 211 0  226 211 0  225 210 0  219 205 0  213 198 0  212 198 0  218 203 0  223 207 0
231 215 0  226 211 0  221 206 0  219 204 0  216 201 0  209 195 0  204 190 0  207 193 0  216 202 0  224 208 0  227 211 0  230 214 0  234 218 0  235 218 0  228 212 0  217 202 0  211 197 0  212 198 0  212 198 0  211 197 0  213 199 0  220 205 0  227 211 0  227 211 0  222 206 0  218 204 0  219 204 0  219 205 0  217 202 0  216 201 0  222 207 0  229 213 0
237 220 0  233 217 0  226 210 0  220 205 0  217 202 0  211 197 0  205 191 0  204 190 0  211 197 0  221 206 0  225 210 0  226 211 0  228 212 0  231 215 0  228 212 0  220 205 0  214 199 0  215 200 0  219 204 0  220 205 0  219 204 0  221 206 0  225 210 0  225 210 0  218 203 0  211 197 0  210 196 0  214 199 0  216 201 0  217 202 0  222 207 0  231 215 0
236 219 0  236 220 0  229 213 0  222 206 0  218 203 0  216 201 0  211 197 0  208 194 0  211 197 0  220 205 0  225 209 0  224 208 0  221 206 0  222 207 0  222 207 0  219 204 0  214 199 0  215 200 0  222 207 0  228 212 0  228 212 0  226 211 0  227 211 0  226 210 0  219 204 0  209 195 0  204 191 0  207 193 0  213 198 0  216 201 0  220 205 0  228 212 0
229 213 0  233 216 0  229 213 0  221 206 0  217 202 0  218 203 0  219 204 0  217 202 0  217 202 0  222 207 0  227 212 0  225 210 0  219 204 0  214 200 0  214 199 0  214 199 0  211 197 0  212 197 0  219 204 0  230 214 0  234 218 0  232 216 0  229 213 0  228 212 0  223 208 0  213 199 0  205 191 0  204 191 0  210 196 0  216 201 0  218 203 0  222 207 0
222 207 0  225 210 0  224 208 0  217 202 0  212 198 0  215 201 0  221 206 0  224 208 0  224 209 0  227 211 0  231 215 0  230 214 0  222 207 0  212 198 0  208 194 0  209 195 0  209 195 0  209 195 0  214 200 0  225 210 0  234 217 0  234 218 0  230 214 0  227 211 0  225 210 0  219 204 0  211 197 0  207 194 0  212 198 0  218 204 0  221 206 0  220 205 0
220 205 0  219 204 0  218 203 0  213 199 0  207 194 0  209 195 0  217 202 0  225 210 0  229 213 0  230 214 0  233 217 0  234 218 0  228 212 0  216 202 0  209 195 0  208 194 0  210 196 0  210 196 0  212 198 0  219 204 0  228 213 0  231 215 0  227 212 0  223 207 0  222 207 0  221 206 0  217 203 0  214 199 0  216 202 0  224 208 0  227 211 0  224 209 0
224 209 0  218 203 0  215 200 0  211 197 0  206 192 0  204 191 0  211 197 0  222 206 0  228 213 0  230 214 0  231 214 0  232 216 0  230 214 0  222 207 0  213 198 0  210 196 0  214 199 0  216 201 0  216 201 0  218 203 0  223 208 0  227 211 0  223 208 0  216 202 0  214 199 0  217 202 0  219 204 0  219 204 0  221 205 0  227 212 0  234 217 0  232 216 0
230 214 0  221 206 0  215 201 0  213 199 0  209 195 0  206 192 0  208 194 0  217 202 0  226 210 0  227 212 0  225 210 0  225 210 0  226 211 0  223 208 0  216 201 0  213 199 0  218 203 0  224 208 0  225 209 0  223 207 0  223 207 0  224 209 0  221 206 0  212 198 0  206 193 0  208 195 0  215 200 0  219 204 0  222 207 0  228 212 0  235 219 0  237 220 0
233 216 0  224 208 0  217 202 0  215 201 0  215 201 0  213 199 0  212 198 0  217 202 0  224 209 0  226 211 0  222 206 0  217 202 0  217 202 0  218 203 0  216 201 0  214 199 0  218 203 0  227 212 0  233 216 0  231 215 0  227 211 0  225 209 0  222 206 0  214 199 0  205 191 0  203 190 0  209 195 0  217 202 0  221 206 0  224 209 0  231 215 0  236 219 0
229 213 0  223 208 0  216 201 0  215 200 0  219 204 0  222 206 0  221 206 0  222 207 0  226 211 0  228 212 0  222 207 0  213 199 0  209 195 0  210 196 0  212 198 0  212 198 0  215 201 0  225 210 0  234 218 0  236 220 0  231 215 0  226 211 0  223 208 0  218 203 0  210 196 0  204 191 0  207 194 0  215 201 0  221 205 0  222 207 0  224 209 0  228 212 0
221 206 0  218 203 0  212 198 0  211 197 0  217 202 0  225 210 0  228 213 0  228 213 0  230 214 0  231 215 0  227 211 0  216 202 0  207 193 0  206 192 0  209 195 0  211 197 0  213 199 0  220 205 0  230 214 0  235 219 0  232 216 0  226 210 0  223 207 0  221 206 0  217 202 0  211 197 0  211 197 0  218 203 0  224 208 0  223 208 0  220 205 0  220 205 0
214 200 0  213 199 0  209 195 0  206 193 0  211 197 0  222 207 0  230 214 0  232 216 0  231 215 0  232 216 0  230 214 0  222 207 0  211 197 0  206 193 0  209 195 0  213 199 0  214 200 0  217 202 0  223 208 0  229 213 0  229 213 0  222 207 0  218 203 0  218 203 0  220 205 0  218 203 0  218 203 0  222 207 0  229 213 0  229 213 0  223 208 0  217 202 0
213 199 0  211 197 0  209 195 0  206 192 0  207 193 0  216 202 0  227 211 0  231 215 0  230 214 0  228 213 0  228 213 0  225 210 0  217 202 0  211 197 0  212 198 0  218 203 0  221 206 0  220 205 0  220 205 0  223 208 0  224 208 0  218 203 0  211 197 0  211 197 0  217 202 0  221 206 0  223 207 0  226 210 0  232 216 0  235 219 0  230 214 0  220 205 0
215 201 0  212 198 0  212 198 0  210 196 0  209 195 0  213 199 0  222 207 0  228 212 0  226 211 0  222 207 0  221 206 0  222 206 0  219 204 0  215 200 0  216 201 0  223 208 0  229 213 0  228 212 0  224 209 0  222 207 0  221 205 0  215 201 0  207 194 0  204 191 0  210 196 0  218 203 0  223 208 0  226 211 0  231 215 0  236 220 0  234 218 0  225 210 0
218 203 0  214 199 0  216 201 0  218 203 0  217 202 0  217 202 0  222 206 0  226 211 0  224 209 0  217 202 0  212 198 0  213 199 0  215 201 0  215 201 0  217 202 0  224 208 0  233 216 0  236 219 0  231 215 0  224 209 0  221 206 0  217 202 0  209 195 0  203 190 0  205 191 0  214 199 0  222 206 0  225 209 0  227 211 0  231 215 0  233 216 0  227 212 0
218 203 0  213 199 0  216 201 0  223 208 0  226 211 0  225 210 0  225 210 0  227 212 0  226 210 0  217 202 0  208 194 0  206 192 0  209 195 0  213 199 0  215 201 0  221 206 0  230 214 0  237 220 0  235 219 0  228 212 0  222 207 0  219 204 0  215 200 0  208 195 0  206 193 0  212 198 0  221 206 0  224 209 0  223 207 0  223 207 0  225 209 0  224 208 0
214 199 0  210 196 0  213 198 0  222 207 0  230 214 0  232 216 0  231 214 0  230 214 0  228 213 0  222 206 0  211 197 0  204 191 0  206 192 0  211 197 0  215 200 0  218 203 0  224 209 0  232 216 0  234 217 0  227 212 0  221 205 0  219 204 0  219 204 0  217 202 0  214 199 0  216 202 0  223 208 0  227 211 0  223 208 0  218 203 0  216 201 0  216 201 0
210 196 0  208 194 0  209 195 0  216 202 0  228 212 0  234 218 0  233 217 0  230 214 0  229 213 0  225 210 0  217 202 0  209 195 0  207 194 0  213 199 0  218 203 0  219 204 0  220 205 0  224 209 0  227 211 0  224 208 0  216 202 0  214 199 0  217 203 0  221 206 0  222 207 0  223 207 0  227 212 0  231 215 0  228 213 0  219 204 0  212 198 0  210 196 0
209 195 0  209 195 0  208 194 0  212 198 0  222 207 0  230 214 0  231 215 0  227 211 0  224 209 0  224 208 0  221 206 0  215 201 0  212 198 0  217 202 0  224 208 0  225 210 0  222 207 0  220 205 0  221 206 0  218 204 0  212 198 0  207 194 0  211 197 0  219 204 0  225 210 0  227 211 0  230 214 0  234 218 0  234 217 0  225 210 0  214 200 0  209 195 0
211 197 0  214 199 0  214 199 0  214 200 0  219 204 0  225 210 0  227 212 0  222 207 0  217 202 0  217 202 0  219 204 0  218 203 0  217 202 0  221 206 0  229 213 0  233 216 0  229 213 0  222 207 0  218 203 0  216 201 0  210 196 0  204 191 0  205 191 0  213 199 0  223 208 0  228 212 0  229 213 0  232 216 0  234 218 0  230 214 0  219 204 0  212 197 0
214 199 0  219 204 0  222 207 0  222 207 0  221 206 0  224 208 0  225 209 0  220 205 0  211 197 0  208 194 0  211 197 0  216 201 0  218 203 0  222 206 0  229 213 0  236 220 0  236 219 0  228 212 0  220 205 0  216 201 0  213 198 0  207 193 0  204 191 0  209 195 0  219 204 0  226 210 0  227 211 0  226 211 0  228 212 0  228 212 0  222 207 0  215 200 0
214 199 0  220 205 0  228 212 0  231 215 0  228 212 0  226 211 0  225 210 0  221 206 0  211 197 0  204 190 0  205 191 0  211 197 0  217 202 0  220 205 0  226 210 0  233 217 0  237 220 0  231 215 0  222 207 0  217 202 0  216 201 0  214 199 0  210 196 0  211 197 0  218 203 0  225 210 0  225 210 0  221 206 0  219 204 0  220 205 0  219 204 0  215 200 0
211 197 0  217 202 0  228 212 0  235 218 0  234 218 0  230 214 0  227 211 0  224 208 0  216 202 0  207 193 0  204 190 0  209 195 0  216 201 0  219 204 0  221 206 0  226 211 0  231 215 0  229 213 0  222 207 0  216 201 0  217 202 0  219 205 0  219 204 0  218 204 0  222 206 0  227 211 0  227 211 0  220 205 0  213 199 0  211 197 0  212 198 0  212 198 0
210 196 0  213 199 0  222 207 0  232 216 0  235 219 0  231 215 0  226 210 0  224 209 0  221 206 0  214 200 0  209 195 0  211 197 0  218 203 0  222 207 0  221 206 0  221 205 0  222 207 0  223 207 0  218 203 0  212 198 0  213 198 0  219 205 0  225 210 0  226 211 0  227 211 0  230 214 0  231 215 0  225 209 0  214 199 0  207 193 0  207 194 0  209 195 0
212 198 0  213 198 0  217 203 0  226 210 0  231 215 0  228 212 0  222 207 0  219 204 0  220 205 0  219 204 0  216 201 0  217 202 0  223 208 0  228 213 0  227 211 0  221 206 0  217 203 0  216 202 0  213 199 0  208 194 0  207 193 0  214 200 0  224 209 0  230 214 0  231 215 0  232 216 0  233 217 0  230 214 0  219 204 0  209 195 0  207 193 0  210 196 0
218 203 0  218 204 0  218 203 0  221 206 0  225 210 0  224 208 0  217 202 0  212 198 0  214 199 0  218 203 0  220 205 0  221 206 0  226 211 0  233 217 0  234 218 0  227 211 0  218 203 0  214 199 0  211 197 0  207 194 0  204 191 0  208 195 0  219 204 0  228 212 0  230 214 0  230 214 0  230 214 0  230 214 0  224 209 0  215 200 0  210 196 0  213 199 0
224 208 0  227 211 0  225 210 0  223 207 0  223 208 0  221 206 0  214 200 0  206 193 0  206 192 0  212 198 0  219 204 0  222 207 0  226 211 0  233 217 0  237 221 0  233 217 0  223 207 0  215 200 0  213 198 0  211 197 0  208 194 0  208 194 0  215 201 0  224 209 0  228 212 0  225 210 0  223 208 0  224 208 0  223 208 0  218 203 0  214 199 0  217 202 0
