P3
32 32
255
61 104 49  70 115 56  73 117 57  72 112 55  69 107 52  66 103 51  60 95 46  50 83 40  44 76 35  44 79 37  47 88 41  50 94 43  51 97 44  55 102 47  61 110 51  64 111 52  61 104 49  58 95 46  59 94 45  62 97 47  63 97 48  61 95 46  61 96 47  63 102 49  62 105 50  56 99 46  48 89 41  44 86 39  45 87 40  46 88 40  46 87 40  51 92 43
54 97 45  65 111 53  72 119 57  72 116 56  69 109 53  68 105 51  65 101 49  59 92 45  51 83 40  48 82 39  51 89 42  53 96 44  52 96 44  50 95 44  52 98 45  55 101 47  55 99 46  53 92 43  54 90 43  60 97 47  67 105 51  69 106 52  68 106 52  69 108 53  68 109 53  62 103 49  52 90 42  43 80 37  40 78 35  41 81 37  43 83 38  46 87 40
47 90 41  56 102 47  64 112 53  67 113 54  65 107 51  64 102 50  65 102 50  65 100 49  61 94 46  57 91 44  58 95 46  60 101 48  58 102 48  52 95 44  47 90 41  47 90 41  47 90 41  45 85 39  46 83 39  53 91 43  63 104 50  71 113 55  73 114 56  73 114 56  73 114 56  69 110 54  60 98 47  48 83 39  42 76 35  41 78 36  42 82 37  43 84 38
46 89 40  49 93 43  55 101 47  58 104 49  57 99 47  56 94 45  59 95 46  64 100 49  66 102 50  65 101 50  66 103 50  68 109 53  67 111 53  60 103 49  50 91 42  44 84 38  42 82 37  40 80 36  40 77 35  44 82 37  55 95 45  66 110 53  72 116 56  73 115 56  74 115 56  73 114 56  68 106 52  58 93 45  49 82 39  46 82 38  47 86 40  47 88 40
52 96 45  49 93 43  49 94 43  51 95 44  49 91 42  47 84 39  49 83 39  56 92 44  64 101 49  68 106 52  71 109 54  73 115 56  75 119 58  70 114 55  59 100 47  48 87 40  43 81 37  41 79 36  38 77 34  39 77 35  46 86 39  57 101 47  65 111 53  68 111 54  69 109 53  70 109 53  70 108 53  65 101 49  58 92 44  54 89 43  55 94 45  56 98 46
63 109 52  57 102 47  51 95 44  48 91 42  45 87 40  41 79 36  40 74 34  45 80 37  56 93 44  65 104 50  70 109 53  73 114 56  77 119 59  76 119 58  68 109 53  57 94 45  49 86 40  46 84 39  44 84 38  42 82 37  43 84 38  50 93 43  57 103 48  60 104 49  60 100 48  61 98 47  64 100 49  65 101 50  63 98 48  61 96 47  63 102 49  66 109 52
73 119 58  67 113 54  58 102 48  51 93 43  46 88 40  41 81 37  37 74 33  38 74 33  47 85 39  58 98 47  65 105 51  68 108 53  71 111 55  74 115 56  71 111 55  63 101 49  56 91 44  53 90 43  53 94 44  51 93 43  48 91 42  49 93 43  52 98 45  54 99 46  52 93 43  50 86 41  53 87 42  59 93 45  62 97 47  64 99 48  67 104 51  72 114 56
76 120 59  74 120 58  66 109 52  56 98 46  51 92 43  46 88 40  42 82 37  39 78 35  43 82 37  52 94 44  59 102 48  62 102 49  63 101 49  66 103 50  68 105 51  65 100 49  60 93 45  58 93 45  60 100 48  61 105 50  58 104 49  54 100 46  53 100 46  53 99 46  49 92 42  44 81 37  43 77 36  49 82 39  56 91 44  62 96 47  66 102 50  72 111 55
73 113 55  75 117 57  70 111 54  61 100 48  55 93 44  52 93 43  50 92 42  46 88 40  46 88 40  50 95 44  56 102 48  58 102 48  56 95 45  56 92 44  59 93 45  60 94 46  59 91 45  59 91 45  63 100 48  68 110 53  68 114 55  63 110 52  58 105 49  55 102 47  50 96 44  44 85 38  39 75 34  42 76 35  50 85 40  57 94 45  62 98 48  67 104 51
66 103 50  70 108 53  69 106 52  62 98 48  56 91 44  55 92 44  56 97 46  55 99 46  53 98 45  53 100 46  57 105 49  57 105 49  53 96 45  49 87 41  50 84 40  54 86 42  56 88 43  57 88 43  61 95 46  68 107 52  72 116 56  69 115 55  63 108 51  57 103 48  53 99 46  48 91 42  41 81 37  40 78 35  46 84 39  54 94 44  59 99 47  62 100 48
60 99 47  62 99 48  64 99 48  61 93 46  56 86 42  55 87 42  58 95 46  61 103 49  60 105 50  58 105 49  58 108 50  59 109 50  55 102 47  48 89 41  45 81 38  48 82 39  53 87 41  56 89 43  59 92 45  65 101 50  72 112 55  72 114 56  66 108 52  59 100 48  55 97 46  52 95 44  47 89 41  43 85 38  46 88 40  53 98 45  59 104 49  60 102 49
58 101 48  57 95 45  58 94 45  58 91 44  55 85 41  54 83 40  57 90 44  63 102 49  65 108 52  62 108 51  60 107 50  59 108 50  56 105 48  50 94 43  44 84 38  45 83 38  51 88 41  56 93 44  59 95 46  63 98 48  68 106 52  71 110 54  67 105 51  59 95 46  54 91 43  53 92 43  51 93 43  48 91 42  49 93 42  54 101 47  60 109 51  61 108 51
58 106 49  54 96 45  53 91 43  55 91 43  55 88 42  54 84 41  57 88 43  63 98 48  68 107 52  66 108 52  61 103 49  58 102 48  55 101 47  51 96 44  45 87 40  44 84 38  49 91 42  56 99 47  61 103 49  62 102 49  65 104 50  68 107 52  67 103 50  60 93 45  53 84 41  52 85 41  53 91 43  53 94 44  52 96 44  54 101 47  59 110 51  62 113 53
58 107 50  52 97 45  50 90 42  52 91 42  55 93 44  57 92 44  59 92 45  64 98 48  69 107 52  69 109 53  63 102 49  57 95 45  53 93 44  50 92 42  46 87 40  43 85 38  47 90 41  55 102 47  61 109 51  63 109 52  64 106 51  65 105 51  66 103 50  61 94 46  54 84 41  52 81 39  54 87 42  56 94 45  56 97 46  55 99 46  58 106 49  60 111 51
55 103 48  50 95 44  46 87 40  47 87 40  53 94 44  58 99 47  61 100 48  65 103 50  70 109 53  72 112 55  67 105 51  58 93 45  52 86 41  50 85 40  47 85 40  45 84 38  45 87 40  52 98 45  60 110 51  63 113 53  62 109 51  62 105 50  63 103 50  62 98 48  57 89 43  54 83 40  56 86 42  60 95 46  61 100 48  58 99 47  56 100 47  57 103 48
53 95 44  48 91 42  42 83 38  41 81 37  47 89 41  56 100 47  62 106 50  65 108 52  69 111 54  73 115 56  71 110 54  63 97 48  55 86 42  51 82 40  50 84 40  48 85 40  47 86 39  49 92 42  56 104 48  60 110 51  59 107 50  56 101 47  57 99 47  59 99 47  59 96 46  58 90 44  59 91 44  64 99 48  67 105 51  65 104 50  59 98 47  55 96 45
53 90 43  48 87 40  42 80 37  38 76 34  42 82 37  50 95 44  58 106 49  63 110 52  66 111 53  69 113 55  71 113 55  67 104 51  60 92 45  55 85 42  55 87 42  55 90 43  53 90 43  51 91 42  53 97 45  56 104 48  54 102 47  50 95 44  49 91 42  52 93 43  57 97 46  59 97 47  62 98 47  67 104 51  72 112 55  72 113 55  66 104 51  58 95 46
57 91 44  52 87 41  47 82 38  41 77 35  40 77 35  45 88 40  53 100 46  58 106 49  59 106 50  62 106 50  65 108 52  66 106 51  62 98 48  59 91 45  60 93 45  63 99 48  63 101 49  59 98 47  56 96 45  55 98 46  52 97 45  46 89 41  41 81 37  43 82 37  49 90 42  56 97 46  61 101 48  66 107 52  74 116 57  77 120 59  73 114 56  64 101 49
62 96 47  57 91 44  54 89 43  50 85 40  45 82 38  46 86 39  50 95 44  54 102 47  53 100 46  52 96 44  54 96 45  58 99 47  60 98 47  60 95 46  62 97 47  68 105 52  72 112 55  69 110 54  63 104 50  58 99 47  54 96 45  47 88 40  39 77 35  36 73 32  41 80 36  49 91 42  56 99 46  62 105 50  69 112 54  76 120 59  76 119 58  70 108 53
64 100 49  61 94 46  61 96 47  60 97 47  57 95 45  53 93 44  53 96 45  54 100 46  51 97 45  46 89 40  44 83 38  47 86 40  52 91 42  55 92 44  60 96 46  67 106 52  75 117 58  78 121 59  73 114 56  65 105 51  59 99 47  53 92 43  44 81 37  37 72 32  37 74 33  43 85 38  51 95 44  55 100 47  60 104 49  67 111 53  71 115 56  70 110 54
62 98 47  60 93 46  63 97 48  67 105 51  68 108 53  64 105 51  61 103 49  59 104 49  55 100 47  47 89 41  39 78 35  38 75 34  43 81 37  48 87 40  53 91 43  61 100 48  71 113 55  78 122 60  77 120 59  71 111 54  65 103 50  60 98 47  53 91 43  45 81 38  40 77 35  43 83 38  49 93 42  52 97 45  53 97 45  56 98 46  61 103 49  63 103 50
54 90 43  55 88 42  59 92 45  67 104 51  74 114 56  74 116 57  70 112 55  66 110 53  62 106 50  53 96 45  43 82 37  36 73 32  37 75 33  43 82 37  48 88 41  53 93 44  62 103 49  71 114 55  75 117 57  71 111 54  66 103 50  63 99 48  61 98 47  56 94 45  51 89 42  49 90 42  52 97 45  53 100 46  51 96 44  48 90 41  49 89 41  52 91 43
46 83 38  48 82 39  52 85 41  61 96 47  71 111 54  77 119 58  75 117 57  71 112 55  67 109 53  61 103 49  51 91 43  42 80 36  39 77 35  43 83 38  47 90 41  50 92 42  54 95 44  60 102 49  66 108 52  66 105 51  63 97 48  61 95 46  63 98 48  64 102 50  62 101 49  59 100 48  59 104 49  59 107 50  55 103 47  47 91 42  43 83 37  43 81 37
41 79 36  44 81 37  46 82 38  53 89 42  63 102 49  72 114 56  74 115 57  71 110 54  68 106 52  65 104 51  59 99 47  52 90 42  46 85 39  47 89 41  51 96 44  52 98 45  51 95 44  52 94 44  56 97 46  58 96 46  56 90 43  55 86 42  59 91 45  65 101 50  68 107 52  67 108 53  66 110 53  66 113 54  62 111 52  53 99 46  44 85 39  40 79 35
41 81 37  44 85 38  46 86 39  49 88 41  56 95 45  65 105 51  69 109 53  67 104 51  64 98 48  63 97 48  62 99 48  59 97 46  55 93 44  54 96 45  57 104 48  58 108 50  55 103 47  50 95 44  49 91 42  50 90 42  50 85 40  49 80 38  52 82 40  60 94 46  68 106 52  71 111 54  70 112 54  70 114 55  68 114 55  61 107 50  50 93 43  42 82 37
45 85 39  47 90 41  50 95 43  51 95 44  53 96 44  58 100 47  62 104 50  62 99 48  58 91 44  57 87 43  59 91 45  61 96 47  61 98 47  60 100 48  62 107 51  64 114 54  61 112 52  54 101 47  48 92 42  47 88 40  46 85 39  45 80 37  47 79 37  54 87 42  64 100 49  70 109 53  71 110 54  69 109 53  68 110 53  65 107 51  57 98 46  48 88 40
49 87 41  51 93 43  55 102 47  56 105 48  55 102 47  55 101 47  58 102 48  58 98 47  54 89 42  51 81 39  54 83 40  59 91 45  63 98 48  63 101 49  65 106 51  67 113 54  66 115 54  59 107 50  50 95 44  46 89 40  46 88 40  46 86 39  46 83 39  50 86 41  59 97 46  67 107 52  69 108 53  67 103 51  65 100 49  63 101 49  59 97 47  53 90 43
52 88 42  53 92 43  58 103 48  61 111 52  59 109 51  56 104 48  55 101 47  55 99 46  52 91 43  49 82 39  50 80 38  56 88 43  63 97 47  65 101 50  66 103 50  67 107 52  67 111 53  62 107 51  53 96 45  47 88 40  46 88 40  48 91 42  49 92 42  51 92 43  56 98 46  64 106 51  67 108 52  65 101 49  61 94 46  59 91 45  59 92 45  56 90 43
56 88 43  55 90 43  59 100 47  63 110 52  62 112 52  57 105 49  53 99 46  52 97 45  51 94 44  49 88 41  49 83 39  54 88 42  62 98 48  67 105 51  67 104 51  66 102 50  65 103 50  63 102 49  55 94 45  48 85 40  45 85 39  48 92 42  52 98 45  53 100 46  56 102 47  61 108 51  65 111 53  64 104 50  59 93 45  56 86 42  56 87 42  57 89 43
60 92 45  59 92 45  60 97 47  63 105 50  63 109 52  58 104 49  51 95 44  48 91 42  48 92 42  49 92 42  49 89 41  53 92 43  61 101 48  68 110 53  70 109 53  67 103 51  64 99 48  62 97 47  57 92 44  50 84 40  45 80 37  48 87 40  53 98 45  56 104 48  56 105 49  58 107 50  62 110 52  63 108 51  58 97 46  54 87 42  55 85 41  58 90 44
64 99 48  65 100 49  64 99 49  64 102 50  64 105 51  60 101 48  51 91 42  45 84 38  44 85 39  47 90 41  49 92 42  52 95 44  58 103 48  67 113 54  71 116 56  69 109 53  64 99 49  61 94 46  59 91 45  54 85 41  49 80 38  48 83 39  53 94 44  57 103 48  57 105 49  55 104 48  56 105 48  58 105 49  57 100 47  53 91 43  53 87 42  58 92 45
65 104 50  70 110 54  70 108 53  68 105 52  67 105 51  63 101 49  54 91 43  45 80 37  41 77 35  44 84 38  47 91 42  50 95 44  54 101 47  62 110 52  68 117 56  68 113 54  64 103 50  61 95 46  60 93 46  59 91 45  55 87 42  53 85 41  55 92 44  59 101 48  58 104 49  54 99 46  51 96 44  51 97 44  52 96 44  50 92 42  51 88 41  56 94 45
