P3
32 32
255
74 102 240  118 107 253  154 100 249  162 87 243  191 125 238  165 132 249  104 127 253  93 162 246  69 150 238  70 136 241  134 157 251  159 126 251  173 103 244  189 116 239  142 88 248  101 91 247  100 132 252  78 131 245  101 155 249  150 183 240  144 154 251  151 140 252  151 128 253  104 78 243  108 81 245  129 101 252  121 98 251  157 146 250  163 173 241  120 157 251  113 167 248  94 148 249
64 140 237  107 157 250  127 121 255  168 111 247  196 122 235  160 89 244  132 96 251  110 125 254  69 118 240  87 151 246  127 178 245  130 154 252  163 155 247  166 138 248  119 85 247  120 88 249  115 91 249  101 86 245  145 139 253  156 163 247  134 158 251  140 179 244  107 154 250  76 111 243  107 115 253  122 91 249  144 82 245  190 122 239  173 122 246  136 130 255  119 166 249  70 146 240
81 148 244  99 166 246  107 150 251  162 166 244  172 144 246  141 96 250  143 100 251  113 85 247  92 80 240  129 129 255  136 147 253  136 156 251  156 184 238  122 160 251  91 126 250  107 125 253  99 86 245  124 80 246  178 115 244  169 110 247  161 132 250  147 167 247  81 145 245  69 148 239  89 156 245  94 117 250  153 118 252  191 122 238  171 90 241  165 105 247  131 120 255  72 110 241
116 119 254  108 126 254  127 152 253  160 184 237  134 162 250  117 145 253  119 137 254  89 87 242  110 82 245  155 104 250  153 95 248  173 132 247  166 163 244  103 146 251  87 159 244  81 156 243  72 117 242  130 124 255  174 117 246  172 90 241  187 113 240  155 115 252  89 106 247  86 147 246  78 153 242  84 146 246  148 172 245  165 146 248  158 110 250  168 114 248  123 82 247  95 78 241
131 94 250  130 83 247  171 128 247  172 154 244  126 147 254  115 171 247  85 158 244  64 121 238  108 130 253  143 110 253  162 89 244  196 118 235  172 110 246  118 107 253  103 148 251  69 142 240  69 143 240  125 172 247  144 144 253  166 123 249  185 126 241  140 84 247  112 81 245  112 110 253  87 108 247  112 145 253  150 180 241  135 162 250  142 162 249  137 148 253  93 92 245  107 89 247
109 104 251  143 89 248  193 117 237  178 104 242  151 111 252  131 149 253  71 134 242  65 144 237  100 169 245  112 139 253  160 134 251  190 133 239  157 88 245  141 90 249  121 104 253  79 96 241  98 138 251  129 171 247  125 159 251  156 173 243  151 157 249  107 102 251  116 100 252  114 87 248  110 75 242  160 121 251  166 140 248  143 145 253  143 178 243  98 160 247  68 130 240  96 138 251
82 134 246  143 143 253  183 135 242  168 94 244  170 102 245  138 101 252  84 90 241  92 133 250  102 155 249  106 153 251  156 179 241  157 161 247  129 117 255  137 115 254  109 84 246  99 73 239  142 111 253  146 122 254  148 142 253  161 179 239  116 163 250  85 144 247  96 146 249  85 102 245  121 91 249  178 112 243  173 95 242  174 115 245  158 147 250  86 130 248  72 149 240  83 163 241
87 146 247  143 181 242  150 161 248  148 133 253  160 131 251  116 85 247  101 75 241  126 102 253  119 102 252  141 135 254  166 176 239  130 162 250  112 161 250  106 156 250  76 104 242  104 97 249  153 104 250  157 85 244  184 117 241  176 141 245  111 128 254  92 157 247  77 159 240  64 132 238  119 149 253  162 133 250  168 99 245  189 114 238  159 99 248  102 87 246  98 129 252  81 138 246
127 128 255  157 168 245  135 159 251  139 173 246  123 165 249  80 111 245  99 108 250  124 97 251  133 77 245  181 115 242  182 131 243  138 127 255  123 165 249  82 157 243  59 134 235  98 153 249  128 127 255  157 102 249  196 121 235  173 98 243  132 90 249  117 128 255  73 124 243  74 140 242  122 178 245  131 158 251  156 147 250  175 144 245  132 90 249  116 82 246  120 96 251  98 87 245
168 109 247  174 117 246  157 126 252  153 168 246  96 156 248  66 141 238  87 156 245  93 122 250  136 106 253  191 123 238  178 96 240  163 98 247  144 127 254  79 114 245  71 138 241  98 170 244  102 151 250  151 158 249  179 151 242  149 99 250  143 94 250  125 93 250  89 79 239  114 120 254  136 153 252  129 153 253  154 180 241  139 170 247  95 124 251  107 122 253  105 94 248  112 74 242
173 121 246  172 92 241  183 106 240  169 125 248  97 108 250  81 140 245  82 160 242  77 143 243  134 164 249  170 153 245  159 109 249  170 111 247  139 92 250  94 76 239  107 113 253  109 133 254  113 144 253  156 182 239  146 171 246  118 140 254  126 138 255  98 94 247  99 76 241  149 102 251  153 100 249  163 122 250  171 165 241  117 154 252  85 153 245  87 161 244  72 120 242  112 112 253
146 151 251  159 117 251  187 125 240  157 95 247  112 77 243  112 110 253  89 115 248  95 134 251  145 180 242  141 168 248  139 155 252  148 153 251  104 98 249  99 82 243  130 96 251  126 84 247  157 117 251  176 159 241  134 151 253  114 165 249  98 167 245  65 122 239  95 121 251  143 116 253  155 86 245  190 111 237  184 121 242  124 106 253  104 144 252  77 151 242  62 138 237  112 166 248
124 161 250  148 166 247  162 163 245  118 107 253  113 93 249  120 93 250  105 75 241  143 110 253  168 147 247  143 145 253  143 174 245  115 171 247  70 129 241  89 132 249  111 111 253  130 83 247  186 112 240  186 113 240  152 107 251  137 148 253  83 145 246  59 137 235  93 166 244  112 145 253  147 125 253  191 134 238  170 97 244  140 84 247  129 108 254  83 101 244  84 127 247  125 172 247
139 136 254  160 177 241  132 173 247  87 141 248  97 145 250  90 109 248  107 83 245  171 109 246  177 102 242  169 108 246  166 149 247  100 140 252  68 142 240  83 165 241  81 138 246  125 131 255  183 138 242  174 99 243  168 96 244  152 109 251  89 92 244  82 123 247  102 160 248  100 151 250  145 173 245  166 168 242  136 118 254  138 110 253  121 93 250  95 71 237  128 103 253  147 129 254
174 107 244  183 145 241  124 135 255  90 150 247  84 165 241  64 133 238  102 137 252  161 138 250  166 99 245  186 107 239  174 110 245  108 88 247  94 123 250  86 145 247  77 140 244  131 175 246  156 169 245  148 130 253  164 129 250  133 95 251  99 71 238  119 99 251  119 108 253  126 126 255  163 175 240  142 170 247  112 155 251  114 159 250  83 111 246  93 89 244  148 105 251  156 89 246
191 115 237  185 109 240  136 89 249  119 125 255  82 133 246  65 133 239  111 173 245  133 164 249  148 140 253  179 144 243  148 101 250  115 76 244  121 97 251  99 92 247  110 116 253  154 169 245  140 164 249  135 167 249  136 170 247  89 117 248  92 100 247  125 101 252  128 77 245  168 104 246  186 137 240  145 130 254  123 159 251  95 166 244  59 133 235  87 144 247  128 134 255  148 98 250
181 153 240  161 107 249  142 88 248  135 98 251  92 82 241  98 109 250  134 157 251  126 154 252  147 174 245  151 177 243  104 127 253  104 115 252  111 101 251  105 72 240  154 100 249  177 124 245  155 123 252  154 164 247  113 167 248  66 139 239  82 152 244  96 129 251  121 98 251  185 119 241  186 105 238  162 93 246  151 128 253  90 123 249  64 130 238  93 168 243  101 155 249  137 148 253
156 178 241  123 139 254  128 134 255  110 103 251  94 73 238  137 96 251  155 107 250  153 115 252  171 164 242  133 164 249  85 148 246  90 161 245  76 127 244  97 103 249  167 119 249  175 97 242  177 98 241  177 129 245  110 116 253  76 132 244  84 163 242  74 145 242  117 153 252  171 157 244  164 112 249  168 104 246  154 102 249  98 77 241  97 105 249  110 140 253  104 140 252  146 177 244
145 158 250  113 159 250  107 171 246  71 128 242  83 111 246  139 118 254  152 88 246  181 101 240  191 127 238  135 111 254  102 137 252  85 159 244  60 137 235  96 156 248  147 157 250  156 116 251  184 119 241  172 106 245  116 76 244  109 105 252  94 123 250  84 128 247  134 175 245  147 175 244  137 150 253  153 152 250  119 108 253  96 77 240  125 94 251  126 90 249  141 106 252  175 159 242
156 108 250  138 144 254  97 155 248  58 135 234  83 159 243  113 152 252  136 118 254  188 130 240  182 108 241  142 81 245  133 108 253  90 109 248  74 119 243  116 170 247  126 167 249  140 159 251  168 165 243  134 116 254  111 87 247  123 96 251  105 78 243  125 98 252  166 149 247  146 149 252  139 168 248  129 178 244  77 133 245  82 123 247  113 116 254  123 81 246  174 102 243  192 121 237
166 90 243  161 113 250  100 99 249  75 115 243  98 160 247  97 154 248  131 164 250  170 171 240  147 125 253  137 104 252  132 99 252  97 72 238  113 93 249  146 134 254  135 136 255  154 171 244  146 180 242  94 142 250  95 139 250  98 117 251  99 80 242  158 101 248  181 109 242  166 104 247  168 147 247  118 151 252  68 138 240  80 162 241  83 145 246  109 121 254  178 136 244  181 107 241
163 123 250  149 106 251  101 71 239  110 92 249  121 115 254  115 121 254  155 170 244  152 178 242  115 153 252  118 157 251  95 121 251  87 84 240  137 100 252  157 95 247  164 99 246  184 145 241  140 145 253  90 144 248  88 167 242  67 139 239  87 126 248  156 139 251  168 103 246  180 99 240  183 116 242  120 93 250  89 115 248  89 150 247  74 141 242  114 165 249  159 173 242  151 132 253
142 171 246  103 127 253  87 93 244  122 101 252  127 82 246  153 93 248  186 139 240  154 137 252  122 152 252  106 173 245  64 138 237  75 134 244  126 138 255  143 98 251  183 106 240  193 117 236  145 92 249  118 119 254  91 142 249  62 131 237  96 164 245  134 170 247  143 137 254  178 139 244  165 112 248  118 75 243  120 94 250  103 99 250  97 108 250  145 165 248  146 171 246  132 161 250
129 175 246  72 141 241  76 144 243  99 136 251  112 96 250  174 110 245  192 113 236  164 92 245  154 125 252  105 134 253  62 126 237  84 163 242  102 162 248  124 140 254  179 151 242  174 117 246  143 84 246  140 99 251  99 88 245  87 100 245  126 155 252  127 159 251  138 167 248  158 179 240  118 135 254  102 108 251  117 105 253  104 75 241  136 89 249  176 128 245  157 126 252  151 158 249
128 128 255  75 126 244  82 162 242  76 150 242  100 142 251  167 157 245  172 119 247  166 98 245  165 107 248  108 82 245  89 97 245  108 142 253  100 142 251  133 168 248  161 182 238  132 144 254  128 127 255  123 111 254  94 73 238  122 87 248  155 113 251  147 113 253  166 158 245  147 173 245  90 148 248  89 157 245  83 136 247  88 98 245  155 113 251  179 105 242  173 93 242  180 129 244
126 80 246  104 97 249  98 129 252  79 127 245  119 166 249  151 180 241  138 150 253  153 147 251  137 120 254  97 76 240  117 88 248  128 96 251  129 100 252  168 155 245  156 167 245  115 156 251  112 171 246  81 138 246  76 104 242  131 115 254  153 93 248  171 92 242  193 129 237  150 121 253  101 130 252  91 163 245  63 142 236  81 145 245  143 159 250  156 119 251  179 111 243  183 114 241
113 84 246  123 94 250  109 84 246  110 90 248  158 147 250  152 156 250  135 161 250  137 180 243  90 143 248  77 116 244  112 118 254  121 85 247  159 91 245  193 124 237  164 113 249  137 136 254  110 163 249  62 138 236  72 149 240  112 157 251  129 117 255  180 121 244  191 117 237  149 82 245  133 103 252  101 118 252  69 116 240  102 162 248  128 173 246  133 154 252  168 162 244  152 128 253
92 132 250  104 123 253  96 82 242  141 90 249  181 114 242  166 105 247  166 140 248  135 162 250  72 139 242  75 156 240  87 152 246  99 116 251  168 129 248  188 116 239  167 88 242  165 111 248  115 110 253  71 110 241  91 156 246  98 160 247  118 155 252  168 171 240  160 134 251  137 98 251  140 102 252  103 77 242  100 85 244  140 134 254  134 140 254  145 163 249  154 184 239  106 149 251
89 165 243  74 148 241  77 119 244  146 134 254  172 110 246  175 93 241  187 117 240  137 104 252  87 108 247  89 151 247  74 146 242  97 154 248  156 175 242  157 138 251  160 116 250  161 113 250  109 75 242  101 84 244  120 119 255  109 121 254  142 162 249  158 183 238  123 156 252  118 151 252  108 130 253  85 84 240  124 91 250  158 101 248  157 95 247  180 140 243  155 156 249  94 142 250
99 147 250  63 134 237  81 153 243  132 174 246  142 139 254  173 132 247  178 122 245  126 77 244  116 87 248  109 106 252  89 106 247  130 157 252  150 177 243  132 159 251  144 168 247  121 139 254  87 90 243  115 96 251  129 88 249  139 85 247  181 136 243  165 146 248  122 147 253  113 174 245  73 147 241  67 125 240  119 137 254  142 103 252  172 96 243  197 120 234  158 100 248  117 111 254
110 97 250  80 96 242  114 149 252  129 165 249  130 161 251  159 178 240  136 147 253  102 103 250  118 105 253  108 80 244  121 80 245  171 127 247  161 132 250  146 150 252  139 179 244  83 149 245  71 136 241  99 139 251  108 98 250  159 99 248  195 118 235  170 96 244  153 118 252  120 144 254  64 128 238  74 154 240  103 167 246  116 137 254  172 144 246  184 127 242  148 84 246  142 96 250
99 77 241  109 78 244  151 115 252  145 115 253  158 150 249  157 178 241  101 153 249  87 151 246  91 143 249  84 98 244  138 102 252  181 110 242  171 92 242  179 123 244  145 139 253  78 126 245  78 157 241  80 158 242  88 136 249  158 152 249  179 128 244  165 94 245  170 107 246  122 91 249  84 91 242  102 140 252  100 148 250  118 159 251  161 182 238  145 152 251  127 121 255  132 116 254
