P3
32 32
255
225 223 0  232 228 0  227 225 0  225 222 0  218 216 0  207 207 0  209 208 0  213 212 0  218 216 0  229 227 0  233 230 0  228 225 0  225 223 0  216 214 0  208 207 0  212 211 0  215 214 0  219 217 0  228 225 0  226 223 0  222 220 0  222 220 0  216 214 0  216 214 0  222 220 0  221 219 0  222 220 0  223 221 0  215 213 0  213 212 0  217 215 0  217 215 0
225 223 0  230 227 0  230 227 0  231 228 0  220 218 0  211 210 0  211 210 0  210 209 0  216 214 0  226 223 0  226 224 0  226 223 0  225 223 0  217 215 0  216 214 0  219 217 0  218 216 0  222 220 0  224 222 0  218 216 0  217 215 0  216 215 0  214 212 0  222 219 0  227 225 0  227 224 0  229 226 0  222 220 0  212 210 0  210 209 0  209 209 0  213 211 0
222 219 0  224 222 0  229 226 0  229 226 0  220 218 0  218 216 0  217 215 0  214 212 0  220 218 0  223 221 0  220 218 0  221 219 0  218 216 0  213 212 0  219 217 0  222 220 0  224 222 0  230 227 0  225 223 0  217 215 0  214 213 0  208 208 0  209 208 0  220 218 0  226 223 0  231 228 0  234 231 0  224 222 0  216 215 0  213 211 0  207 206 0  212 211 0
220 218 0  220 218 0  225 222 0  221 218 0  216 214 0  219 217 0  218 216 0  221 219 0  228 226 0  226 223 0  221 219 0  219 217 0  210 209 0  209 208 0  216 214 0  220 218 0  228 226 0  235 231 0  228 225 0  222 220 0  216 214 0  206 206 0  209 208 0  216 214 0  220 218 0  229 226 0  231 228 0  224 222 0  222 220 0  216 215 0  211 210 0  217 216 0
224 221 0  224 222 0  223 221 0  213 212 0  211 210 0  213 212 0  214 213 0  225 222 0  232 229 0  229 226 0  228 225 0  220 218 0  209 208 0  209 208 0  211 210 0  215 213 0  227 224 0  231 228 0  228 225 0  227 224 0  218 216 0  211 210 0  215 213 0  215 214 0  219 217 0  226 223 0  223 220 0  220 218 0  221 219 0  216 214 0  218 216 0  225 223 0
229 226 0  232 229 0  225 222 0  214 212 0  211 210 0  208 207 0  210 209 0  223 220 0  228 225 0  230 227 0  232 228 0  222 220 0  214 213 0  214 213 0  211 210 0  216 214 0  224 222 0  223 221 0  224 221 0  224 221 0  216 215 0  217 216 0  221 219 0  220 218 0  225 222 0  225 222 0  217 215 0  215 214 0  213 212 0  211 210 0  221 219 0  227 225 0
230 227 0  234 231 0  226 223 0  219 217 0  215 214 0  208 207 0  212 211 0  220 218 0  221 219 0  227 224 0  227 224 0  219 217 0  219 217 0  218 217 0  217 215 0  223 221 0  224 222 0  220 218 0  220 218 0  215 213 0  211 210 0  218 216 0  222 220 0  226 223 0  233 229 0  228 225 0  219 217 0  215 214 0  207 206 0  207 207 0  218 216 0  223 220 0
227 224 0  228 225 0  223 220 0  222 220 0  218 216 0  214 213 0  221 218 0  221 219 0  221 219 0  224 221 0  217 216 0  213 212 0  217 215 0  217 215 0  222 220 0  231 228 0  228 225 0  224 222 0  220 218 0  209 208 0  207 207 0  213 212 0  217 215 0  227 224 0  234 231 0  229 226 0  225 223 0  218 217 0  208 207 0  210 209 0  215 213 0  218 216 0
225 223 0  220 218 0  217 215 0  218 216 0  214 213 0  219 217 0  227 224 0  226 224 0  228 225 0  225 222 0  213 212 0  210 209 0  211 210 0  211 210 0  223 221 0  231 228 0  230 227 0  231 228 0  223 221 0  211 210 0  211 210 0  210 209 0  213 212 0  225 222 0  228 225 0  226 224 0  227 224 0  219 217 0  214 213 0  218 216 0  217 215 0  220 218 0
227 224 0  218 216 0  215 213 0  210 209 0  208 207 0  218 217 0  225 223 0  229 226 0  234 231 0  227 224 0  217 215 0  213 212 0  207 207 0  209 208 0  220 218 0  224 222 0  228 225 0  231 228 0  222 220 0  217 215 0  217 215 0  213 212 0  217 216 0  224 221 0  221 219 0  221 219 0  221 218 0  214 213 0  218 216 0  222 220 0  223 220 0  228 225 0
230 227 0  223 220 0  218 216 0  207 207 0  207 206 0  215 214 0  219 217 0  228 225 0  233 229 0  226 223 0  222 220 0  218 216 0  211 210 0  215 213 0  220 218 0  220 218 0  224 222 0  223 221 0  217 215 0  218 217 0  219 217 0  219 217 0  227 224 0  227 224 0  221 219 0  220 218 0  212 211 0  208 207 0  215 214 0  219 217 0  226 223 0  234 231 0
229 226 0  227 225 0  221 219 0  211 210 0  213 212 0  215 214 0  217 215 0  225 222 0  225 222 0  220 218 0  221 219 0  217 216 0  216 215 0  224 221 0  224 221 0  223 221 0  224 222 0  216 214 0  211 210 0  214 213 0  214 213 0  222 220 0  232 228 0  230 227 0  228 225 0  223 220 0  210 209 0  208 207 0  211 210 0  214 212 0  225 222 0  232 229 0
224 221 0  225 223 0  218 216 0  216 214 0  221 219 0  220 218 0  223 220 0  226 223 0  219 217 0  215 214 0  215 213 0  211 210 0  218 216 0  227 224 0  228 225 0  231 228 0  227 224 0  215 213 0  211 210 0  209 208 0  209 208 0  220 218 0  228 225 0  229 226 0  232 229 0  225 222 0  214 213 0  213 212 0  211 210 0  213 212 0  223 221 0  224 222 0
220 218 0  217 216 0  211 210 0  216 215 0  222 220 0  224 222 0  231 228 0  229 226 0  220 218 0  216 214 0  209 208 0  206 206 0  216 214 0  222 220 0  228 225 0  235 231 0  228 226 0  220 218 0  216 214 0  209 208 0  210 209 0  219 217 0  221 219 0  226 223 0  228 226 0  221 219 0  218 216 0  219 217 0  216 214 0  221 218 0  225 222 0  220 218 0
222 219 0  212 211 0  207 206 0  213 211 0  216 215 0  224 222 0  234 231 0  231 228 0  226 223 0  220 218 0  209 208 0  208 208 0  214 213 0  217 215 0  225 223 0  230 227 0  224 222 0  222 220 0  219 217 0  213 212 0  218 216 0  221 219 0  220 218 0  223 221 0  220 218 0  214 212 0  217 215 0  218 216 0  220 218 0  229 226 0  229 226 0  224 222 0
225 223 0  213 211 0  209 209 0  210 209 0  212 210 0  222 220 0  229 226 0  227 224 0  227 225 0  222 219 0  214 212 0  216 215 0  217 215 0  218 216 0  224 222 0  222 220 0  218 216 0  219 217 0  216 214 0  217 215 0  225 223 0  226 223 0  226 224 0  226 223 0  216 214 0  210 209 0  211 210 0  211 210 0  220 218 0  231 228 0  230 227 0  230 227 0
225 223 0  217 215 0  217 215 0  213 212 0  215 213 0  223 221 0  222 220 0  221 219 0  222 220 0  216 214 0  216 214 0  222 220 0  222 220 0  226 223 0  228 225 0  219 217 0  215 214 0  212 211 0  208 207 0  216 214 0  225 223 0  228 225 0  233 230 0  229 227 0  218 216 0  213 212 0  209 208 0  207 207 0  218 216 0  225 222 0  227 225 0  232 228 0
218 217 0  218 216 0  220 218 0  218 216 0  224 221 0  227 224 0  222 219 0  220 218 0  215 214 0  209 208 0  214 212 0  219 218 0  224 221 0  233 230 0  231 228 0  223 221 0  219 217 0  210 209 0  206 205 0  214 212 0  219 217 0  226 223 0  233 230 0  228 225 0  222 220 0  219 217 0  211 210 0  212 211 0  219 217 0  220 218 0  223 221 0  225 223 0
211 210 0  214 213 0  215 213 0  219 217 0  230 227 0  231 228 0  227 225 0  224 222 0  213 211 0  207 206 0  211 210 0  213 212 0  222 220 0  232 229 0  230 227 0  227 225 0  223 221 0  212 211 0  211 210 0  215 213 0  216 214 0  223 221 0  227 224 0  222 219 0  222 219 0  219 217 0  215 214 0  221 219 0  224 221 0  222 220 0  224 222 0  218 217 0
211 210 0  210 209 0  208 207 0  218 216 0  228 225 0  229 226 0  232 229 0  227 225 0  215 214 0  212 211 0  211 210 0  211 210 0  221 219 0  226 223 0  224 222 0  226 223 0  221 219 0  215 214 0  219 217 0  219 218 0  220 218 0  226 223 0  221 219 0  216 214 0  216 215 0  213 211 0  216 214 0  226 223 0  228 225 0  229 226 0  229 226 0  217 215 0
216 215 0  210 209 0  208 207 0  217 215 0  222 220 0  225 222 0  230 227 0  224 221 0  218 216 0  219 217 0  216 214 0  218 216 0  224 222 0  221 219 0  220 218 0  220 218 0  213 212 0  215 213 0  221 219 0  223 221 0  229 226 0  231 228 0  221 219 0  216 215 0  211 210 0  206 205 0  214 212 0  222 220 0  227 224 0  234 230 0  231 228 0  220 218 0
221 219 0  214 212 0  215 214 0  221 219 0  220 218 0  223 220 0  223 220 0  215 214 0  216 214 0  218 217 0  218 217 0  227 224 0  230 227 0  224 222 0  222 220 0  215 213 0  207 206 0  211 210 0  216 215 0  222 220 0  233 230 0  232 229 0  226 223 0  222 220 0  211 210 0  207 206 0  213 212 0  216 215 0  223 221 0  231 228 0  226 224 0  223 220 0
217 216 0  216 214 0  223 221 0  226 224 0  225 222 0  226 224 0  218 216 0  210 209 0  212 210 0  212 210 0  217 216 0  229 226 0  231 228 0  230 227 0  227 224 0  215 213 0  209 208 0  210 209 0  211 210 0  220 218 0  229 226 0  228 225 0  228 225 0  224 222 0  214 213 0  214 213 0  217 215 0  216 215 0  223 221 0  224 222 0  219 217 0  219 217 0
209 208 0  214 212 0  224 222 0  227 225 0  232 228 0  231 228 0  219 218 0  213 212 0  210 209 0  207 206 0  215 214 0  225 222 0  227 224 0  231 228 0  228 225 0  218 216 0  216 214 0  214 212 0  213 211 0  221 219 0  223 221 0  221 219 0  223 221 0  219 217 0  215 214 0  221 219 0  222 219 0  224 221 0  228 225 0  221 219 0  215 214 0  214 213 0
205 205 0  212 211 0  219 217 0  224 222 0  233 230 0  231 228 0  222 220 0  219 217 0  212 211 0  210 209 0  218 216 0  220 218 0  222 220 0  227 224 0  221 219 0  217 216 0  220 218 0  217 216 0  221 219 0  227 224 0  222 220 0  220 218 0  218 216 0  210 209 0  212 211 0  219 217 0  222 220 0  231 228 0  233 230 0  224 222 0  219 217 0  212 211 0
209 208 0  214 213 0  215 214 0  221 219 0  228 225 0  224 221 0  222 219 0  221 219 0  215 214 0  219 217 0  223 221 0  221 219 0  223 221 0  221 219 0  213 211 0  214 212 0  216 214 0  218 216 0  228 225 0  231 228 0  227 224 0  225 222 0  215 214 0  207 206 0  210 209 0  213 212 0  219 218 0  231 228 0  232 228 0  227 225 0  224 222 0  214 212 0
217 216 0  219 217 0  219 217 0  224 222 0  223 221 0  216 215 0  217 215 0  214 213 0  214 213 0  224 222 0  228 225 0  228 225 0  229 226 0  220 218 0  211 210 0  210 209 0  209 208 0  215 213 0  227 224 0  230 227 0  231 228 0  229 226 0  217 216 0  212 210 0  212 210 0  210 209 0  218 216 0  226 224 0  225 222 0  226 224 0  223 221 0  216 214 0
221 219 0  223 220 0  226 224 0  231 228 0  223 221 0  216 215 0  213 212 0  207 206 0  211 210 0  222 220 0  226 223 0  232 229 0  233 230 0  222 220 0  216 215 0  211 210 0  207 206 0  215 213 0  222 220 0  224 222 0  230 227 0  227 224 0  218 217 0  218 217 0  216 214 0  215 214 0  223 220 0  223 220 0  220 218 0  221 219 0  215 214 0  214 212 0
216 215 0  220 218 0  231 228 0  234 230 0  227 224 0  222 220 0  214 212 0  206 205 0  211 210 0  216 215 0  221 219 0  231 228 0  229 226 0  223 221 0  221 219 0  215 213 0  213 212 0  220 218 0  220 218 0  221 219 0  224 222 0  218 216 0  216 214 0  219 217 0  218 216 0  224 221 0  230 227 0  225 222 0  222 220 0  217 215 0  208 207 0  210 209 0
211 210 0  217 215 0  229 226 0  229 226 0  228 225 0  226 223 0  216 214 0  213 211 0  216 215 0  216 214 0  221 219 0  226 223 0  220 218 0  219 218 0  219 217 0  215 214 0  221 219 0  226 223 0  224 222 0  226 223 0  221 219 0  211 210 0  211 210 0  212 211 0  215 214 0  227 225 0  232 229 0  229 226 0  228 225 0  218 216 0  208 207 0  210 209 0
211 210 0  218 217 0  224 222 0  222 220 0  224 221 0  221 219 0  215 214 0  219 217 0  222 219 0  222 219 0  227 224 0  223 221 0  216 214 0  215 213 0  211 210 0  212 211 0  223 221 0  227 225 0  230 227 0  232 229 0  222 220 0  213 212 0  211 210 0  207 206 0  213 211 0  224 222 0  227 225 0  231 228 0  230 227 0  219 217 0  215 213 0  214 213 0
218 217 0  225 223 0  223 221 0  220 218 0  219 217 0  212 211 0  211 210 0  219 217 0  222 220 0  228 225 0  233 230 0  226 223 0  219 217 0  214 212 0  206 205 0  210 209 0  219 217 0  223 221 0  231 228 0  233 230 0  224 221 0  219 218 0  214 212 0  209 208 0  215 214 0  220 218 0  222 219 0  227 224 0  224 221 0  218 216 0  220 218 0  218 216 0
