P3
32 32
255
133 102 68  134 103 69  123 96 64  123 96 64  125 97 64  116 90 60  110 86 57  110 87 58  120 93 62  136 105 70  136 105 70  124 97 65  122 96 64  122 95 63  117 91 61  114 89 60  112 88 59  120 94 63  135 104 69  131 101 68  119 93 63  119 93 62  121 94 63  124 96 64  124 97 65  117 92 62  122 95 63  130 100 67  122 94 63  113 88 59  113 89 60  120 94 63
126 98 65  125 98 66  130 101 68  137 106 71  125 97 65  110 86 58  109 86 58  115 90 60  124 96 64  127 99 66  122 95 64  125 97 65  132 102 68  123 96 64  115 90 60  116 91 61  121 94 63  130 100 67  127 99 66  115 90 60  116 91 61  123 95 64  121 94 63  121 95 63  123 96 64  128 99 67  136 105 70  126 98 66  109 86 58  109 86 57  116 90 60  121 94 62
118 92 62  127 98 66  136 105 70  131 102 68  116 91 61  117 91 61  123 96 64  121 94 63  120 94 63  119 93 63  122 95 64  129 100 67  123 95 64  111 87 58  117 92 61  128 99 66  131 101 68  130 101 68  121 94 63  118 92 62  122 95 63  115 90 60  108 85 57  117 92 62  129 100 67  137 106 71  135 104 70  120 94 63  116 91 61  120 93 62  114 89 59  111 87 58
125 97 65  128 99 66  125 97 65  116 91 61  117 91 61  127 98 65  124 96 64  119 93 62  125 97 65  129 100 67  129 100 67  121 94 63  107 84 56  110 86 58  123 96 64  126 98 65  126 98 66  130 101 68  130 101 68  130 101 67  119 93 62  104 82 55  109 86 57  123 95 63  127 98 66  128 100 67  126 98 66  126 98 65  129 100 67  121 94 63  109 86 58  115 91 61
130 100 67  123 96 64  119 93 63  117 91 61  120 93 62  117 92 61  111 88 59  123 96 64  137 106 71  135 104 70  127 99 66  116 91 61  112 88 58  118 92 61  116 91 60  112 88 59  124 97 65  135 104 70  135 104 69  127 99 66  114 90 60  113 89 59  123 95 64  121 94 63  117 91 61  122 95 64  127 98 66  128 99 66  123 95 64  112 88 59  118 92 62  132 102 68
125 97 65  128 100 67  130 100 67  122 94 63  113 88 59  105 83 55  112 88 59  130 100 67  132 102 68  127 99 66  127 99 67  126 98 65  123 95 63  117 91 61  108 85 57  116 91 61  131 101 67  129 100 67  122 95 64  120 94 63  120 93 62  126 97 65  124 97 65  117 91 61  123 96 64  131 101 68  124 96 64  115 90 60  110 87 58  114 89 60  128 99 66  131 101 68
128 100 67  140 108 72  131 102 68  118 92 62  112 88 59  113 88 59  121 94 63  123 96 64  118 92 62  125 97 65  132 102 68  126 98 65  119 93 62  115 90 60  119 93 62  131 101 67  128 99 66  117 92 61  118 92 62  121 94 63  119 93 62  119 93 62  118 92 62  126 98 66  139 107 72  132 102 68  117 92 61  113 89 59  113 88 59  117 91 60  120 93 62  118 93 62
134 103 69  132 102 68  119 93 63  120 94 63  123 96 64  122 95 63  121 95 63  117 92 62  122 95 63  131 101 67  123 96 64  112 88 59  114 90 60  122 95 63  130 100 67  132 102 68  123 96 65  124 96 65  127 99 66  117 91 60  107 85 56  110 87 58  120 94 62  134 104 69  136 105 70  125 97 65  124 96 65  125 97 65  116 91 60  111 87 58  111 88 59  120 93 62
127 98 66  116 91 61  117 92 61  125 97 65  121 94 63  118 92 62  123 96 64  129 100 67  135 104 69  127 99 66  110 87 58  110 86 58  118 92 61  119 93 62  122 95 64  126 98 66  131 102 68  138 106 71  127 98 66  109 86 58  109 86 57  117 91 60  121 94 63  125 97 65  123 96 64  126 98 66  134 103 69  124 97 64  113 88 59  115 90 61  122 95 63  128 99 66
122 96 64  120 93 62  123 96 64  116 90 60  106 84 56  116 91 61  130 101 67  136 105 70  133 103 69  122 96 64  118 92 61  121 94 63  114 89 59  108 85 57  117 92 62  128 99 66  135 104 70  132 102 68  118 92 62  117 91 61  124 96 64  120 93 62  116 91 61  120 94 63  124 96 64  129 100 67  124 96 64  111 88 59  117 91 61  128 99 66  129 100 67  127 99 66
133 103 69  130 101 67  120 93 62  105 83 55  108 85 57  123 95 63  126 97 65  125 98 65  128 100 67  128 100 67  130 100 67  121 94 63  108 85 57  114 89 60  126 98 65  127 98 65  124 96 65  119 93 63  119 93 62  127 98 65  123 96 64  116 91 61  124 96 65  131 101 68  129 100 66  121 94 63  109 86 58  110 87 58  123 96 64  125 97 65  123 96 64  130 101 68
135 104 69  126 98 66  117 91 61  114 89 60  122 94 63  120 93 62  114 90 60  122 95 64  130 100 67  128 99 66  122 95 64  114 89 60  118 92 61  131 101 67  129 100 67  120 94 63  121 94 63  120 94 63  120 93 62  117 91 61  111 87 58  121 95 63  137 106 71  135 104 70  126 98 66  119 93 62  114 89 60  117 91 60  115 90 60  111 87 58  123 96 64  137 106 71
121 95 63  122 95 64  123 95 64  124 96 64  123 95 64  116 91 61  122 95 64  132 102 68  125 97 65  115 90 60  112 88 59  115 90 60  126 98 65  129 100 67  123 96 65  128 100 67  133 102 68  122 95 63  112 88 58  106 84 56  112 88 58  128 99 66  132 102 68  125 98 66  129 100 67  129 100 67  122 95 63  115 90 60  108 85 57  115 90 60  130 101 67  129 100 67
119 93 62  124 96 64  119 93 62  116 91 61  118 92 62  126 98 65  138 106 71  133 103 69  117 92 61  114 90 60  116 90 60  115 90 60  117 92 61  118 93 62  128 99 67  141 108 72  133 103 69  117 92 62  113 89 60  114 89 59  119 92 61  121 94 63  117 92 62  125 97 65  135 104 69  127 98 66  117 92 61  115 91 61  119 93 62  128 99 66  127 99 66  117 92 61
129 100 67  118 92 61  106 84 56  110 87 58  121 94 63  132 102 68  135 104 70  126 98 66  125 97 65  127 99 66  117 91 60  108 85 57  111 88 59  120 94 63  133 102 68  132 102 68  120 94 63  121 94 63  126 97 65  121 94 63  118 92 62  117 92 62  122 95 64  131 101 68  125 97 65  111 88 59  115 90 60  123 96 64  127 99 66  129 100 67  124 97 65  124 97 65
128 99 66  110 86 58  109 86 57  118 92 61  119 93 62  122 95 64  124 97 65  128 99 67  135 104 69  126 98 65  111 88 59  114 90 60  123 95 64  126 97 65  125 97 65  118 92 62  119 93 62  127 98 65  121 94 63  115 90 60  122 95 64  130 100 67  133 103 69  127 99 66  112 88 59  111 87 58  119 93 62  118 92 61  119 93 62  126 98 66  133 103 69  137 106 71
121 94 63  118 92 62  124 96 64  119 93 62  113 89 59  120 94 63  126 98 65  129 100 67  124 97 65  113 89 59  116 91 61  129 100 66  128 99 66  124 97 65  124 96 65  122 95 64  124 96 64  116 91 61  106 84 56  115 90 60  131 101 68  134 103 69  132 102 68  125 97 65  120 93 62  122 94 63  114 89 59  106 83 56  116 91 61  130 100 67  134 103 69  131 102 68
122 95 63  126 98 65  123 95 64  114 90 60  122 95 64  133 102 68  128 99 66  120 94 63  112 88 59  112 88 58  122 95 63  124 96 64  120 94 63  129 101 68  136 105 70  130 101 67  120 93 62  107 84 56  108 85 57  122 95 63  125 97 64  123 96 64  129 100 67  132 102 68  130 100 67  121 94 63  108 85 57  113 88 59  126 98 65  126 98 65  122 95 64  121 95 64
120 93 62  115 90 60  111 88 59  120 94 63  137 105 70  135 104 70  124 97 65  121 94 63  118 92 61  116 90 60  114 89 59  110 87 58  121 95 63  138 106 71  135 104 70  125 98 65  119 93 62  116 91 60  120 93 62  119 92 62  113 89 59  122 95 64  132 102 68  128 99 66  121 94 63  115 91 61  118 92 61  129 100 66  128 99 66  119 93 62  121 95 64  124 96 64
110 87 58  107 85 57  113 88 59  126 97 65  130 101 68  125 97 65  129 100 67  133 103 69  123 95 63  113 89 59  108 86 57  114 89 60  129 100 66  129 100 67  121 94 63  123 96 64  126 98 65  123 96 64  120 94 63  116 91 61  121 94 63  133 102 68  126 98 65  114 89 60  114 89 60  118 92 61  124 96 64  127 99 66  123 96 64  128 100 67  135 104 69  124 96 64
114 90 60  116 91 60  117 91 60  118 92 62  118 92 62  125 97 65  136 105 70  129 100 67  116 91 61  116 91 61  120 94 62  126 97 65  126 98 65  117 92 62  120 93 62  127 98 65  120 93 62  114 89 60  118 92 62  126 98 65  136 105 70  133 103 69  118 92 62  115 90 60  118 92 61  114 89 59  114 89 60  118 93 62  128 99 66  140 108 72  134 104 69  117 92 62
128 99 66  121 94 62  114 90 60  117 92 62  123 96 64  130 101 67  126 98 65  112 88 59  115 90 60  125 97 65  126 97 65  126 98 65  125 97 65  126 98 65  130 100 67  119 93 62  105 83 55  110 87 58  122 95 63  129 100 67  132 103 69  127 99 67  126 98 66  129 100 67  118 92 61  106 84 56  111 87 58  121 94 63  131 101 67  132 102 68  122 95 64  122 95 64
122 95 63  113 89 59  121 94 63  131 101 68  132 102 68  126 98 66  114 90 60  112 88 59  120 93 62  118 92 61  115 90 61  125 98 66  134 104 69  137 105 70  128 100 67  111 88 59  109 86 57  118 92 61  118 92 61  118 93 62  125 97 65  130 101 67  135 104 69  127 98 66  111 88 59  114 89 60  123 96 64  124 96 64  122 95 64  120 94 63  121 94 63  127 99 66
106 84 56  114 89 60  131 101 68  133 103 69  129 100 67  127 99 66  123 95 64  122 94 63  114 89 59  104 83 55  115 90 60  131 101 67  133 103 69  130 101 68  123 96 65  120 93 62  124 96 64  119 92 62  110 87 58  119 93 62  128 99 66  129 100 66  124 96 65  115 90 60  116 91 61  128 99 66  127 98 66  121 94 63  124 97 65  125 97 65  124 96 64  117 91 61
108 85 57  121 94 62  123 96 64  121 94 63  129 101 68  135 104 70  130 100 67  120 94 63  109 86 58  112 88 58  125 97 65  125 97 65  120 94 63  123 96 64  125 97 65  126 97 65  122 95 63  114 89 60  121 94 63  133 103 69  128 99 66  119 93 62  114 90 60  114 89 59  121 94 63  123 95 64  119 93 62  128 100 67  138 106 71  131 101 67  119 93 62  109 86 57
118 92 61  117 91 61  112 88 59  121 94 63  134 103 69  129 100 67  120 94 63  117 92 62  119 93 62  127 98 65  126 98 66  118 92 62  122 95 64  127 98 66  120 94 62  114 89 60  112 88 59  120 93 62  135 104 69  135 104 70  123 96 65  122 95 64  121 94 63  115 90 60  112 88 58  110 86 58  120 94 63  138 106 71  136 105 70  124 97 65  121 95 63  119 92 62
117 92 61  116 91 61  121 94 63  132 102 68  127 98 66  114 89 60  115 90 60  120 94 62  122 95 63  124 97 65  123 96 64  128 99 67  136 105 70  125 97 65  109 86 58  108 85 57  114 89 59  123 96 64  128 100 67  125 97 65  130 101 68  135 104 70  124 96 64  111 87 58  109 86 57  114 89 60  126 98 65  129 100 67  121 94 63  124 97 65  129 100 67  123 95 64
118 92 62  127 98 66  134 103 69  132 102 68  119 93 62  116 91 61  121 94 62  114 89 59  111 87 58  118 92 62  128 100 67  139 107 72  135 104 70  118 93 62  115 90 60  119 92 61  115 90 60  115 90 60  118 92 62  126 98 65  136 105 70  130 101 67  116 91 61  116 91 61  122 95 63  123 96 64  123 96 64  118 93 62  121 94 63  128 99 66  121 94 63  112 88 59
123 95 64  127 99 66  130 101 67  129 100 67  128 99 66  130 100 67  119 92 62  104 83 55  110 87 58  122 95 63  129 100 66  130 101 68  124 97 65  123 96 64  129 100 66  121 94 63  111 88 59  117 91 61  124 96 64  129 100 67  126 98 65  114 90 60  116 91 61  126 98 65  124 96 64  122 95 64  125 97 65  127 99 66  130 100 67  121 94 63  105 83 56  110 86 58
117 91 61  115 90 60  125 97 65  133 103 69  135 104 69  127 99 66  112 88 59  113 89 59  124 96 64  122 95 63  119 93 62  121 95 64  123 96 64  128 99 66  122 95 64  112 88 59  119 93 63  132 102 68  131 101 67  125 97 65  117 92 61  114 89 60  120 93 62  118 92 61  113 89 59  124 97 65  136 105 70  136 105 70  128 100 67  114 89 60  110 87 58  118 92 61
109 86 57  117 92 61  130 100 67  129 100 66  123 96 64  117 92 62  118 92 61  127 98 66  126 98 65  118 93 62  124 97 65  128 99 66  124 96 64  116 91 61  108 85 57  114 89 59  130 101 67  132 102 68  127 99 66  128 100 67  126 98 65  122 94 63  114 89 59  104 82 55  113 89 59  131 101 68  133 103 69  128 100 67  126 98 66  122 95 64  123 96 64  118 92 61
119 93 62  132 102 68  128 99 66  118 92 62  116 91 61  117 91 61  120 93 62  121 94 63  118 92 62  127 99 66  139 107 72  131 101 68  118 92 62  111 87 58  110 86 57  119 92 61  122 95 63  119 93 63  129 100 67  138 106 71  130 101 67  119 93 62  111 87 58  112 88 58  124 96 64  125 97 65  118 93 62  124 97 65  129 100 67  125 97 65  120 94 63  114 90 60
