P3
32 32
255
226 196 0  231 200 0  223 193 0  220 190 0  228 197 0  232 201 0  230 199 0  228 198 0  224 193 0  210 181 0  204 175 0  212 182 0  217 187 0  214 185 0  214 185 0  216 187 0  214 184 0  217 187 0  231 200 0  239 207 0  232 201 0  226 195 0  224 194 0  219 189 0  216 187 0  222 192 0  222 192 0  210 181 0  203 175 0  207 179 0  212 183 0  216 187 0
235 203 0  234 202 0  226 196 0  226 195 0  225 195 0  222 192 0  224 194 0  228 197 0  218 188 0  205 176 0  204 176 0  210 181 0  212 183 0  218 188 0  226 195 0  222 192 0  216 187 0  223 193 0  233 202 0  234 202 0  231 200 0  229 198 0  219 189 0  208 180 0  211 182 0  219 189 0  216 186 0  210 181 0  211 182 0  211 182 0  211 181 0  222 192 0
235 204 0  233 201 0  232 201 0  227 196 0  216 186 0  213 184 0  221 191 0  221 191 0  212 183 0  208 179 0  208 180 0  207 178 0  213 184 0  227 197 0  232 201 0  225 195 0  223 193 0  227 197 0  227 196 0  227 196 0  232 200 0  227 196 0  211 182 0  205 176 0  210 181 0  212 183 0  213 184 0  219 189 0  219 190 0  213 183 0  215 186 0  229 198 0
229 198 0  233 202 0  234 202 0  221 191 0  209 180 0  211 181 0  215 185 0  213 184 0  214 185 0  216 187 0  211 182 0  208 179 0  220 190 0  232 201 0  233 201 0  231 200 0  230 199 0  223 193 0  217 188 0  223 193 0  227 197 0  218 189 0  209 180 0  207 179 0  206 178 0  207 178 0  218 188 0  228 197 0  224 193 0  219 189 0  224 194 0  229 198 0
225 194 0  232 201 0  227 197 0  214 185 0  208 180 0  208 179 0  206 178 0  211 182 0  222 192 0  222 192 0  214 185 0  217 187 0  226 196 0  230 199 0  233 201 0  237 205 0  230 199 0  216 186 0  213 183 0  218 189 0  217 188 0  214 184 0  214 184 0  210 181 0  204 176 0  211 182 0  226 195 0  231 200 0  228 197 0  229 198 0  227 197 0  222 192 0
222 191 0  224 194 0  218 188 0  214 184 0  211 182 0  204 176 0  204 175 0  217 187 0  227 196 0  225 194 0  224 193 0  226 196 0  225 194 0  225 194 0  234 202 0  235 204 0  222 192 0  212 183 0  211 182 0  210 181 0  209 180 0  216 187 0  220 190 0  212 183 0  209 180 0  219 189 0  228 197 0  230 199 0  235 204 0  235 203 0  223 193 0  216 186 0
215 185 0  212 183 0  214 185 0  218 188 0  212 183 0  204 176 0  210 181 0  222 192 0  227 196 0  230 199 0  234 203 0  228 198 0  220 190 0  223 193 0  230 199 0  226 195 0  217 188 0  214 184 0  207 179 0  202 174 0  209 180 0  222 192 0  222 192 0  218 188 0  221 191 0  224 193 0  224 194 0  232 200 0  239 207 0  231 200 0  218 188 0  214 185 0
205 177 0  206 177 0  217 187 0  221 190 0  214 185 0  213 184 0  219 189 0  222 192 0  227 197 0  237 206 0  237 206 0  225 194 0  218 188 0  220 190 0  219 189 0  216 187 0  218 188 0  215 185 0  204 175 0  203 175 0  215 185 0  223 193 0  225 194 0  229 198 0  229 198 0  222 192 0  222 192 0  232 201 0  233 202 0  224 194 0  217 188 0  213 183 0
200 172 0  208 179 0  219 189 0  220 190 0  222 192 0  226 195 0  223 192 0  220 190 0  230 199 0  238 206 0  232 200 0  222 192 0  218 188 0  212 183 0  207 178 0  214 184 0  220 190 0  214 184 0  207 178 0  212 183 0  218 188 0  222 192 0  232 200 0  238 206 0  230 199 0  220 190 0  223 192 0  226 195 0  222 192 0  220 190 0  219 189 0  208 179 0
205 177 0  213 183 0  217 188 0  224 194 0  233 202 0  232 201 0  222 192 0  222 192 0  229 198 0  229 198 0  225 194 0  223 193 0  215 185 0  203 175 0  204 175 0  215 185 0  218 188 0  216 187 0  219 189 0  220 190 0  218 188 0  225 194 0  237 206 0  237 206 0  227 197 0  222 192 0  219 189 0  213 184 0  214 185 0  221 190 0  217 187 0  206 177 0
215 185 0  214 185 0  218 188 0  231 200 0  239 207 0  232 200 0  224 194 0  224 193 0  221 191 0  218 188 0  222 192 0  222 192 0  209 180 0  202 174 0  207 179 0  214 184 0  217 188 0  226 195 0  230 199 0  223 193 0  220 190 0  228 198 0  234 203 0  230 199 0  227 196 0  222 192 0  210 181 0  204 176 0  212 183 0  218 188 0  214 185 0  212 183 0
222 191 0  216 186 0  223 193 0  235 203 0  235 204 0  230 199 0  228 197 0  219 189 0  209 180 0  212 183 0  220 190 0  216 187 0  209 180 0  210 181 0  211 182 0  212 183 0  222 192 0  235 204 0  234 202 0  225 194 0  225 194 0  226 196 0  224 193 0  225 194 0  227 196 0  217 187 0  204 175 0  204 176 0  211 182 0  214 184 0  218 188 0  224 194 0
225 194 0  222 192 0  227 197 0  229 198 0  228 197 0  231 200 0  226 195 0  211 182 0  204 176 0  210 181 0  214 184 0  214 184 0  217 188 0  218 189 0  213 183 0  216 186 0  230 199 0  237 205 0  233 201 0  230 199 0  226 196 0  217 187 0  214 185 0  222 192 0  222 192 0  211 182 0  206 178 0  208 179 0  208 180 0  214 185 0  227 197 0  232 201 0
229 198 0  229 198 0  224 194 0  219 189 0  224 193 0  228 197 0  218 188 0  207 178 0  206 178 0  207 179 0  209 180 0  218 189 0  227 197 0  223 193 0  217 188 0  223 193 0  230 199 0  231 200 0  233 201 0  232 201 0  220 190 0  208 179 0  211 182 0  216 187 0  214 185 0  213 184 0  215 185 0  211 181 0  209 180 0  221 191 0  234 202 0  233 202 0
235 204 0  229 198 0  215 186 0  213 183 0  219 190 0  219 189 0  213 184 0  212 183 0  210 181 0  205 176 0  211 182 0  227 196 0  232 200 0  227 196 0  227 196 0  227 197 0  223 193 0  225 195 0  232 201 0  227 197 0  213 184 0  207 178 0  208 180 0  208 179 0  212 183 0  221 191 0  221 191 0  213 184 0  216 186 0  227 196 0  232 201 0  233 201 0
235 203 0  222 192 0  211 181 0  211 182 0  211 182 0  210 181 0  216 186 0  219 189 0  211 182 0  208 180 0  219 189 0  229 198 0  231 200 0  234 202 0  233 202 0  223 193 0  216 187 0  222 192 0  226 195 0  218 188 0  212 183 0  210 181 0  204 176 0  205 176 0  218 188 0  228 197 0  224 194 0  222 192 0  225 195 0  226 195 0  226 196 0  234 202 0
226 196 0  216 187 0  212 183 0  207 179 0  203 175 0  210 181 0  222 192 0  222 192 0  216 187 0  219 189 0  224 194 0  226 195 0  232 201 0  239 207 0  231 200 0  217 187 0  214 184 0  216 187 0  214 185 0  214 185 0  217 187 0  212 182 0  204 175 0  210 181 0  224 193 0  228 198 0  230 199 0  232 201 0  228 197 0  220 190 0  223 193 0  231 200 0
217 187 0  217 187 0  214 184 0  203 175 0  203 175 0  216 186 0  225 194 0  225 194 0  227 197 0  228 198 0  223 192 0  223 193 0  233 201 0  234 203 0  223 193 0  215 186 0  212 183 0  206 178 0  207 178 0  217 187 0  221 191 0  213 184 0  212 182 0  219 189 0  224 193 0  228 197 0  237 205 0  237 205 0  224 193 0  217 187 0  220 190 0  221 191 0
214 185 0  220 190 0  213 184 0  206 177 0  211 182 0  219 189 0  224 193 0  231 200 0  237 205 0  229 199 0  220 190 0  222 192 0  227 196 0  223 193 0  220 190 0  217 187 0  208 179 0  200 172 0  208 179 0  220 190 0  221 191 0  221 191 0  224 194 0  223 193 0  221 191 0  231 199 0  239 207 0  232 201 0  221 190 0  217 187 0  213 184 0  209 180 0
216 186 0  219 189 0  215 186 0  217 187 0  220 190 0  219 189 0  225 195 0  238 206 0  238 206 0  226 196 0  220 190 0  219 189 0  215 185 0  215 185 0  220 190 0  216 187 0  205 176 0  204 176 0  213 184 0  219 189 0  224 194 0  232 201 0  231 200 0  222 192 0  222 192 0  230 199 0  231 200 0  225 194 0  221 191 0  214 185 0  203 175 0  204 176 0
215 186 0  219 189 0  225 194 0  229 198 0  223 192 0  219 189 0  229 198 0  236 204 0  231 200 0  225 195 0  221 191 0  211 182 0  205 176 0  213 183 0  219 189 0  214 185 0  210 181 0  214 184 0  215 186 0  219 189 0  232 200 0  239 207 0  231 200 0  223 192 0  223 193 0  222 192 0  219 189 0  222 192 0  221 191 0  209 180 0  201 173 0  207 179 0
214 184 0  223 193 0  235 203 0  233 202 0  224 193 0  224 193 0  227 197 0  225 195 0  225 194 0  226 195 0  216 187 0  203 175 0  204 175 0  213 183 0  216 186 0  217 188 0  222 192 0  221 191 0  216 187 0  223 193 0  236 204 0  236 204 0  229 198 0  226 195 0  219 189 0  210 181 0  212 183 0  220 190 0  217 187 0  208 179 0  208 179 0  211 182 0
216 186 0  230 199 0  238 206 0  232 201 0  228 197 0  225 195 0  218 188 0  215 186 0  222 192 0  222 192 0  211 182 0  204 176 0  208 179 0  210 181 0  215 186 0  227 196 0  232 201 0  224 193 0  221 191 0  228 197 0  231 200 0  229 198 0  230 199 0  225 194 0  210 181 0  204 175 0  211 182 0  216 186 0  214 184 0  216 186 0  217 188 0  213 184 0
223 193 0  232 201 0  232 201 0  232 201 0  231 200 0  220 190 0  208 179 0  211 182 0  218 188 0  215 186 0  212 183 0  213 184 0  211 181 0  209 180 0  221 191 0  234 203 0  234 202 0  228 197 0  227 197 0  225 194 0  220 190 0  224 194 0  228 197 0  218 188 0  206 177 0  205 177 0  209 180 0  210 181 0  218 189 0  227 196 0  223 192 0  217 187 0
227 196 0  225 194 0  226 196 0  232 201 0  227 196 0  212 183 0  206 177 0  209 180 0  210 181 0  213 183 0  220 190 0  220 190 0  213 184 0  216 186 0  228 197 0  233 202 0  233 202 0  233 202 0  228 197 0  216 186 0  213 184 0  220 190 0  220 190 0  213 183 0  210 181 0  209 180 0  206 177 0  212 183 0  227 196 0  232 201 0  226 196 0  225 194 0
223 193 0  217 187 0  223 192 0  227 196 0  218 189 0  210 181 0  209 180 0  205 177 0  206 177 0  218 188 0  228 197 0  224 194 0  220 190 0  225 194 0  227 197 0  228 197 0  234 202 0  234 203 0  221 191 0  209 180 0  211 181 0  213 184 0  212 183 0  215 186 0  218 188 0  211 182 0  208 179 0  220 190 0  231 200 0  232 201 0  232 201 0  232 201 0
216 186 0  213 184 0  217 188 0  216 186 0  214 184 0  216 186 0  211 182 0  204 175 0  210 181 0  225 194 0  230 199 0  229 198 0  231 200 0  228 197 0  221 191 0  224 193 0  232 201 0  227 196 0  215 186 0  210 181 0  208 179 0  204 176 0  211 182 0  222 192 0  222 192 0  215 186 0  218 188 0  225 195 0  228 197 0  232 201 0  238 206 0  230 199 0
214 184 0  211 182 0  208 179 0  208 179 0  217 187 0  220 190 0  212 183 0  210 181 0  219 189 0  226 195 0  229 198 0  236 204 0  236 204 0  223 193 0  216 187 0  221 191 0  222 192 0  217 188 0  216 186 0  213 183 0  204 175 0  203 175 0  216 187 0  226 195 0  225 194 0  225 195 0  227 197 0  224 193 0  224 193 0  233 202 0  235 203 0  223 193 0
215 186 0  207 179 0  201 173 0  209 180 0  221 191 0  222 192 0  219 189 0  222 192 0  223 193 0  223 192 0  231 200 0  239 207 0  232 200 0  219 189 0  215 186 0  214 184 0  210 181 0  214 185 0  219 189 0  213 183 0  205 176 0  211 182 0  221 191 0  225 195 0  231 200 0  236 204 0  229 198 0  219 189 0  223 192 0  229 198 0  225 194 0  219 189 0
216 186 0  204 176 0  203 175 0  214 185 0  221 191 0  225 194 0  231 200 0  230 199 0  222 192 0  222 192 0  231 200 0  232 201 0  224 194 0  219 189 0  213 184 0  204 176 0  205 176 0  216 187 0  220 190 0  215 185 0  215 185 0  219 189 0  220 190 0  226 196 0  238 206 0  238 206 0  225 195 0  219 189 0  220 190 0  217 187 0  215 186 0  219 189 0
214 185 0  209 180 0  213 184 0  217 187 0  221 190 0  232 201 0  239 207 0  231 199 0  221 191 0  223 193 0  224 194 0  221 191 0  221 191 0  220 190 0  208 179 0  200 172 0  208 179 0  217 187 0  220 190 0  223 193 0  227 196 0  222 192 0  220 190 0  229 199 0  237 205 0  231 200 0  224 193 0  219 189 0  211 182 0  206 177 0  213 184 0  220 190 0
217 187 0  221 191 0  220 190 0  217 187 0  224 193 0  237 205 0  237 205 0  228 197 0  224 193 0  219 189 0  212 182 0  213 184 0  221 191 0  217 187 0  207 178 0  206 178 0  212 183 0  215 186 0  223 193 0  234 203 0  233 201 0  223 193 0  223 192 0  228 198 0  227 197 0  225 194 0  225 194 0  216 186 0  203 175 0  203 175 0  214 184 0  217 187 0
