P3
32 32
255
64 49 206  145 54 230  191 94 233  98 72 238  55 119 232  119 208 226  151 198 231  168 132 248  215 157 215  210 188 203  119 173 246  53 145 229  112 181 242  149 119 253  117 36 216  130 44 224  123 100 252  43 91 216  35 86 205  120 132 255  200 136 232  174 88 240  171 149 245  164 218 210  112 211 222  91 166 243  193 175 226  218 153 213  143 74 242  75 85 235  73 147 241  50 102 225
63 80 227  182 116 242  174 77 235  133 81 246  151 196 232  132 220 216  92 179 238  170 172 239  221 174 201  202 139 230  92 96 246  79 157 242  76 154 241  62 63 216  108 38 216  181 75 231  122 67 240  47 78 213  64 152 235  140 195 235  157 130 251  197 124 234  214 183 203  170 203 221  67 167 233  100 189 236  176 180 233  156 73 239  126 42 222  132 92 250  62 107 235  33 79 198
102 165 247  151 130 253  163 82 241  209 154 222  189 203 210  98 193 233  83 184 233  174 202 220  201 147 230  148 59 233  135 87 248  98 140 251  36 91 209  45 67 204  140 81 246  179 77 233  117 49 228  104 125 253  128 211 224  99 190 235  131 153 252  216 175 206  219 172 204  139 135 254  81 159 242  107 196 233  82 112 246  96 42 217  162 58 229  153 77 242  53 66 211  37 95 211
101 190 235  98 132 251  198 152 231  222 177 196  186 171 232  89 162 244  114 208 225  131 188 239  107 67 238  147 52 228  177 92 239  74 72 229  34 76 198  56 113 232  139 125 254  142 61 235  173 89 240  193 187 220  129 206 228  71 177 231  154 204 226  210 184 207  193 112 236  144 91 248  130 165 249  57 135 234  40 74 204  97 60 231  181 78 232  126 43 223  74 64 224  94 171 242
69 172 232  110 184 241  205 194 204  216 160 213  166 110 248  142 171 247  108 193 235  45 106 223  74 61 222  173 77 235  155 55 229  74 46 209  55 103 229  88 174 240  83 122 247  148 98 250  220 163 208  206 181 212  108 170 246  101 203 227  151 217 216  152 141 252  147 62 235  187 101 237  125 108 253  37 78 203  38 86 208  112 111 253  140 60 235  131 43 223  172 133 247  144 200 231
80 183 232  145 221 213  181 195 221  170 99 244  188 105 238  176 152 243  54 105 229  33 83 201  80 96 241  149 74 241  120 33 213  121 59 235  136 171 247  74 169 236  66 144 238  187 186 224  220 176 200  195 138 235  144 163 249  137 214 221  85 176 237  68 81 230  156 76 241  188 85 231  91 45 218  47 70 207  61 137 236  79 123 245  102 63 234  197 112 233  213 172 211  138 176 245
139 213 222  132 218 217  87 135 248  141 84 247  206 113 227  139 70 241  50 62 205  43 103 220  76 126 244  88 58 227  138 51 229  207 137 226  163 171 242  66 157 235  113 207 226  182 211 207  196 151 232  188 110 238  194 168 228  114 171 247  35 100 211  57 92 228  154 94 248  135 40 220  100 35 211  103 107 251  79 160 241  48 118 226  129 138 255  218 173 205  212 156 218  147 150 252
164 205 222  60 152 233  48 103 224  147 113 253  170 70 233  104 32 208  80 61 225  76 140 243  46 111 224  69 83 232  201 142 231  219 157 212  158 138 251  121 193 237  144 226 206  130 198 234  137 109 253  207 128 227  197 129 234  67 73 225  37 89 209  67 126 240  91 71 236  106 34 211  169 72 235  173 149 244  66 138 239  63 162 232  167 210 216  205 180 215  194 122 236  196 164 229
128 128 255  39 94 213  55 124 232  105 104 251  103 36 213  125 35 216  162 106 248  79 127 245  39 117 219  117 181 243  202 186 213  204 136 229  189 144 238  178 208 213  118 209 225  54 135 231  127 127 255  201 120 231  137 46 225  77 47 213  66 111 238  51 119 229  53 69 213  138 74 243  216 138 219  176 128 245  93 149 248  130 220 216  152 219 213  150 151 251  200 131 232  216 161 213
91 50 222  59 91 229  61 133 236  50 75 215  88 45 216  192 93 232  189 117 239  82 106 244  86 183 235  149 221 211  164 184 236  188 129 240  218 166 209  188 182 225  58 126 234  48 127 227  118 146 253  125 57 234  111 29 206  134 62 237  97 117 251  36 98 212  54 113 231  186 172 232  209 144 224  179 115 243  175 194 225  151 223 208  85 185 233  108 142 253  207 152 224  195 103 233
116 42 222  108 105 252  43 99 218  37 82 205  126 117 255  207 137 226  176 95 241  152 148 251  155 220 211  120 215 220  101 161 248  198 163 228  220 155 211  141 84 247  61 87 228  67 145 238  59 104 232  73 44 207  142 48 226  189 98 235  92 84 242  48 118 226  117 204 229  167 197 227  179 129 244  212 152 220  205 193 205  116 185 241  49 142 227  114 171 247  168 120 248  123 37 217
175 72 232  117 79 245  42 83 211  58 143 233  153 192 234  176 132 245  194 118 236  208 185 207  164 210 218  67 170 231  99 179 241  187 174 230  170 79 237  118 41 221  111 92 249  60 117 235  35 79 200  68 69 224  189 111 238  181 86 236  119 84 247  134 196 235  135 222 213  106 181 241  175 159 241  222 172 201  201 150 229  79 103 243  67 150 238  85 156 244  74 60 221  110 34 213
186 83 232  111 55 231  83 122 247  124 212 223  115 195 235  143 144 253  217 169 208  218 177 203  130 147 253  68 154 237  108 193 235  103 114 252  104 38 216  154 52 227  147 85 246  49 74 212  35 92 208  107 157 250  172 133 247  167 81 240  200 152 229  181 209 209  100 200 229  82 178 235  181 194 222  210 149 223  147 62 235  113 84 247  89 145 248  39 95 213  50 61 204  145 71 241
154 65 235  161 84 242  181 191 224  129 212 223  74 177 232  158 195 231  215 181 204  198 120 234  125 90 249  111 164 248  62 143 236  45 71 207  101 51 226  184 78 231  126 49 228  62 68 220  82 166 240  113 194 235  116 130 254  199 142 232  221 179 198  181 183 229  78 163 239  108 203 228  148 188 238  124 67 239  141 47 225  166 93 244  69 84 232  33 78 196  57 103 231  157 123 251
153 90 247  218 160 211  202 189 211  102 178 242  93 197 229  159 213 217  173 143 246  148 59 233  174 96 242  116 120 254  36 83 204  39 80 206  124 102 252  156 65 235  127 44 224  151 130 253  138 206 228  76 178 233  115 174 246  210 188 204  219 164 209  157 115 251  120 168 248  107 196 233  54 108 230  81 53 220  172 71 233  157 62 233  66 52 210  46 101 222  92 173 241  104 125 253
192 175 227  222 176 198  193 148 235  123 163 250  129 213 222  99 182 239  79 75 233  155 66 236  188 88 233  85 52 221  41 72 203  58 131 234  98 125 251  115 60 235  191 103 235  208 177 213  133 188 240  74 180 231  147 217 216  193 192 216  179 101 241  176 98 242  163 159 246  53 116 230  34 81 201  85 83 239  163 76 238  123 35 216  104 59 232  122 174 246  81 178 235  73 139 242
191 206 206  205 153 225  182 108 241  180 170 235  112 181 242  37 102 213  62 80 226  164 89 243  143 44 222  91 37 210  84 106 245  81 167 240  55 119 232  135 123 255  220 169 205  212 164 216  132 155 252  125 211 224  138 219 216  106 136 253  143 74 242  202 110 229  136 82 246  45 67 203  40 98 215  87 123 248  104 57 231  136 47 226  200 136 232  157 183 238  64 161 233  110 201 230
148 199 231  149 103 251  203 120 230  193 137 236  61 83 227  35 87 205  70 118 241  111 71 240  112 32 211  155 66 236  163 159 246  67 149 237  61 155 233  174 204 219  212 178 209  195 125 235  182 164 237  155 210 221  66 161 234  52 95 225  153 100 249  179 76 232  101 35 211  66 64 219  70 141 240  53 116 230  79 75 233  202 132 231  218 162 210  151 150 251  104 190 236  143 225 208
61 135 236  132 111 254  205 118 228  139 53 230  66 52 210  56 110 231  58 123 234  62 65 217  139 64 238  215 138 219  173 143 246  80 151 244  123 217 218  162 218 211  168 150 246  197 122 234  211 163 217  123 144 254  36 96 211  54 114 231  124 102 252  114 36 215  117 34 213  145 107 252  78 140 244  40 117 219  120 168 248  209 182 209  208 142 225  177 144 244  166 211 216  122 213 222
46 119 225  129 137 255  143 61 235  110 29 206  115 60 235  89 128 249  38 103 214  57 102 231  193 163 231  215 148 218  173 120 246  158 195 231  148 225 207  97 190 234  116 130 254  209 144 224  198 112 232  82 56 223  49 91 221  62 133 237  60 74 222  94 40 214  187 86 232  186 128 241  74 116 243  76 176 234  154 219 212  181 183 229  191 124 238  213 165 214  181 191 224  56 135 233
62 140 236  72 105 240  82 40 209  138 42 222  184 101 239  86 97 244  43 117 222  116 198 233  181 194 222  189 129 239  207 148 225  198 198 207  115 195 235  49 139 227  118 159 251  183 121 242  129 38 219  102 42 219  93 109 249  44 106 222  41 78 206  131 101 252  212 138 222  177 104 243  130 147 253  146 221 212  130 218 217  114 157 251  200 152 229  220 157 210  137 96 251  51 89 222
60 125 235  38 78 204  74 60 221  193 106 235  186 96 236  105 89 247  116 193 236  139 223 212  124 183 242  180 148 242  222 170 202  198 161 228  69 110 239  58 143 233  95 155 248  89 57 227  111 31 210  165 69 234  111 92 249  38 88 210  55 133 232  165 187 234  191 136 238  190 115 238  200 188 213  159 216 214  70 175 231  99 168 245  196 167 227  181 86 236  109 43 221  91 92 244
45 82 214  34 89 206  114 146 253  188 135 239  171 83 239  188 150 238  173 214 209  105 206 226  85 172 239  188 185 224  215 151 217  146 67 238  92 84 242  80 148 244  43 99 218  57 55 205  146 62 235  190 89 232  105 62 235  67 120 239  121 211 224  133 197 234  155 137 252  217 163 211  215 183 203  124 161 251  59 149 233  109 188 238  126 117 255  111 37 215  142 48 226  137 93 250
53 73 216  72 160 237  127 196 235  137 129 255  199 132 233  218 180 200  175 194 225  71 165 235  103 197 232  163 185 236  141 68 240  134 43 223  151 93 248  65 95 234  32 78 197  59 91 229  172 120 247  164 70 235  148 81 245  167 195 228  130 216 219  81 178 235  164 184 236  218 177 202  201 129 232  108 92 248  94 161 246  68 150 238  53 67 211  105 44 221  184 77 230  125 57 234
127 127 255  133 209 225  86 184 234  122 163 250  213 181 205  220 168 206  148 124 253  99 164 246  107 197 233  66 110 238  88 47 218  169 64 230  157 70 237  59 58 210  40 98 216  97 171 243  128 127 255  158 84 243  215 157 216  196 197 210  98 185 237  86 191 230  167 208 218  189 145 238  148 58 233  156 91 246  107 131 253  35 87 206  42 74 205  133 92 250  169 71 234  122 46 225
202 182 216  130 198 234  71 178 230  150 211 221  202 188 211  187 105 238  161 94 246  147 163 248  54 126 232  37 78 202  91 71 236  174 77 235  125 39 219  88 60 228  107 174 245  91 185 235  83 135 247  196 164 229  223 177 197  190 160 234  104 162 248  121 212 223  114 187 240  92 70 236  152 58 232  184 90 235  80 61 225  37 75 200  56 123 233  118 126 255  128 59 235  183 95 237
210 173 214  118 162 250  113 207 226  144 218 215  129 138 255  146 67 238  196 106 233  131 94 251  40 72 203  38 92 211  100 118 252  122 58 234  134 44 224  188 135 239  150 193 235  65 166 232  109 193 235  198 200 205  212 156 218  175 107 244  163 171 242  109 188 238  40 104 217  67 70 224  170 83 239  150 49 226  82 41 209  67 105 238  84 172 239  67 120 239  141 109 253  221 166 206
195 130 235  164 163 244  146 212 221  74 169 236  59 88 227  156 87 245  185 80 231  96 39 214  55 67 213  65 140 238  64 119 238  90 68 234  200 122 232  217 167 210  144 163 249  90 186 234  144 224 210  166 198 227  160 100 248  197 112 233  186 145 239  57 94 228  33 85 202  75 107 242  131 72 242  116 32 212  139 62 236  150 166 247  69 159 236  62 149 235  181 195 221  217 177 204
193 115 236  204 166 222  118 159 251  35 98 210  55 103 229  141 98 251  125 37 217  109 34 212  125 108 253  78 151 243  43 117 222  124 154 252  214 177 206  211 149 222  162 146 249  153 213 219  126 217 219  72 134 242  137 96 251  206 116 227  140 60 235  57 57 207  48 107 225  66 126 239  74 61 222  139 57 233  212 138 222  169 158 244  71 154 239  117 213 222  173 215 209  183 150 240
209 136 225  199 120 233  74 64 224  42 90 214  64 131 238  74 72 229  101 36 212  179 79 234  181 139 243  69 127 241  68 169 232  161 215 214  195 181 222  193 122 237  206 164 221  173 199 223  57 143 232  46 111 224  139 125 254  158 65 234  107 30 207  97 60 231  82 135 246  40 107 218  62 92 231  198 153 231  217 152 214  166 127 249  140 195 235  145 226 206  112 194 235  126 118 255
194 120 236  133 42 222  89 44 216  78 111 244  47 113 225  46 73 209  135 87 248  215 138 219  177 115 244  110 148 252  138 221 213  141 219 215  131 153 252  201 141 231  219 159 211  132 111 254  44 92 217  58 133 234  87 105 246  93 37 211  132 38 218  175 104 244  82 112 246  40 117 219  116 191 238  193 190 217  197 132 234  199 145 231  189 203 210  116 202 230  50 137 228  123 144 254
107 56 231  112 30 208  151 65 236  104 105 251  37 93 210  53 123 231  176 180 233  202 139 230  185 114 240  189 191 219  154 220 211  76 179 232  102 155 249  203 160 225  189 94 234  100 45 221  73 91 237  60 130 235  43 77 209  81 51 219  194 100 233  188 106 237  92 96 246  100 189 236  143 223 211  144 184 240  185 137 241  220 168 205  194 172 227  62 118 236  52 135 230  106 152 251
