P3
32 32
255
123 120 111  130 126 118  69 67 62  64 62 58  126 122 113  83 81 75  79 76 71  126 123 114  119 115 107  98 95 89  88 86 80  100 97 90  109 106 98  104 101 94  104 101 94  107 104 97  103 100 93  108 105 98  130 126 118  92 90 83  132 128 119  123 119 111  120 117 109  112 109 101  108 105 97  117 113 105  117 113 105  48 47 44  37 36 34  94 91 85  101 98 91  107 104 97
136 132 123  134 130 121  123 119 111  122 119 110  122 118 110  116 113 105  120 117 109  125 121 113  110 106 99  89 87 81  40 39 36  98 95 88  101 98 91  110 107 100  122 118 110  117 113 105  107 104 97  118 114 106  134 130 121  85 83 77  81 79 73  128 124 115  63 61 57  95 93 86  50 49 46  112 108 101  107 104 97  99 96 89  100 97 90  99 96 89  49 48 44  116 113 105
137 133 123  84 81 75  82 80 74  75 73 67  107 104 97  103 100 93  115 112 104  115 112 104  101 98 91  95 92 86  95 93 86  93 90 84  53 51 48  75 73 68  132 128 119  122 118 110  118 115 107  125 121 112  124 120 112  75 73 68  131 127 118  123 120 111  100 97 90  90 87 81  97 94 88  101 98 91  103 100 93  112 108 101  113 109 102  102 99 92  106 103 96  127 123 115
128 124 115  134 130 121  134 130 121  65 63 59  96 93 86  49 48 44  105 102 95  102 99 92  104 101 94  58 56 52  49 48 45  46 44 41  114 110 103  133 129 120  133 129 120  130 126 117  80 78 72  119 115 107  109 106 99  118 115 107  125 121 113  111 108 100  46 45 42  94 91 85  92 89 83  93 91 84  111 107 100  126 122 113  119 116 107  111 108 100  119 116 108  127 123 115
71 69 64  132 128 119  125 121 112  54 53 49  46 45 41  95 92 86  92 89 83  100 97 90  116 113 105  116 113 105  104 101 94  108 105 98  123 119 111  128 125 116  83 81 75  139 135 125  128 124 116  106 103 96  102 99 92  111 108 100  109 106 99  103 100 93  104 101 94  98 95 89  89 86 80  49 48 45  73 71 66  130 126 117  126 122 113  127 123 114  125 121 113  116 113 105
116 112 104  120 116 108  110 107 99  104 101 94  100 97 90  88 86 80  88 85 79  109 106 98  75 72 67  71 69 64  69 67 63  123 119 111  120 117 109  121 117 109  134 130 121  137 133 123  117 114 106  51 50 46  50 49 45  97 94 88  96 94 87  108 105 97  113 110 102  51 50 46  47 46 43  112 109 101  125 121 113  129 125 117  87 85 79  136 132 123  118 115 107  107 104 97
106 102 95  101 98 91  104 101 94  111 107 100  101 98 91  89 86 80  49 47 44  117 113 105  124 120 112  129 126 117  86 83 78  126 123 114  113 109 102  68 66 62  129 125 116  122 118 110  109 106 99  104 101 93  94 91 85  36 35 32  97 94 87  116 113 105  117 113 105  110 107 99  65 63 59  119 116 108  120 116 108  82 79 74  143 138 129  131 127 118  60 59 55  55 54 50
41 40 37  91 88 82  59 57 53  114 111 103  104 101 94  103 100 93  112 109 101  67 65 60  124 121 112  140 136 127  140 136 126  71 69 64  110 106 99  64 62 58  111 108 101  107 104 97  111 107 100  105 102 95  88 85 80  87 84 78  106 102 95  118 114 106  71 69 64  127 124 115  128 124 115  117 113 105  117 113 105  132 128 119  134 130 121  119 116 108  109 106 99  102 99 92
33 32 30  95 92 85  111 108 100  114 111 103  116 113 105  122 118 110  117 114 106  114 111 103  79 77 72  141 137 128  131 127 118  117 113 105  110 107 100  51 50 46  44 43 40  103 100 93  64 62 58  54 52 49  93 91 84  101 98 91  110 107 100  67 65 61  131 127 118  92 89 83  79 77 72  114 111 103  68 66 61  122 118 110  116 113 105  114 111 103  111 108 100  95 92 85
90 88 81  102 99 92  109 106 99  70 68 63  134 130 121  132 128 119  117 113 105  117 113 105  128 124 115  127 124 115  121 117 109  118 114 106  106 102 95  37 36 34  88 85 80  56 54 50  111 107 100  107 104 97  111 108 101  64 62 58  60 58 54  120 117 109  140 136 126  140 136 127  124 121 112  67 65 60  112 109 101  53 52 48  104 101 94  114 111 103  108 105 98  91 88 82
106 102 95  105 102 95  60 59 55  131 127 118  143 138 129  82 79 74  70 68 64  70 68 63  114 111 103  110 107 99  117 113 105  116 113 105  97 94 87  85 83 77  94 91 85  104 101 93  109 106 99  72 70 65  129 125 116  118 114 106  113 109 102  77 75 69  135 131 122  129 126 117  124 120 112  117 113 105  49 47 44  39 38 35  101 98 91  61 59 55  55 53 49  52 50 47
66 64 60  58 56 52  118 115 107  136 132 123  137 133 123  129 125 117  125 121 113  112 109 101  47 46 43  101 98 91  113 110 102  108 105 97  96 94 87  48 46 43  99 97 90  101 98 91  68 66 61  137 133 123  85 82 77  121 117 109  71 69 64  123 119 111  119 115 107  121 117 109  124 120 112  109 106 98  39 37 35  88 86 80  100 97 90  54 53 49  110 107 99  70 68 63
120 117 109  116 113 105  75 73 68  127 123 114  126 122 113  130 126 117  122 119 110  99 96 89  39 38 35  98 95 89  104 101 94  54 52 49  109 106 99  111 108 100  102 99 92  106 103 96  128 124 116  139 135 125  133 129 120  128 125 116  123 119 111  59 57 53  55 53 50  116 113 105  116 113 105  100 97 90  92 89 83  95 92 86  46 45 41  104 101 94  125 121 112  132 128 119
78 76 71  127 123 115  70 68 63  62 60 56  119 116 107  126 122 113  111 107 100  93 91 84  92 89 83  94 91 85  46 45 42  111 108 100  125 121 113  118 115 107  60 58 54  119 115 107  80 78 72  130 126 117  133 129 120  133 129 120  114 110 103  46 44 41  99 96 89  108 104 97  104 101 94  53 51 48  105 102 95  99 96 89  96 93 86  65 63 59  134 130 121  84 82 76
137 133 123  127 123 115  57 55 51  53 51 47  113 109 102  112 108 101  103 100 93  101 98 91  48 46 43  40 39 36  100 97 90  123 120 111  131 127 118  124 121 112  124 120 112  75 73 68  69 67 62  122 118 110  132 128 119  125 121 113  102 99 92  93 90 84  95 93 86  95 92 86  51 50 46  115 112 104  115 112 104  103 100 93  58 56 52  124 121 112  82 80 74  133 129 120
136 132 123  116 113 105  99 96 89  99 96 89  100 97 90  99 96 89  107 104 97  112 108 101  100 97 90  95 93 86  63 61 57  128 124 115  81 79 73  135 131 121  134 130 121  118 114 106  58 56 52  117 113 105  122 118 110  110 107 100  101 98 91  98 95 88  89 87 81  89 87 81  110 106 99  125 121 113  120 117 109  116 113 105  122 118 110  73 71 66  74 71 66  134 130 121
123 120 111  107 104 97  101 98 91  94 91 85  87 84 78  48 47 44  117 113 105  67 65 61  108 105 97  112 109 101  120 117 109  123 119 111  132 128 119  142 138 128  130 126 118  108 105 98  103 100 93  107 104 97  104 101 94  104 101 94  59 58 54  51 49 46  39 38 35  98 95 89  119 115 107  126 123 114  128 124 116  83 81 75  76 74 69  64 62 58  118 115 107  130 126 118
108 105 98  109 106 98  54 53 49  88 85 79  87 84 78  107 104 96  120 117 109  121 117 109  125 121 112  77 75 69  117 114 106  68 66 62  133 129 120  86 84 78  119 115 107  106 103 96  101 98 91  92 90 83  93 90 84  108 105 98  114 111 103  103 100 93  100 97 90  62 60 56  119 116 108  126 122 114  139 135 126  139 135 126  119 116 108  59 57 53  114 111 103  114 111 103
104 101 94  113 110 102  103 100 93  42 41 38  100 97 90  63 61 57  119 116 108  81 79 73  140 136 126  128 124 115  63 62 57  117 114 106  124 121 112  118 115 107  113 109 102  109 106 98  94 91 85  83 80 75  46 44 41  113 110 102  66 64 59  65 63 58  119 116 108  118 114 106  115 112 104  130 126 117  142 138 128  131 128 119  114 111 103  108 105 98  102 99 92  96 93 87
107 103 96  112 109 101  106 103 96  108 105 98  113 109 102  112 108 101  122 118 110  141 137 127  141 137 127  123 119 111  114 110 103  112 109 101  105 102 95  105 102 95  64 62 58  58 56 52  90 87 81  39 38 35  103 100 93  63 61 57  120 116 108  83 80 75  81 79 73  116 113 105  67 65 60  129 126 117  130 126 117  120 117 109  115 112 104  104 101 94  87 85 79  89 86 80
106 103 96  111 108 100  120 117 109  127 123 114  117 114 106  112 109 102  127 123 115  138 134 124  130 126 118  122 118 110  115 111 104  99 96 89  90 87 81  102 99 92  112 109 101  104 101 94  98 96 89  104 101 94  57 55 51  112 109 101  82 79 74  143 139 129  130 127 118  117 114 106  118 115 107  117 113 105  112 109 101  67 65 60  65 64 59  96 93 87  84 81 75  44 43 40
103 100 93  118 114 106  87 84 79  134 130 121  70 68 63  119 115 107  125 121 113  122 118 110  121 117 109  73 71 66  108 105 97  87 85 79  88 85 79  102 99 92  106 103 96  109 106 99  117 114 106  115 111 104  107 104 97  119 115 107  138 134 124  138 134 125  128 124 115  122 119 110  112 109 101  98 95 89  102 99 92  114 110 103  108 105 98  45 44 41  95 92 85  100 97 90
107 104 97  80 77 72  141 137 127  132 128 119  125 122 113  121 118 110  110 107 99  106 103 96  67 65 61  117 113 105  99 96 89  89 87 81  45 44 40  98 95 88  106 103 95  124 120 112  82 80 74  119 116 108  115 111 103  125 122 113  130 126 117  127 123 115  79 77 71  71 69 64  98 95 89  88 85 80  99 96 90  106 103 96  104 101 94  107 104 96  60 58 54  53 52 48
118 115 107  132 128 119  132 128 120  132 128 119  81 78 73  113 110 102  95 92 86  99 96 90  60 58 54  106 103 95  101 98 91  102 99 93  99 96 89  97 94 88  115 112 104  136 132 122  134 130 121  125 122 113  125 121 112  120 117 109  113 110 102  120 116 108  126 122 113  61 59 55  91 89 82  91 88 82  46 45 42  98 96 89  111 108 100  124 120 112  117 114 106  108 105 98
124 121 112  121 117 109  123 119 111  83 80 75  75 73 68  101 98 91  91 88 82  96 93 87  48 47 44  102 99 92  64 62 58  65 63 58  53 51 48  106 103 96  76 74 69  134 130 121  133 129 120  134 130 121  126 122 113  106 103 96  102 99 92  65 63 58  114 110 103  52 51 47  48 47 44  96 93 87  91 88 82  101 98 91  124 121 112  83 80 75  73 71 66  72 69 65
118 115 107  108 105 98  117 114 106  124 120 112  61 60 55  98 96 89  46 45 42  41 40 37  91 89 82  61 59 55  126 122 113  120 116 108  113 110 102  71 69 64  125 121 112  125 122 113  85 82 77  136 132 122  115 112 104  97 94 88  99 96 89  53 51 48  51 50 46  106 103 95  110 106 99  99 96 90  95 92 86  113 110 102  81 78 73  132 128 119  132 128 120  132 128 119
107 104 97  103 100 93  60 58 54  57 56 52  54 53 49  106 103 96  99 96 90  88 85 80  98 95 89  121 117 109  79 77 71  78 75 70  130 126 117  125 122 113  115 111 103  119 116 108  131 128 119  75 72 67  106 103 95  98 95 88  94 92 85  89 87 81  99 96 89  67 65 61  117 113 105  56 55 51  110 107 99  72 70 65  125 122 113  132 128 119  91 89 82  80 77 72
103 100 93  100 97 90  95 92 85  45 44 41  108 105 98  64 62 58  102 99 92  98 95 89  112 109 101  73 71 66  128 124 115  138 134 125  88 86 80  119 115 107  107 104 97  115 111 104  68 66 61  60 58 54  57 55 51  102 99 92  38 37 35  38 37 34  58 57 53  122 119 111  121 117 109  122 118 110  125 121 113  119 115 107  119 116 108  84 82 76  136 132 123  68 66 62
57 55 51  44 43 40  84 81 75  96 93 87  65 64 59  116 113 105  112 109 101  117 113 105  69 67 62  68 66 61  130 127 118  143 139 129  82 79 74  112 109 101  106 103 96  104 101 94  98 96 89  104 101 94  112 109 101  102 99 92  90 87 81  99 96 89  115 111 104  122 118 110  130 126 118  138 134 124  127 123 115  112 109 102  117 114 106  77 75 70  71 69 64  62 60 56
107 103 96  39 38 35  87 85 79  104 101 94  115 112 104  120 117 109  130 126 117  129 126 117  116 113 105  116 113 105  81 79 73  132 128 119  71 68 64  63 61 57  54 52 49  89 86 80  40 39 36  108 104 97  64 62 58  56 54 50  56 54 51  112 109 101  114 110 103  123 119 111  141 137 127  91 89 82  122 118 110  112 108 101  113 109 102  108 105 98  57 55 51  112 109 101
104 101 94  96 93 87  53 51 48  108 105 98  114 111 103  131 128 119  142 138 128  130 126 117  115 112 104  118 114 106  70 68 63  65 63 58  115 112 104  113 110 102  46 44 41  83 80 75  94 91 85  59 58 54  113 109 102  118 115 107  75 73 68  68 66 61  63 62 57  128 124 115  140 136 126  81 79 73  70 68 63  63 61 57  100 97 90  91 89 83  103 100 93  113 110 102
59 57 53  114 111 103  114 111 103  108 105 98  70 68 63  139 135 126  90 87 81  126 122 114  119 116 108  112 108 101  100 97 90  53 52 48  114 111 103  108 105 98  93 90 84  92 90 83  101 98 91  106 103 96  119 115 107  136 132 122  133 129 120  118 114 106  117 114 106  77 75 69  75 73 68  71 69 64  120 117 109  57 56 52  87 84 78  38 37 35  104 101 94  109 106 98
